src-tauri/resources/film_luts/F-Pro 400H.cube
# ============================================================================
# spektrafilm LUT
# Bundle:  spektrafilm_v034_pro400h_crystalarchive_1lut_vlog_srgb  (1lut, 25^3)
# Film:    fujifilm_pro_400h
# Print:   fujifilm_crystal_archive_typeii
# Input:   Panasonic V-Log  (cctf on)
# Output:  sRGB  (cctf on)
# Created: 2026-08-17T16:43:49Z
# spektrafilm: 0.3.4
# Project: https://github.com/andreavolpato/spektrafilm
#
# Copyright (c) 2026 Andrea Volpato. Generated by spektrafilm. Licensed under CC BY-SA 4.0.
#
# License: spektrafilm LUT by Andrea Volpato, licensed under CC BY-SA 4.0.
#          Full text and attribution requirements in SPEKTRAFILM_LICENSE.txt
#          (shipped in this bundle); also at
#          https://github.com/andreavolpato/spektrafilm/blob/main/SPEKTRAFILM_LICENSE.txt.
#
# Citation: If you use this LUT in your work, please cite the spektrafilm
#           project: https://github.com/andreavolpato/spektrafilm, see
#           CITATION.cff for details.
#
# Notes: Generated by the spektrafilm LUT bundle builder. Apply with trilinear
#        or tetrahedral interpolation in your host (DaVinci Resolve, Nuke,
#        OCIO-aware DCC). The input and output color spaces are declared in
#        bundle.json; do NOT apply this LUT to a signal in a different color
#        space.
#
# File: lut_v034_pro400h_crystalarchive.cube  (see sibling bundle.json for full metadata)
# ============================================================================
TITLE "v034_pro400h_crystalarchive"
DOMAIN_MIN 0 0 0
DOMAIN_MAX 1 1 1
LUT_3D_SIZE 25
0.02665032568 0.05319569516 0.06555225988
0.02665032568 0.05319569516 0.06555225988
0.02665032568 0.05319569516 0.06555225988
0.02665032568 0.05319569516 0.06555225988
0.02665032568 0.05319569516 0.06555225988
0.02665032568 0.05319569516 0.06555225988
0.02665032568 0.05319569516 0.06555225988
0.02665032568 0.05319569516 0.06555225988
0.01288611852 0.1294306971 0.08620513491
0.05179278723 0.05646236696 0.06932112871
0.09666211186 0.07002264655 0.1858955369
0.2127937784 0.07866234981 0.1912709003
0.3610324189 0.08757875264 0.1793206987
0.4778357999 0.09753133666 0.1679802564
0.5945594886 0.1115559509 0.1661637382
0.6664901818 0.1220189316 0.1709136356
0.7073404897 0.1293879369 0.1849074333
0.7249581975 0.1347146603 0.2122920131
0.7365236336 0.142176869 0.2633360487
0.7479538945 0.1542060624 0.3391889371
0.7681216169 0.1776664522 0.4300050198
0.8030920424 0.2233241513 0.5268448985
0.8527140045 0.3130158538 0.6412397143
0.8879601434 0.4478023525 0.7454385665
0.9081081337 0.5911023246 0.827834742
0.02665032568 0.05319569516 0.06555225988
0.02665032568 0.05319569516 0.06555225988
0.02665032568 0.05319569516 0.06555225988
0.02665032568 0.05319569516 0.06555225988
0.02665032568 0.05319569516 0.06555225988
0.02665032568 0.05319569516 0.06555225988
0.02665032568 0.05319569516 0.06555225988
0.02571307974 0.05678454745 0.06641221761
0.06000745071 0.05939467208 0.06701735766
0.04806904037 0.06048245708 0.1017074635
0.1102960602 0.07023035882 0.159462971
0.2304566117 0.07826069288 0.162007977
0.3741633932 0.08638490989 0.1491818928
0.5043703185 0.09838957599 0.1409288442
0.6046333013 0.1113755198 0.1453911268
0.6741585413 0.1218218687 0.1521899322
0.7098543616 0.1289564346 0.1720849883
0.7259488322 0.1344513542 0.2041101827
0.737170981 0.1422059707 0.2579108299
0.7489374689 0.1548139632 0.3369127078
0.7694089871 0.1788321617 0.429277568
0.8043806562 0.2249641432 0.5268118485
0.8537985604 0.3153357428 0.6417275596
0.8883065865 0.4498169642 0.7456610335
0.9082227037 0.5922548358 0.8279723017
0.02665032568 0.05319569516 0.06555225988
0.02665032568 0.05319569516 0.06555225988
0.02665032568 0.05319569516 0.06555225988
0.02665032568 0.05319569516 0.06555225988
0.02665032568 0.05319569516 0.06555225988
0.02665032568 0.05319569516 0.06555225988
0.02665032568 0.05319569516 0.06555225988
0.02029836333 0.07641173119 0.0708146891
0.03735031415 0.0544391931 0.06602552216
0.05201177745 0.06289149926 0.1227494325
0.1285255476 0.07015901174 0.1333233637
0.2539161225 0.07676219495 0.1236405569
0.3887036615 0.08467171908 0.1153243786
0.5251994048 0.09885937597 0.1164296999
0.6200703 0.112037479 0.1262675606
0.6813157937 0.1218577708 0.1375886969
0.7118027193 0.1284673745 0.1596352091
0.7269573782 0.134299691 0.1969032643
0.7378792367 0.1423138478 0.2530972589
0.7499362343 0.155450995 0.3348250385
0.7706635952 0.1799791226 0.4285737855
0.8056835454 0.226644399 0.5268176582
0.8548824228 0.3176847314 0.6422141313
0.8886532113 0.45183815 0.7458871012
0.9083363306 0.5934084614 0.8281048455
0.02665032568 0.05319569516 0.06555225988
0.02665032568 0.05319569516 0.06555225988
0.02665032568 0.05319569516 0.06555225988
0.02665032568 0.05319569516 0.06555225988
0.02665032568 0.05319569516 0.06555225988
0.02665032568 0.05319569516 0.06555225988
0.02641530867 0.05412283122 0.06577913826
0.03664661877 0.05560220079 0.06623035335
0.03402660455 0.05589820847 0.07672136327
0.06545313748 0.06204433371 0.1015454248
0.1515604233 0.06917196373 0.1021485041
0.2776768622 0.07501194542 0.09260332059
0.4270652256 0.08587651678 0.09157435631
0.5411942375 0.09950644575 0.1009645654
0.6374032931 0.1135189536 0.113404172
0.6875577651 0.1220815648 0.1272752503
0.7136620388 0.1281359816 0.149553252
0.7279333742 0.1342480648 0.1903658056
0.7386767622 0.1425225957 0.2487216282
0.7509952677 0.1561516496 0.3328223218
0.7719265881 0.1811515006 0.4279303979
0.8070860804 0.2284833834 0.5269242193
0.8559690159 0.3200719921 0.6427109623
0.8889999877 0.4538658301 0.7461166798
0.9084490244 0.5945630124 0.8282289841
0.02665032568 0.05319569516 0.06555225988
0.02665032568 0.05319569516 0.06555225988
0.02665032568 0.05319569516 0.06555225988
0.02665032568 0.05319569516 0.06555225988
0.02665032568 0.05319569516 0.06555225988
0.02665032568 0.05319569516 0.06555225988
0.02418909661 0.06233984229 0.06768868202
0.02943524506 0.05366103834 0.06620590888
0.03826357739 0.05673657785 0.07956382257
0.08244953456 0.06112235523 0.08090629397
0.1858054996 0.06840940405 0.07654858129
0.3240491381 0.07565212736 0.07379544022
0.4578785928 0.08793118507 0.08048470911
0.5752253908 0.1031897145 0.09256211012
0.652470088 0.1150887388 0.1057184306
0.6933094454 0.1224790246 0.1201213336
0.715318745 0.1279549497 0.1418892545
0.7289487969 0.1342619086 0.1843597604
0.7395458797 0.1428200071 0.24489581
0.7522163449 0.1570096129 0.3310636446
0.7732985596 0.1824541061 0.4274187668
0.808494249 0.2303572801 0.5270896186
0.857046701 0.3224725083 0.6432136618
0.8893468858 0.4558999259 0.7463496793
0.9085578556 0.5956889276 0.8283480195
0.02665032568 0.05319569516 0.06555225988
0.02665032568 0.05319569516 0.06555225988
0.02665032568 0.05319569516 0.06555225988
0.02665032568 0.05319569516 0.06555225988
0.02665032568 0.05319569516 0.06555225988
0.0262579154 0.05484583821 0.06595401203
0.02760002174 0.0533925806 0.0658942718
0.03115749618 0.05416906811 0.06788501528
0.05158515343 0.05630773743 0.06851289777
0.1137048007 0.06216069163 0.06832741097
0.243000344 0.07013937847 0.06668169149
0.3850088353 0.07982944235 0.07011913263
0.5191222581 0.09496408466 0.08062845274
0.6112563095 0.108050198 0.09181791499
0.6663261159 0.1168580104 0.1015677335
0.6988065113 0.1230278631 0.1148725536
0.7169059833 0.1279219957 0.1356895463
0.7300720593 0.1343869362 0.1785948472
0.7405133038 0.1431911049 0.2411688498
0.7535621127 0.1579778398 0.3292673222
0.7748093319 0.1839101325 0.4269295171
0.8100391598 0.2324483954 0.5273804673
0.858174893 0.3250222591 0.643720754
0.8897263254 0.4581310909 0.7465947578
0.9086695631 0.5968558346 0.8284671763
0.02665032568 0.05319569516 0.06555225988
0.02665032568 0.05319569516 0.06555225988
0.02665032568 0.05319569516 0.06555225988
0.02668189357 0.05319974595 0.06555528839
0.02766695894 0.05331296923 0.06560269638
0.03390400948 0.05402899077 0.06583532559
0.06432285221 0.05716271508 0.06643910223
0.132678013 0.06341145135 0.0666733057
0.2356288506 0.06954463251 0.06548394598
0.3516123974 0.07676147479 0.06724416527
0.4481145459 0.08609386046 0.07284122121
0.5303519948 0.09628982552 0.08010578319
0.5991304412 0.1060240581 0.08772176203
0.6480092571 0.1135782701 0.09426337337
0.6815751532 0.1192109121 0.1006424189
0.7049711753 0.123882621 0.1100876075
0.7193993145 0.1281904936 0.1293883296
0.7315719114 0.1346179179 0.1706121085
0.7419949099 0.1439134418 0.2365552673
0.7555519562 0.1594623382 0.3267678155
0.7770059491 0.18607574 0.4263696677
0.8122750038 0.2355246336 0.5278371808
0.8597928686 0.3287454046 0.6444498714
0.8902790743 0.4613935577 0.7469441405
0.9088314243 0.5985699964 0.8286468768
0.02665032568 0.05319569516 0.06555225988
0.02590188545 0.05608010596 0.06624659118
0.02051658378 0.07557984549 0.07062743668
0.01703726876 0.09080604537 0.07426241366
0.02152669508 0.0774668254 0.07109081721
0.03829686438 0.06953197566 0.06945977046
0.09328289741 0.06916956081 0.06877678854
0.1893825735 0.07320783467 0.06714798375
0.3065912307 0.07702154941 0.06608618286
0.4182861574 0.08484119933 0.07046501868
0.5095163317 0.09478192424 0.07761720788
0.5812983644 0.1043016708 0.08502876065
0.6340822427 0.1120203569 0.0913679017
0.670373668 0.1177271744 0.09639615485
0.6944633115 0.1218250103 0.1008892455
0.7112610487 0.1252660035 0.1074852568
0.7232037984 0.1292723857 0.1239867028
0.7337977022 0.1353388632 0.1615300845
0.7443743236 0.1452624459 0.2309018964
0.7585468559 0.1618160383 0.3236874241
0.7803579074 0.1894936805 0.4257965173
0.8154025363 0.2399265482 0.5284068676
0.8621886457 0.3344065034 0.6455588889
0.8911014476 0.4662761378 0.7474795907
0.9090689108 0.6011379225 0.8289207812
0.01296057144 0.1269436007 0.08532867523
0.01288064364 0.1678141549 0.1006159642
0.01508943008 0.2096003493 0.1172149558
0.01636408806 0.2260906924 0.1238093182
0.01569031969 0.2158188178 0.1195845063
0.0148620061 0.189749428 0.108472992
0.02791129466 0.1620243491 0.09202829307
0.1547606136 0.1453985647 0.07941048966
0.2972179963 0.1330773501 0.07314646206
0.4232859046 0.1212174765 0.07090772163
0.518591725 0.1124765367 0.07399209038
0.5944728922 0.1143844091 0.08314063915
0.6503563136 0.1192737579 0.09098966061
0.6846690075 0.1231585998 0.09637888416
0.7058042411 0.1259838295 0.1004952022
0.7196539612 0.128678517 0.1061442537
0.7291152064 0.1319956104 0.1207249789
0.7382423679 0.1378237594 0.1557640944
0.7491231268 0.1485240305 0.2255976055
0.7635771366 0.1660400925 0.3202714066
0.7858208055 0.1953409878 0.4256861564
0.8203269311 0.2471382474 0.5295872135
0.8657388479 0.3431482476 0.647305079
0.8923410285 0.4737090233 0.7483890376
0.9094071971 0.6049777444 0.829324162
0.02484644651 0.3004055107 0.1534392499
0.02827074628 0.3226286681 0.1621982182
0.03085416993 0.3380988096 0.1682491291
0.03232923232 0.3460779662 0.1713425146
0.03198281526 0.3436003587 0.1702902085
0.03015557974 0.3318814747 0.1653811338
0.02867096949 0.3099834963 0.1547943253
0.05288987507 0.2908016585 0.1275190394
0.254766791 0.2823645988 0.09122502265
0.436479795 0.2616954295 0.08806949515
0.5472033394 0.2292012585 0.08882899107
0.629366912 0.1951402886 0.09019436663
0.6857057636 0.1655824733 0.09139817328
0.7147382256 0.1458843966 0.09224326922
0.727300859 0.1393673173 0.09728533964
0.7345499842 0.1378324604 0.1030142628
0.7402407377 0.1390783564 0.1157783947
0.7480317558 0.1447731723 0.1515880641
0.7584638244 0.1562314572 0.224702054
0.7730208404 0.174973477 0.3199940655
0.795637539 0.2066516503 0.4273773586
0.8287931716 0.2604575013 0.5326658024
0.8706739119 0.3570071678 0.6499228648
0.8941230716 0.4845704586 0.7497869408
0.9098857598 0.6107198359 0.8299194031
0.04569734352 0.4108336979 0.1964120436
0.04730251377 0.4178392176 0.1990984471
0.0483371231 0.4224742502 0.2008533699
0.04880933947 0.4245722104 0.2016121452
0.04880401805 0.4240962947 0.2013331752
0.04819989883 0.4202112619 0.1996314245
0.04710025073 0.4110324396 0.1951379719
0.05021790704 0.3962478146 0.1832179441
0.1111463501 0.4098960546 0.1372465286
0.3714065036 0.4167592453 0.1095878131
0.5539022879 0.3997854515 0.1087604117
0.6666890517 0.3607213672 0.1106867374
0.732191874 0.3103109928 0.1109543252
0.7615298908 0.2573300091 0.1083719128
0.7664174797 0.2098163336 0.10426649
0.7655990077 0.1802401463 0.1023649936
0.7663046022 0.1621592529 0.1066454175
0.7688605346 0.162580032 0.1435866133
0.7763671174 0.1729492904 0.2224446915
0.7894770036 0.1926371675 0.3242582388
0.8113766677 0.2271186902 0.4327033256
0.8423598128 0.284424301 0.5389615536
0.8759202584 0.3806784307 0.6531834725
0.8968136429 0.5013971592 0.7521142325
0.9105394858 0.619289902 0.8307828173
0.05928971627 0.4703102753 0.2190776998
0.05969991103 0.4719712072 0.2196872872
0.06000309256 0.4730883221 0.2200644187
0.06015038421 0.4734407539 0.2201267218
0.06013448805 0.4729288565 0.2198189029
0.06008739935 0.471858727 0.2191877552
0.0600522923 0.469107338 0.2174618008
0.06178890811 0.4654437104 0.2131893621
0.081621265 0.4736900961 0.196989069
0.2447777943 0.5150591112 0.1296560064
0.5076468393 0.5262403335 0.1293395913
0.6671358447 0.5123935525 0.1300823952
0.7627605246 0.4780706293 0.131305625
0.8083107721 0.4284133652 0.1299370876
0.8174156526 0.3610009041 0.1245407217
0.8123110496 0.3027452661 0.1194668201
0.8035607825 0.2558145255 0.1181289861
0.8063318702 0.221577592 0.1345184529
0.8119880668 0.2147997267 0.2139088391
0.8190493412 0.2310024872 0.3260673937
0.8351881268 0.2644268598 0.442468549
0.8605918808 0.3231424358 0.5497285355
0.8825981245 0.4152099309 0.6582129879
0.9004705699 0.5253479164 0.7555125283
0.911326311 0.6314017871 0.831963147
0.06690837705 0.5022349216 0.2310434069
0.06702986842 0.5025253262 0.2310976764
0.06713392458 0.5026817896 0.2310822792
0.06723300753 0.5026564768 0.2309521684
0.06731636558 0.5024252854 0.2307019658
0.06744666118 0.5020589334 0.2303057249
0.06802528663 0.5019719997 0.2295761135
0.0696673525 0.5017525047 0.2275663949
0.0793640627 0.5092861563 0.2213311848
0.1344934303 0.5486996413 0.184542209
0.3902934697 0.5991818285 0.1453594298
0.6154849222 0.6128971788 0.1473236287
0.7613955481 0.6019147905 0.1490744915
0.8336438061 0.573382554 0.1491493853
0.8556016711 0.5233423536 0.144940187
0.85824321 0.4708215836 0.1404410914
0.8494700312 0.4085899262 0.1370348644
0.8462817713 0.3607574691 0.1479128459
0.8568999716 0.3215740316 0.1992157979
0.8633779897 0.3141762174 0.3227362483
0.8682858822 0.3386750018 0.45321616
0.8784562899 0.3890202899 0.5635353682
0.8911454448 0.462798811 0.666019003
0.9050366574 0.5580501288 0.7603409385
0.912120715 0.6487857329 0.8334772814
0.07120675175 0.5189701387 0.237091439
0.07132040439 0.5190559954 0.2370160464
0.07147646312 0.5191606896 0.236903616
0.07168466221 0.5193019279 0.236756547
0.07199542773 0.5195850768 0.2365826577
0.07246800596 0.5200327886 0.2363297475
0.07324842567 0.520671853 0.2358313175
0.07527078637 0.5227114811 0.2347617132
0.08253931685 0.5306385786 0.2314611896
0.1128109144 0.5603214455 0.2153388319
0.263352361 0.6218478242 0.1517679025
0.5297010536 0.6646412617 0.158531393
0.7181965903 0.6824170152 0.1631170079
0.8367343375 0.6748020936 0.1652551365
0.8763724329 0.6473683051 0.1632720198
0.8868629989 0.610516443 0.1595678806
0.884530764 0.5644836872 0.1566107651
0.8826367844 0.5239931632 0.1647035074
0.8883111814 0.4830813508 0.2062234238
0.8958184105 0.4559907276 0.3226891217
0.8929039355 0.4555477278 0.4632271557
0.8953833226 0.4800350979 0.574667953
0.9026274564 0.5336576154 0.6785421183
0.9098706766 0.5997119468 0.7661179817
0.9124914571 0.6721773201 0.8353272891
0.0745331765 0.5291134277 0.240051902
0.07484579427 0.5295351794 0.2399485289
0.07520357153 0.5300013291 0.2398205367
0.0756046454 0.5305141389 0.239675083
0.07606326283 0.5310999731 0.2395096021
0.07667027883 0.5318903151 0.239304088
0.07802156692 0.5336771003 0.2388775417
0.08105607047 0.5376283441 0.2378656668
0.08736437563 0.5453599138 0.2355030973
0.108545446 0.5685123271 0.2255760563
0.1746720717 0.6183494212 0.1796533199
0.412716865 0.6728415067 0.1615801212
0.6351398125 0.7133925468 0.1693089427
0.7981509395 0.7300653887 0.1742823982
0.8791475008 0.7257723652 0.1758235579
0.900375203 0.7104180878 0.1751265848
0.9050152206 0.687514678 0.1748517887
0.9051735933 0.6577684018 0.1811370054
0.9094749287 0.6297607019 0.2163432674
0.9181849007 0.6014282136 0.3176081916
0.9143933783 0.5891481398 0.4627685766
0.9121615271 0.590469522 0.583138306
0.9127288871 0.6137498735 0.6860106383
0.9136465095 0.6518195154 0.7709697667
0.910990176 0.7096340044 0.8370875483
0.07902230353 0.5392897192 0.2415431967
0.07968337941 0.5401858996 0.2413614785
0.08051919909 0.5412925646 0.2411354602
0.08143167477 0.5425171667 0.2408770289
0.08244309308 0.5438884572 0.2405634873
0.08352229461 0.5453167534 0.2402184904
0.08536683436 0.5476927869 0.239613868
0.08875359735 0.5519882202 0.2384214531
0.09656882902 0.5614615613 0.2352948585
0.1145547383 0.5806081223 0.2264853898
0.1591792443 0.617215046 0.1972551258
0.331334195 0.6695817665 0.1619734409
0.5483555138 0.7161922029 0.1704888333
0.7308241442 0.7494836583 0.1777050162
0.8582726403 0.7640328669 0.181839598
0.9002121156 0.760663064 0.1827306419
0.9099718585 0.7560344511 0.185195894
0.9128507092 0.7513861339 0.1938536969
0.916232558 0.7435243158 0.2261964375
0.9226437065 0.7283746216 0.3147588547
0.9233551571 0.7113891053 0.4488292248
0.9197581773 0.7002460497 0.5745250517
0.916531923 0.7011764642 0.6830369093
0.9124441486 0.7207063554 0.7712895198
0.9055974533 0.7509146713 0.8350279318
0.08935329908 0.5558939594 0.2406370872
0.09040079452 0.5572550853 0.2402518278
0.09182125079 0.5590689119 0.2397291642
0.09335254491 0.560941071 0.2391767693
0.09500279529 0.5629243371 0.2385562965
0.09697898634 0.5653207556 0.2377514695
0.1001026226 0.5689492972 0.2364531403
0.1052400079 0.5747726205 0.2341206216
0.1146759152 0.5846962804 0.229433038
0.1325406554 0.6014344294 0.2190630519
0.1676789739 0.6281564866 0.1944825672
0.2949845656 0.6693403917 0.1626937212
0.4698791656 0.7081623151 0.1697523667
0.6520674236 0.7478126054 0.1778120724
0.8082292151 0.7751949695 0.1838927291
0.8889915454 0.784048624 0.1866315824
0.9088886139 0.7859090834 0.189688818
0.9122392102 0.7896878129 0.1994441499
0.9132304122 0.797761896 0.2315489416
0.9134401423 0.8057395085 0.3116661487
0.9130056889 0.8012315211 0.4301813025
0.910698502 0.7910383095 0.5538522062
0.9067763623 0.7845098073 0.6636996198
0.9016545551 0.7845206364 0.7604168078
0.8933847581 0.7982314924 0.8271931597
0.1149867009 0.5881499233 0.2321643819
0.1171213032 0.5903004647 0.2310624302
0.1193276461 0.5925364483 0.2298662659
0.1216294872 0.5947933632 0.2286145715
0.124038133 0.5970760036 0.2272938435
0.1266947664 0.5996098089 0.225734552
0.1307756987 0.6032948199 0.223354355
0.1369930983 0.6087357059 0.2195161405
0.1470501292 0.6169723257 0.2129419392
0.1649614433 0.6302244891 0.2001893339
0.2025872642 0.6534204895 0.169489332
0.3125177406 0.6783088034 0.1652934497
0.4391317752 0.7068521906 0.1705923876
0.593793401 0.7419873597 0.1776436201
0.7456742565 0.7727521425 0.1843587827
0.8628543023 0.7912196987 0.1889815651
0.9036733629 0.7981183923 0.1932840188
0.9109891614 0.803323875 0.2021899649
0.9107976222 0.816409404 0.2363147235
0.9077058709 0.8304604315 0.3139518557
0.9021763911 0.8381958853 0.424932558
0.8959200286 0.8393318773 0.542158288
0.8902792855 0.8371892137 0.6465712298
0.8845141254 0.8345839046 0.7448921904
0.8788433679 0.8351545171 0.8154358881
0.167420547 0.635524665 0.2031658585
0.1702778795 0.6375154613 0.2010265242
0.1732956881 0.6395485431 0.1987943951
0.1764907203 0.6416553622 0.1964080728
0.1798695574 0.643854301 0.1937979085
0.1836908166 0.6462536697 0.190849317
0.1893585927 0.6497498534 0.1862941061
0.198201493 0.6549440635 0.1789958071
0.2122044162 0.6626086069 0.1669363494
0.2515616088 0.6709274177 0.1658906145
0.3041542533 0.6817815787 0.1678919428
0.3697878555 0.6962313085 0.1705743718
0.45146607 0.7148794175 0.1741649881
0.5723090694 0.7428906851 0.1801706744
0.6948422105 0.7694129838 0.1864419437
0.8190263894 0.7919030683 0.1925232468
0.8912933239 0.8032271931 0.1979797379
0.9087390414 0.8109807189 0.2100271461
0.9098038612 0.8218238904 0.2400814263
0.9056394551 0.8374253876 0.3205855961
0.8985264815 0.8476954746 0.4275245482
0.8900588423 0.8533058837 0.5394607513
0.8824805089 0.8549931453 0.6394331433
0.8756623457 0.8542206795 0.7335191144
0.870263591 0.8530414299 0.8055255942
0.3072016054 0.6906020487 0.1748032073
0.3115608546 0.691558806 0.1750164798
0.3159294163 0.692522872 0.1752385658
0.3202328841 0.6934723747 0.1754537678
0.3244922772 0.694413929 0.1756559938
0.3291203708 0.6954363626 0.1758789537
0.3358241761 0.6969213707 0.1761989114
0.3456950748 0.6991171099 0.1766710948
0.3588893381 0.702066922 0.1772869433
0.3784115238 0.7064676672 0.1782127006
0.4050599233 0.7125048803 0.1794739451
0.4436349056 0.7213579389 0.1813800092
0.5068288976 0.7359261822 0.1846307049
0.5831782978 0.753431602 0.1889348742
0.673363836 0.7730987489 0.1943269923
0.7823131195 0.7937756885 0.2007656664
0.8687298757 0.8084384203 0.209268998
0.9029592956 0.8181276051 0.2258370776
0.9080788706 0.827453109 0.2573820089
0.904775859 0.8396373988 0.3276126217
0.8971441786 0.8501584906 0.436196372
0.8884296003 0.856165221 0.5442603151
0.880381133 0.8590402033 0.6398900169
0.8728067141 0.8599275407 0.7301338619
0.8669337519 0.8595085686 0.8008715319
0.4448323138 0.7377001331 0.2017333873
0.4475709509 0.7383609512 0.2019705536
0.4503137152 0.7390244132 0.2022054076
0.4530549994 0.7396861559 0.2024361689
0.4557903353 0.7403415989 0.2026639412
0.4587721357 0.7410497944 0.2029083628
0.4627339436 0.7420005072 0.2032347768
0.4692547035 0.7435336132 0.2037389676
0.4790175885 0.7458195694 0.2044811397
0.4935493174 0.7492225718 0.2056009775
0.5134999179 0.7539158114 0.2072411996
0.5409558919 0.7602490757 0.2094068773
0.5736679859 0.7676816723 0.2120574383
0.6159279505 0.7768568794 0.2152711106
0.6819487027 0.7904502404 0.2206156754
0.7637834768 0.8057935441 0.2286341221
0.8436286354 0.818485631 0.239210125
0.8913293336 0.827229222 0.2580496139
0.9042373393 0.8351882732 0.295107714
0.9020409867 0.8442669774 0.3639629147
0.896070835 0.8513578881 0.4477871685
0.8874091161 0.8570137278 0.5538204545
0.879650823 0.8597767033 0.6445435762
0.8722287026 0.8608968853 0.7305550815
0.8663031762 0.8607855668 0.7994733283
0.5657425414 0.7928667441 0.2691510457
0.5670235604 0.7931421807 0.269351468
0.5683049853 0.7934170114 0.2695522372
0.5695857434 0.7936900973 0.2697507281
0.570864781 0.7939603199 0.2699443339
0.5722591793 0.7942515867 0.2701441087
0.5742861942 0.7946695158 0.2704219965
0.5773036077 0.7952847085 0.2708270456
0.5816866085 0.7961712115 0.2714089836
0.5878392056 0.7974108461 0.27224203
0.5978857942 0.7993558174 0.2734406459
0.6132294091 0.8022831953 0.2753101754
0.6361337861 0.8064518933 0.2778956398
0.6688305045 0.8119486668 0.2810976267
0.7101002417 0.8182242276 0.2847724265
0.7676437756 0.8263554242 0.2923238322
0.8266390914 0.833600226 0.3042999234
0.8756224431 0.8395207871 0.3266436079
0.8959325684 0.8443938636 0.3638676732
0.8978437438 0.8489379036 0.4133204651
0.8931347419 0.8536961032 0.4831181098
0.8864429706 0.857535854 0.5645378117
0.8787675599 0.8600919136 0.6540309832
0.8716551952 0.8610771216 0.7362058793
0.8660686911 0.8609678336 0.8008777539
0.6609166 0.8352778708 0.3901924401
0.6617748496 0.8353816846 0.3903150191
0.6626326303 0.835484981 0.3904367809
0.6634916607 0.8355881822 0.390559297
0.6643513638 0.8356910369 0.3906813774
0.6652894695 0.8358022303 0.3908105622
0.6666518054 0.8359615183 0.3909879852
0.6686718914 0.8361946398 0.3912369953
0.6716686987 0.8365345873 0.3915911164
0.6760442231 0.837021859 0.392087758
0.6825057999 0.8377210811 0.3927808713
0.6914483263 0.8386840781 0.3938889521
0.7055136424 0.8401187709 0.3955498925
0.7261474869 0.8420507318 0.397879461
0.7540378536 0.8443239584 0.4008443488
0.7851978544 0.846354121 0.4037418249
0.8265229229 0.8483924711 0.4090663968
0.8628350348 0.8501197545 0.4229700537
0.8849517168 0.8516171464 0.4453175663
0.8913286712 0.8536862732 0.4811089066
