src-tauri/resources/film_luts/F-Pro 400H.cube
# ============================================================================
# spektrafilm LUT
# Bundle:  spektrafilm_v034_pro400h_crystalarchive_1lut_vlog_srgb  (1lut, 25^3)
# Film:    fujifilm_pro_400h
# Print:   fujifilm_crystal_archive_typeii
# Input:   Panasonic V-Log  (cctf on)
# Output:  sRGB  (cctf on)
# Created: 2026-08-17T16:43:49Z
# spektrafilm: 0.3.4
# Project: https://github.com/andreavolpato/spektrafilm
#
# Copyright (c) 2026 Andrea Volpato. Generated by spektrafilm. Licensed under CC BY-SA 4.0.
#
# License: spektrafilm LUT by Andrea Volpato, licensed under CC BY-SA 4.0.
#          Full text and attribution requirements in SPEKTRAFILM_LICENSE.txt
#          (shipped in this bundle); also at
#          https://github.com/andreavolpato/spektrafilm/blob/main/SPEKTRAFILM_LICENSE.txt.
#
# Citation: If you use this LUT in your work, please cite the spektrafilm
#           project: https://github.com/andreavolpato/spektrafilm, see
#           CITATION.cff for details.
#
# Notes: Generated by the spektrafilm LUT bundle builder. Apply with trilinear
#        or tetrahedral interpolation in your host (DaVinci Resolve, Nuke,
#        OCIO-aware DCC). The input and output color spaces are declared in
#        bundle.json; do NOT apply this LUT to a signal in a different color
#        space.
#
# File: lut_v034_pro400h_crystalarchive.cube  (see sibling bundle.json for full metadata)
# ============================================================================
TITLE "v034_pro400h_crystalarchive"
DOMAIN_MIN 0 0 0
DOMAIN_MAX 1 1 1
LUT_3D_SIZE 5
0.02665032568 0.05319569516 0.06555225988
0.02665032568 0.05319569516 0.06555225988
0.3610324189 0.08757875264 0.1793206987
0.7365236336 0.142176869 0.2633360487
0.9081081337 0.5911023246 0.827834742
0.02665032568 0.05319569516 0.06555225988
0.06432285221 0.05716271508 0.06643910223
0.5991304412 0.1060240581 0.08772176203
0.7419949099 0.1439134418 0.2365552673
0.9088314243 0.5985699964 0.8286468768
0.06690837705 0.5022349216 0.2310434069
0.06802528663 0.5019719997 0.2295761135
0.7613955481 0.6019147905 0.1490744915
0.8568999716 0.3215740316 0.1992157979
0.912120715 0.6487857329 0.8334772814
0.167420547 0.635524665 0.2031658585
0.1893585927 0.6497498534 0.1862941061
0.45146607 0.7148794175 0.1741649881
0.9098038612 0.8218238904 0.2400814263
0.870263591 0.8530414299 0.8055255942
0.818266085 0.861034802 0.6032497286
0.8194589849 0.8610265966 0.6035054276
0.8274801324 0.8609386635 0.6049597037
0.870392734 0.8599994374 0.6227795636
0.8644530752 0.8608420991 0.8193133073
0.02665032568 0.05319569516 0.06555225988
0.02450419326 0.0577399844 0.09741280342
0.4581021009 0.0990977695 0.2200523105
0.7435077379 0.1447127563 0.2321078442
0.9089918647 0.6002948624 0.8288112949
0.02270915174 0.06498057972 0.07322957047
0.04631327903 0.08495588421 0.081400987
0.6297755298 0.1121598686 0.0941771993
0.753269004 0.1518091306 0.2242996599
0.9096286585 0.6075844948 0.8295762391
0.0685728485 0.5089973074 0.2338538542
0.0700615505 0.5090405199 0.2322791491
0.7521576877 0.6231231495 0.1527799897
0.8688939563 0.3791122648 0.2006964906
0.9123385403 0.6565124389 0.8341036004
0.1670148479 0.6353753238 0.2037151387
0.1884017458 0.6493142723 0.1873257281
0.4469491668 0.7140315094 0.1740958795
0.9097707698 0.8219369682 0.2402597562
0.8700659137 0.8534337409 0.8052490437
0.8182138591 0.861045442 0.6035218369
0.8194062057 0.8610373056 0.6037802464
0.8274243055 0.860949716 0.6052492692
0.8703410657 0.8600072531 0.6230124462
0.864451403 0.8608418863 0.8193326676
0.1034684503 0.08474550795 0.4861223387
0.1060651861 0.08112707307 0.4805692901
0.5286463251 0.1288090937 0.5429923528
0.7363967646 0.1634508033 0.5645198422
0.9124245481 0.6608691501 0.8343247359
0.1061733505 0.08728609537 0.4958084201
0.09770951993 0.09888316903 0.5140390585
0.5587681068 0.1314489784 0.5124211472
0.7406740158 0.1652809365 0.5531523551
0.9124903826 0.6669544553 0.8347953832
0.09935765096 0.6117444419 0.6677200654
0.09683904431 0.6028025996 0.6480421484
0.6713239397 0.6616219446 0.6496438217
0.8488132051 0.297147859 0.525412301
0.9106845488 0.7133285427 0.8369692441
0.1837679481 0.7017626198 0.4033059669
0.2075492944 0.7178190838 0.4028576877
0.4203347056 0.79960139 0.3718761274
0.8988024489 0.8478139462 0.4096506792
0.8688386192 0.8558446959 0.8035334823
0.8178491377 0.8611208547 0.6054645371
0.8190330746 0.8611126326 0.6057245265
0.827031419 0.8610276993 0.6073067865
0.8699731689 0.8600626467 0.624671785
0.8644405974 0.8608405142 0.8194577235
0.09056708201 0.4890634826 0.662186994
0.08998318583 0.4825783333 0.6595848879
0.1360608837 0.3399380048 0.6773062081
0.7504341052 0.1839547878 0.6732400638
0.9073349356 0.5877347695 0.8680893595
0.09063170462 0.4897417195 0.6624844321
0.09002182492 0.4828124968 0.6596977548
0.1401417619 0.340107296 0.6817208998
0.756147197 0.1892576431 0.6795704319
0.9078525855 0.5932090876 0.8690995805
0.09912615741 0.5589393995 0.6917633578
0.09899195603 0.557200224 0.6911698561
0.1378241068 0.5454808756 0.7271196467
0.8273758025 0.2800723291 0.7619494145
0.9103032764 0.6263361334 0.8746272369
0.2392880287 0.7759957257 0.8378304776
0.2569802663 0.7858379468 0.8457344761
0.4213458958 0.8405876333 0.8844546233
0.8605016729 0.8596804475 0.8565031397
0.8692084358 0.8461607462 0.8610601486
0.8154335571 0.8636158073 0.8363639428
0.8163972027 0.8635694423 0.8363039267
0.8229815581 0.8632378876 0.835947244
0.8558664519 0.8611765643 0.8356008405
0.8616476908 0.860376513 0.8519437547
0.1298406562 0.6736228893 0.7528774655
0.1309949886 0.6753068902 0.7543033427
0.1431157916 0.6917316658 0.7681862777
0.7749865006 0.852135327 0.8763785293
0.9036165197 0.7493817183 0.8822672618
0.1300371179 0.6739124489 0.7531217932
0.131209656 0.6756193507 0.7545669239
0.1434454668 0.6921565686 0.76854408
0.7755539342 0.8521155463 0.8763095836
0.9032432704 0.7512264179 0.8821390538
0.1315126152 0.6760677924 0.7549400331
0.1327853019 0.6778882092 0.7564804408
0.1457939338 0.6951409237 0.7710562159
0.7795501247 0.8519722822 0.8758195412
0.9003901567 0.7639524991 0.881016974
0.1638595255 0.7163435198 0.7885840729
0.1663242144 0.7189202906 0.7907451555
0.1914148911 0.7422336007 0.810238764
0.7654251421 0.8644733075 0.8733313384
0.868494541 0.8471658971 0.8626856505
0.8367041991 0.8619363657 0.862254642
0.8371255182 0.8619104692 0.8621824627
0.8400600782 0.8617273867 0.8616770904
0.8569562551 0.8605799079 0.8586769649
0.8611346005 0.860270833 0.8579111706
