src-tauri/resources/film_luts/K-Ektar 100.cube
# ============================================================================
# spektrafilm LUT
# Bundle:  spektrafilm_v034_ektar100_ultraendura_1lut_vlog_srgb  (1lut, 25^3)
# Film:    kodak_ektar_100
# Print:   kodak_ultra_endura
# Input:   Panasonic V-Log  (cctf on)
# Output:  sRGB  (cctf on)
# Created: 2026-08-17T16:44:07Z
# spektrafilm: 0.3.4
# Project: https://github.com/andreavolpato/spektrafilm
#
# Copyright (c) 2026 Andrea Volpato. Generated by spektrafilm. Licensed under CC BY-SA 4.0.
#
# License: spektrafilm LUT by Andrea Volpato, licensed under CC BY-SA 4.0.
#          Full text and attribution requirements in SPEKTRAFILM_LICENSE.txt
#          (shipped in this bundle); also at
#          https://github.com/andreavolpato/spektrafilm/blob/main/SPEKTRAFILM_LICENSE.txt.
#
# Citation: If you use this LUT in your work, please cite the spektrafilm
#           project: https://github.com/andreavolpato/spektrafilm, see
#           CITATION.cff for details.
#
# Notes: Generated by the spektrafilm LUT bundle builder. Apply with trilinear
#        or tetrahedral interpolation in your host (DaVinci Resolve, Nuke,
#        OCIO-aware DCC). The input and output color spaces are declared in
#        bundle.json; do NOT apply this LUT to a signal in a different color
#        space.
#
# File: lut_v034_ektar100_ultraendura.cube  (see sibling bundle.json for full metadata)
# ============================================================================
TITLE "v034_ektar100_ultraendura"
DOMAIN_MIN 0 0 0
DOMAIN_MAX 1 1 1
LUT_3D_SIZE 5
0.03345727594 0.01731701988 0.05066431896
0.03345727594 0.01731701988 0.05066431896
0.4879703243 0.07426638135 0.2969013864
0.5055155398 0.1009699442 0.391571908
0.7563212131 0.7106929714 0.8343831195
0.03345727594 0.01731701988 0.05066431896
0.2031710343 0.01453879483 0.06852726185
0.4773546602 0.03991134788 0.114250127
0.5004182508 0.07679958211 0.2902480457
0.7558401847 0.7094505063 0.834369253
0.1313014491 0.3182083724 0.0454955644
0.1407248882 0.3223025125 0.04633995469
0.7112377008 0.4355853875 0.09274550203
0.573343921 0.1073825356 0.1314039757
0.7547193911 0.7062198532 0.833830245
0.5322142908 0.4847905515 0.08246945235
0.5480982016 0.4896569746 0.08394300661
0.6495777125 0.5191544162 0.09410491939
0.8348850377 0.5784217824 0.1222028973
0.789904147 0.7894585843 0.8073546464
0.8408863446 0.5964637674 0.1363905069
0.8410961097 0.597019395 0.1369186006
0.8423483737 0.6003057275 0.1401477921
0.8546094532 0.6348672093 0.1884570014
0.795719242 0.7878459364 0.7845277424
0.03345727594 0.01731701988 0.05066431896
0.08073251841 0.02220505679 0.08039112393
0.4917968987 0.08200339234 0.3309509356
0.4993973884 0.07278960836 0.2716782703
0.7557156818 0.7091269763 0.8343618098
0.03289119264 0.02434667073 0.05246450268
0.04914550745 0.02955003519 0.06249667519
0.4754772553 0.040300212 0.116544092
0.4974000409 0.06324830299 0.2209913985
0.7553249102 0.7081010976 0.8343206658
0.1352920302 0.3229193535 0.04615986666
0.1463274041 0.3282116922 0.04722065356
0.7168310955 0.4584174465 0.09473857144
0.6125452036 0.1457853883 0.1109789264
0.754987396 0.7067786831 0.83365705
0.5348190425 0.4855794863 0.08270540934
0.5503028863 0.4903179567 0.08415355827
0.649354108 0.5191059908 0.09408270388
0.8348923894 0.5784199867 0.1221835568
0.7899993076 0.7895742194 0.8071204342
0.8408917173 0.5964742847 0.1364002879
0.8411022382 0.5970320564 0.1369305424
0.8423567193 0.6003248782 0.1401670053
0.8546097825 0.6348683396 0.1884590979
0.7957199993 0.7878453157 0.7845243313
0.04310140908 0.2479786832 0.5065631707
0.04332462339 0.2425504777 0.5055084902
0.484130608 0.1721421601 0.6695951651
0.5403204424 0.229099808 0.7265098538
0.7551108261 0.7070186558 0.8335518857
0.04307655208 0.257773716 0.5101678433
0.04422469299 0.2895324876 0.5220249764
0.4790269675 0.1711508662 0.6633969068
0.5364660774 0.2221175202 0.718851493
0.7555176326 0.7079287428 0.8333736576
0.09603521434 0.5722251856 0.6540951963
0.09847516095 0.575082981 0.6549172458
0.6772861462 0.6906488797 0.716715351
0.588094233 0.2455993967 0.6032939227
0.760286571 0.7190146827 0.8315810387
0.5239329254 0.4951131968 0.08872420046
0.5444336608 0.5024288113 0.09146996507
0.662595353 0.5461946506 0.1114629796
0.8538226655 0.6319111616 0.1833457692
0.7906180504 0.790004666 0.8052882808
0.8409299795 0.5965489627 0.1364697791
0.8411418721 0.5971109238 0.1370048173
0.8424144065 0.6004562876 0.1402989803
0.8546121281 0.6348762097 0.1884736809
0.7957242362 0.787841843 0.7845052458
0.09639923666 0.5742663018 0.6609220718
0.09653871231 0.5744071525 0.6611170635
0.1330773334 0.6173623667 0.7040088762
0.6850929565 0.5456348844 0.8246441712
0.7855265345 0.7901069543 0.8237476267
0.09644891499 0.5743678229 0.660997323
0.09660349164 0.5745377555 0.6612149063
0.1359609268 0.6203155714 0.7067610718
0.6867394202 0.5494098678 0.8251377707
0.7854979183 0.7900203418 0.8237696384
0.09744858595 0.5765715944 0.6625333295
0.09779762749 0.5771176222 0.6630393257
0.1329318786 0.6227664737 0.7045441245
0.7121569346 0.6074360484 0.8316441009
0.7853192763 0.7894802692 0.8239063273
0.3136212871 0.7297410504 0.7984862092
0.3342270039 0.7360602971 0.8035910636
0.5165301221 0.7728344473 0.8269839906
0.7869759469 0.7946290832 0.8225408031
0.7864653541 0.7929492235 0.8229939142
0.802797466 0.7808575731 0.7470093844
0.8025852448 0.7810680843 0.7481246033
0.801110081 0.782476138 0.7556212768
0.7931485287 0.7897799125 0.7952463317
0.7874602332 0.7943226312 0.8206703498
0.2061771838 0.682799295 0.7576103914
0.2075873636 0.6836334979 0.7583581878
0.2221469662 0.6918107284 0.7656706474
0.7638756692 0.7939036868 0.8241362175
0.7870007213 0.7946074671 0.8225691421
0.2065708706 0.6830329827 0.7578199026
0.2079852565 0.6838674456 0.7585678504
0.2226593985 0.6920847268 0.7659149786
0.7641004917 0.7939121095 0.8241219873
0.7870007742 0.7946076302 0.8225690982
0.2094008759 0.6846947396 0.7593090734
0.2109213047 0.685574615 0.7600970639
0.2263260991 0.6940161625 0.7676351928
0.7656950421 0.7939712236 0.8240204399
0.7870011318 0.7946087314 0.8225688014
0.2965624231 0.7240056956 0.7937236038
0.2999186844 0.7251733089 0.7947018962
0.3291025299 0.7345463991 0.8023839872
0.7602194365 0.7937643187 0.8243644708
0.7870090682 0.794633172 0.8225622134
0.7858041863 0.7946216918 0.822644901
0.785827906 0.7946223516 0.8226431735
0.7859956364 0.7946270099 0.8226309502
0.7868260949 0.7946498853 0.8225702455
0.7870161817 0.794655077 0.8225563071
