src-tauri/resources/film_luts/K-Ektar 100.cube
# ============================================================================
# spektrafilm LUT
# Bundle:  spektrafilm_v034_ektar100_ultraendura_1lut_vlog_srgb  (1lut, 25^3)
# Film:    kodak_ektar_100
# Print:   kodak_ultra_endura
# Input:   Panasonic V-Log  (cctf on)
# Output:  sRGB  (cctf on)
# Created: 2026-08-17T16:44:07Z
# spektrafilm: 0.3.4
# Project: https://github.com/andreavolpato/spektrafilm
#
# Copyright (c) 2026 Andrea Volpato. Generated by spektrafilm. Licensed under CC BY-SA 4.0.
#
# License: spektrafilm LUT by Andrea Volpato, licensed under CC BY-SA 4.0.
#          Full text and attribution requirements in SPEKTRAFILM_LICENSE.txt
#          (shipped in this bundle); also at
#          https://github.com/andreavolpato/spektrafilm/blob/main/SPEKTRAFILM_LICENSE.txt.
#
# Citation: If you use this LUT in your work, please cite the spektrafilm
#           project: https://github.com/andreavolpato/spektrafilm, see
#           CITATION.cff for details.
#
# Notes: Generated by the spektrafilm LUT bundle builder. Apply with trilinear
#        or tetrahedral interpolation in your host (DaVinci Resolve, Nuke,
#        OCIO-aware DCC). The input and output color spaces are declared in
#        bundle.json; do NOT apply this LUT to a signal in a different color
#        space.
#
# File: lut_v034_ektar100_ultraendura.cube  (see sibling bundle.json for full metadata)
# ============================================================================
TITLE "v034_ektar100_ultraendura"
DOMAIN_MIN 0 0 0
DOMAIN_MAX 1 1 1
LUT_3D_SIZE 25
0.03345727594 0.01731701988 0.05066431896
0.03345727594 0.01731701988 0.05066431896
0.03345727594 0.01731701988 0.05066431896
0.03345727594 0.01731701988 0.05066431896
0.03345727594 0.01731701988 0.05066431896
0.03345727594 0.01731701988 0.05066431896
0.03345727594 0.01731701988 0.05066431896
0.03345727594 0.01731701988 0.05066431896
0.03212229721 0.03810446383 0.05077926097
0.3119211562 0.02173990568 0.09410617934
0.4006080591 0.05700817207 0.2431890373
0.4675216933 0.0710121218 0.2887351413
0.4879703243 0.07426638135 0.2969013864
0.4937895185 0.07449555418 0.2950923574
0.494922163 0.07215541903 0.2825278801
0.4958908138 0.07309714323 0.2854247992
0.4973409102 0.07612480438 0.2971128923
0.4999630492 0.08333035271 0.325874722
0.5055155398 0.1009699442 0.391571908
0.5152895878 0.12974173 0.4802699943
0.5353106905 0.1806607943 0.5971247723
0.5778200057 0.2742549133 0.7186939102
0.6373233386 0.4241353892 0.7926776053
0.7047531006 0.5883748787 0.8266825334
0.7563212131 0.7106929714 0.8343831195
0.03345727594 0.01731701988 0.05066431896
0.03345727594 0.01731701988 0.05066431896
0.03345727594 0.01731701988 0.05066431896
0.03345727594 0.01731701988 0.05066431896
0.03345727594 0.01731701988 0.05066431896
0.03345727594 0.01731701988 0.05066431896
0.03345727594 0.01731701988 0.05066431896
0.03345308538 0.0176492444 0.05068480833
0.05763470117 0.01753952691 0.05368744452
0.3100456859 0.02804796369 0.1310437572
0.4160953897 0.05412466401 0.2261310573
0.4708406631 0.06555372605 0.2619817643
0.4873652803 0.06729969218 0.2635953274
0.4915531374 0.06564453371 0.2529054665
0.4931313719 0.06594292933 0.2527289041
0.493822281 0.06618112967 0.2525193942
0.4956880837 0.07027248993 0.2702825515
0.498775984 0.07834946016 0.3041259873
0.5047675509 0.09650948259 0.3738525047
0.5149404345 0.1267679457 0.4697848917
0.5349114731 0.1784201033 0.591146014
0.5775331696 0.272747854 0.7159176098
0.6370542158 0.4231457625 0.7920798654
0.7045218012 0.5877958324 0.8265506173
0.7562456085 0.7104993557 0.834383744
0.03345727594 0.01731701988 0.05066431896
0.03345727594 0.01731701988 0.05066431896
0.03345727594 0.01731701988 0.05066431896
0.03345727594 0.01731701988 0.05066431896
0.03345727594 0.01731701988 0.05066431896
0.03345727594 0.01731701988 0.05066431896
0.03345727594 0.01731701988 0.05066431896
0.03338756298 0.02028472803 0.05080567098
0.241072052 0.0159347321 0.07448516847
0.3235967046 0.03311691758 0.1537008546
0.4268163285 0.05037006685 0.2045506483
0.4716444847 0.05771247685 0.2221772101
0.4858521326 0.05980734573 0.2260607855
0.4892506666 0.0582540215 0.2154389384
0.4907717476 0.05922539531 0.2190825183
0.4917176874 0.0601993239 0.2226798699
0.4939737652 0.06506508262 0.2453517311
0.4976203302 0.07393747783 0.2843278539
0.5039956112 0.09236746679 0.3571327105
0.5145962944 0.1239308665 0.4596757859
0.5346130634 0.1762518892 0.5850404673
0.5772709153 0.2712995267 0.7131881694
0.6368061311 0.4221803017 0.7914559421
0.7042975676 0.587233009 0.8264204667
0.7561715749 0.7103097133 0.8343841271
0.03345727594 0.01731701988 0.05066431896
0.03345727594 0.01731701988 0.05066431896
0.03345727594 0.01731701988 0.05066431896
0.03345727594 0.01731701988 0.05066431896
0.03345727594 0.01731701988 0.05066431896
0.03345727594 0.01731701988 0.05066431896
0.03345730392 0.01739182181 0.0506692102
0.04125373512 0.01748590238 0.0517506699
0.2187038511 0.01779638026 0.08595417038
0.3503781869 0.03234658727 0.1430747805
0.4366577282 0.04575297145 0.176259924
0.4727328396 0.05084453077 0.1840948397
0.4830312132 0.05082476542 0.1773960408
0.4865647771 0.05159750516 0.179475918
0.4876866558 0.05203751559 0.1808614644
0.489246195 0.05430573903 0.1919447516
0.4921415393 0.06013551689 0.2208373703
0.4964972663 0.07010162236 0.2665051163
0.5031887487 0.0885007155 0.3410710486
0.5142671886 0.1211033143 0.4494345756
0.5344160674 0.1740605963 0.5785004781
0.5770338835 0.2699114768 0.7105055543
0.6365747955 0.4212455173 0.7908265786
0.7040805418 0.5866867445 0.8262921424
0.7560978167 0.7101207975 0.8343843834
0.03345727594 0.01731701988 0.05066431896
0.03345727594 0.01731701988 0.05066431896
0.03345727594 0.01731701988 0.05066431896
0.03345727594 0.01731701988 0.05066431896
0.03345727594 0.01731701988 0.05066431896
0.03345727594 0.01731701988 0.05066431896
0.03349088134 0.01817715969 0.05072151974
0.1420769315 0.01478446561 0.06253056729
0.2565767726 0.02011192279 0.09660245078
0.3750651482 0.03114422902 0.1264543899
0.4434454895 0.04023057567 0.1413085131
0.4721792789 0.04434395103 0.1460299952
0.4808286873 0.04545407694 0.1461906647
0.4835136041 0.04602097517 0.1474909292
0.4849551718 0.04714723084 0.1531347285
0.4869421597 0.04985147852 0.1676239396
0.4902980494 0.05564778804 0.1974362897
0.4954091585 0.0667377231 0.2504055556
0.5023906336 0.08493581175 0.3259893646
0.5139468157 0.1181741692 0.438597668
0.5342893485 0.1718080323 0.571476111
0.5768231442 0.2685834455 0.7078715912
0.6363584833 0.420348379 0.7902060712
0.7038707724 0.5861571563 0.8261656738
0.7560254449 0.7099338441 0.8343822294
0.03345727594 0.01731701988 0.05066431896
0.03345727594 0.01731701988 0.05066431896
0.03345727594 0.01731701988 0.05066431896
0.03345727594 0.01731701988 0.05066431896
0.03345727594 0.01731701988 0.05066431896
0.03350903066 0.01745669451 0.05068123509
0.0799615247 0.01675281378 0.05648947571
0.1804281699 0.01512957334 0.07005412766
0.3099795785 0.02130943224 0.09206225175
0.402186962 0.03057187313 0.1081446008
0.4527706004 0.03723093701 0.1162641518
0.4723414856 0.04025813654 0.1203169371
0.4783343027 0.04133325408 0.1219810329
0.4807914546 0.04214215168 0.1249415842
0.4824864408 0.04354612934 0.1323210167
0.4849046571 0.04648917437 0.1484451013
0.4885641391 0.05193396497 0.1773951433
0.4942134476 0.06330467855 0.2335240134
0.501539388 0.08133928921 0.3104650762
0.5136113159 0.1151594385 0.4272872152
0.5341690824 0.1694566984 0.5639950611
0.5766651486 0.2670851542 0.7045922495
0.6361306153 0.4193869862 0.7895304829
0.7036509483 0.5855956679 0.8260232509
0.7559486343 0.709733566 0.834377139
0.03345727594 0.01731701988 0.05066431896
0.03345727594 0.01731701988 0.05066431896
0.03345727594 0.01731701988 0.05066431896
0.03433489172 0.01732811831 0.05079882169
0.05362023826 0.01720860322 0.0532273733
0.1090236756 0.01537664021 0.05821439045
0.2031710343 0.01453879483 0.06852726185
0.3051771272 0.0197354131 0.08441379324
0.3840860926 0.02717631641 0.09763815289
0.4354212801 0.03359341488 0.1063995868
0.4624507459 0.03748008125 0.1111050176
0.4730951806 0.03912222314 0.1130855044
0.4773546602 0.03991134788 0.114250127
0.4792952367 0.04046666938 0.1157330041
0.4806826848 0.04134869523 0.1197107005
0.4826771523 0.0433612806 0.1303257644
0.4865416048 0.04829055267 0.1567380921
0.4924552415 0.05862549809 0.2095696453
0.5004182508 0.07679958211 0.2902480457
0.5131763299 0.1109362656 0.4109798046
0.5341017406 0.1660364738 0.5526499484
0.576519756 0.2649603684 0.6996273767
0.6358273501 0.4180565501 0.7885626384
0.703353916 0.5848032239 0.825779688
0.7558401847 0.7094505063 0.834369253
0.03345727594 0.01731701988 0.05066431896
0.03345410159 0.01759699525 0.05068172393
0.03340503788 0.02000019908 0.05079672966
0.03321089683 0.02274010853 0.05086046942
0.03422206628 0.02116262283 0.0509608816
0.04142185922 0.01989917665 0.05187794592
0.07852992784 0.0182428005 0.05576666531
0.180922517 0.01488135699 0.06535760466
0.3025570169 0.0198155204 0.08375473258
0.3930502408 0.02839237893 0.09900161566
0.4473293386 0.03536585066 0.1083000868
0.4691579894 0.03853943372 0.1121031573
0.4763721008 0.03972341567 0.1134779362
0.4789408824 0.04023684152 0.1142801379
0.4800411694 0.04065725868 0.1156255964
0.4813792308 0.041708772 0.1204947267
0.484541277 0.04511278054 0.1380247062
0.4902548 0.05337574846 0.181221073
0.4990661253 0.0714006787 0.2649298421
0.5125951947 0.1049566674 0.3867980335
0.5341337989 0.1612873974 0.5362708773
0.57645905 0.2621057959 0.6924252373
0.635454524 0.4162760191 0.7871715651
0.7029468276 0.5837049776 0.8254269865
0.7556865594 0.7090488513 0.8343565202
0.03195913123 0.0410613268 0.05071942606
0.03020448921 0.06943674482 0.04944618578
0.03019022466 0.09600976421 0.04784004462
0.03086634302 0.1056543959 0.04727746882
0.03101415899 0.1036165972 0.04740025322
0.03282512788 0.09478757393 0.0480262434
0.04730878459 0.07939296447 0.0502689167
0.1117473765 0.05881871942 0.05669617537
0.2431733152 0.03056147462 0.06873008663
0.3624018585 0.02970660179 0.09032798165
0.4343142821 0.0355775543 0.1044514179
0.4661830847 0.03913002843 0.1107418313
0.476464563 0.04032622677 0.1129370549
0.4795389888 0.04065288459 0.1138121838
0.4805419492 0.04084020237 0.1145811484
0.4814807916 0.04141591149 0.1169424498
0.4834971234 0.04332383652 0.1262019331
0.4887091487 0.04975557669 0.1594592039
0.4977770552 0.06589109839 0.2364155813
0.5120487336 0.09748535011 0.3546276474
0.534548374 0.1549389177 0.5127089158
0.5768050439 0.2581720757 0.6808079392
0.6351482726 0.4140243045 0.7849366668
0.7024190367 0.5822533797 0.8249227131
0.7554753874 0.7084950262 0.8343354518
0.04442756994 0.1715943284 0.04231085798
0.04995066956 0.1889123593 0.04008611329
0.05367826141 0.1997997217 0.03839740961
0.05542532965 0.2045113485 0.03753855215
0.05587112146 0.2051378883 0.03734636596
0.05584412915 0.2025151866 0.03745984952
0.05816630163 0.1945516599 0.03772022658
0.08862584912 0.1801665664 0.04062752473
0.2086378488 0.1643361597 0.04832105843
0.3758103442 0.1250774221 0.05964310723
0.4659536001 0.07506391333 0.08415399849
0.4909475355 0.05650867412 0.1038581831
0.4891027103 0.04743808162 0.1107866825
0.4855149903 0.04375064809 0.1129314937
0.4837737399 0.04241262586 0.1138976917
0.4834413324 0.04222860542 0.1152028544
0.4844086654 0.04319015907 0.1204114444
0.4883994009 0.04768081039 0.1432318018
0.4974882768 0.06121268999 0.2071188843
0.5123628376 0.09041150727 0.3194504332
0.5359821606 0.1481597542 0.4834212835
0.5779362292 0.2539822283 0.6654276397
0.6351570759 0.411475012 0.781373714
0.7017446343 0.5803467341 0.8241997954
0.7552006456 0.707769986 0.8342996751
0.09076626881 0.2618610439 0.03934040324
0.09415564881 0.2667524833 0.03976243115
0.09623619579 0.2696878188 0.04002449588
0.09737295215 0.2710776398 0.04015783851
0.09828443424 0.2717285817 0.04024190861
0.09910236968 0.271490741 0.04027644987
0.1015576847 0.2703396388 0.04034892611
0.112464124 0.266521926 0.04075219085
0.1768037353 0.2707665265 0.0441529991
0.3399137025 0.2734807749 0.05188622487
0.5015950366 0.2494695943 0.06548730752
0.5754312411 0.1869536635 0.07415710922
0.5754617124 0.1116074591 0.08082279258
0.5348652899 0.07313649357 0.1025831831
0.5068424872 0.05461132483 0.1104042572
0.4951636727 0.04805981367 0.1131969138
0.4913050347 0.04635444827 0.1168212123
0.4927519752 0.04858403677 0.1307757713
0.5004201183 0.05894484138 0.178866534
0.5160380215 0.08661382762 0.2863147377
0.5408826203 0.1440175062 0.4509409743
0.5814090214 0.2513050858 0.6451016679
0.6361512323 0.4095916714 0.7758143841
0.7011631875 0.5783614435 0.8230597799
0.7548800466 0.7069147479 0.8342420449
0.1168372579 0.2998072482 0.04314126727
0.1177031285 0.3007203971 0.04326029685
0.1184860667 0.3014587122 0.043360948
0.1193505925 0.3020536153 0.04345396155
0.1203876169 0.3025134361 0.04354410311
0.1218509586 0.3030341867 0.04366131338
0.1245050764 0.303654636 0.04384751643
0.1337764454 0.3060096646 0.04449190091
0.1698921643 0.3160935778 0.04707458787
0.2985332298 0.3489301885 0.05534778333
0.4977042833 0.3740574295 0.06823218187
0.6219184475 0.3558076603 0.07942141683
0.6573707318 0.3027512592 0.08289853466
0.6363567294 0.2263523977 0.0805926371
0.6028759116 0.1407758979 0.07778610017
0.5586201474 0.08915743408 0.09658291854
0.528307964 0.06771496897 0.108539467
0.5155663858 0.06080333405 0.1207378592
0.5162688415 0.06597621685 0.158049722
0.5285813275 0.08965728818 0.2525545015
0.5543891397 0.1474228727 0.413723948
0.5907114565 0.2556916442 0.6207685237
0.639868372 0.4119890873 0.7680293387
0.7011961168 0.5773705646 0.8214467487
0.7546045933 0.7061424193 0.8341362963
0.1313014491 0.3182083724 0.0454955644
0.1322526291 0.3187930471 0.04559774618
0.1332119165 0.3193275629 0.04569566941
0.1342962963 0.3198383026 0.04579784596
0.1354510478 0.3203203879 0.04590129942
0.1369692525 0.3208873871 0.04603162981
0.1407248882 0.3223025125 0.04633995469
0.1485129051 0.3251127709 0.04696479848
0.1719963019 0.3337085917 0.04891610849
0.2473724237 0.3604984418 0.05485779488
0.4263900295 0.41250945 0.0678812928
0.6163493457 0.4445267512 0.08363647434
0.7112377008 0.4355853875 0.09274550203
0.7207288692 0.3962177042 0.09235420895
0.6912762561 0.3307860946 0.08747751574
0.6565630903 0.260024157 0.08327314747
0.6228913808 0.1854777633 0.08097300285
0.5987780242 0.1259869534 0.08767377453
0.573343921 0.1073825356 0.1314039757
0.5708952111 0.120188679 0.217321639
0.5851895655 0.1702415716 0.3703784058
0.6127989842 0.2770134184 0.5857553588
0.6496706011 0.4252600345 0.7566495198
0.7036137803 0.5810331964 0.8191705484
0.7547193911 0.7062198532 0.833830245
0.1448944603 0.3308610228 0.04739895267
0.1464328876 0.3315843247 0.04754965458
0.1480664357 0.3323352655 0.04770890698
0.1499581953 0.3331672827 0.04788756141
0.1519228307 0.3340083051 0.04806537365
0.1541164239 0.334923316 0.0482633578
0.1580482639 0.336545117 0.04861653089
0.1664114068 0.3399914823 0.04934405906
0.1859281342 0.3479796017 0.05108104102
0.2340922354 0.36723182 0.05519715854
0.3613930627 0.4118385891 0.06532399029
0.5637255718 0.4663730264 0.08185119266
0.710763147 0.4933085445 0.09656022493
0.7682021651 0.4904546794 0.102443208
0.7639203064 0.4623769697 0.1003912754
0.7440996552 0.4246641283 0.09651389515
0.7142227852 0.3708280278 0.09191747382
0.6855065738 0.3152792498 0.09086034796
0.6621987616 0.2581203759 0.10297284
0.6586101313 0.2235821781 0.1644433085
0.6490639493 0.2510781419 0.3263086902
0.6507276569 0.3277813506 0.5406413456
0.6693942474 0.4553513579 0.7359305594
0.7113623893 0.5960766417 0.8166903478
0.7560557452 0.709186126 0.8332085391
0.1665960384 0.3439785158 0.0497850699
0.1688828631 0.345004076 0.05000584806
0.1712735692 0.3460789685 0.05023648964
0.1741924535 0.3473829507 0.05052116867
0.1772285697 0.3487394179 0.05080562053
0.1806454999 0.3502564726 0.05112532108
0.1862671691 0.3527351317 0.05164141158
0.1957303572 0.3568607716 0.05248869714
0.2138993509 0.3646267477 0.05415693056
0.2499567 0.3795109833 0.05733291588
0.3360804435 0.4119947201 0.06452096657
0.4848642692 0.4590636747 0.07662956274
0.6644033235 0.5047731587 0.09351585087
0.7707692726 0.5248157592 0.1052935554
0.7983421107 0.5235166934 0.1081831514
0.7962074794 0.5129935653 0.1073958538
0.7840231045 0.4922288006 0.1051287799
0.7686617093 0.4670110497 0.1038879728
0.7463016679 0.4283434775 0.107597564
0.7338864653 0.3981894057 0.1420204994
0.7278291262 0.3889308552 0.2704300533
0.7098434452 0.4301006694 0.4911945271
0.7048349664 0.5168370047 0.7041482762
0.7265364501 0.6262701376 0.8119477091
0.7599397209 0.7182389348 0.8317730472
0.2113674614 0.3658359479 0.05421078395
0.2144533462 0.367196169 0.05449310209
0.2176617115 0.3686086854 0.05478441958
0.2212637203 0.3701903398 0.05510698994
0.2249012862 0.3717752199 0.05543057183
0.2288277733 0.3734680482 0.05579753804
0.2349197695 0.3760710455 0.05636211226
0.2448002504 0.3802373497 0.05725123146
0.2616320342 0.3871892099 0.05872935938
0.2945220186 0.4002736906 0.06157620744
0.3545253585 0.4226278291 0.06660683482
0.4535010313 0.4557340272 0.0748305638
0.6095090205 0.5007674174 0.08903016962
0.7448984476 0.533971932 0.1035897887
0.8056760412 0.5459329733 0.1107821871
0.8151405876 0.5449070602 0.1118599157
0.8149508434 0.542811947 0.1121188768
0.8119694589 0.5388566849 0.1129630167
0.8065351903 0.5328545036 0.1171603896
0.802536864 0.5319394839 0.1398718885
0.7982045253 0.5315851254 0.2266423736
0.7815925545 0.5544374167 0.4215338273
0.7560351063 0.6110821963 0.6642760448
0.7512740936 0.6756044499 0.8000996686
0.7676021477 0.7366843452 0.8285552222
0.2908738652 0.4002843461 0.06145329012
0.2947571793 0.401827424 0.06180015892
0.298811185 0.403432954 0.06215405207
0.3030052236 0.4050854834 0.06251788066
0.3072873215 0.4067597525 0.06288695527
0.3119083821 0.4085583731 0.06327861155
0.3186502486 0.4111616473 0.06384480837
0.3291596323 0.4151622366 0.06476115766
0.3450590655 0.4211051223 0.06609773101
0.3694589603 0.4299547922 0.06815802022
0.4093988919 0.443878421 0.0715054208
0.4750721761 0.4654363684 0.07712336125
0.5855164075 0.4983613833 0.08722194821
0.705961379 0.5307156437 0.09981983755
0.7943166553 0.5525999109 0.1102330849
0.8215984066 0.5586054101 0.1137345561
0.8250560603 0.5592326602 0.1145043416
0.8261227333 0.5616004379 0.1162234554
0.8281221247 0.5679784318 0.1213522964
0.8336317013 0.5854478997 0.1407170859
0.8412256341 0.6131487693 0.2038487769
0.8355491258 0.6459973647 0.3639589675
0.8059428472 0.693525416 0.6076501465
0.779737721 0.7331559157 0.7781487552
0.77776121 0.7618828997 0.8223536428
0.40659929 0.4437339015 0.07138564247
0.4095681911 0.4447673237 0.07162912749
0.4126827211 0.4458504914 0.07188609862
0.4158633218 0.4469512664 0.07216790674
0.4189869255 0.4480265435 0.07244114731
0.4223869518 0.4491921429 0.07273693812
0.4273920783 0.4509051432 0.07317037073
0.4347941459 0.4534200557 0.07380516698
0.4462658848 0.4572653127 0.07477539146
0.4632689934 0.4628887864 0.07628418581
0.4896398971 0.4713352612 0.07859542316
0.5349797217 0.485286214 0.08268931024
0.6028785893 0.5051623981 0.08920183587
0.6855063689 0.5279355134 0.09786078386
0.7744421372 0.5511632242 0.1081930521
0.8189998448 0.56268925 0.1138757779
0.8286804092 0.5659995722 0.1155658996
0.8306469052 0.5687354509 0.1171390858
0.8338727189 0.5772631423 0.1226740332
0.8411757192 0.5977005627 0.1408034641
0.8525314841 0.631844838 0.1928538896
0.8565474417 0.678659406 0.3310651004
0.8313963217 0.7307750071 0.5644632531
0.7989705248 0.7664997709 0.7485336996
0.7857758238 0.7815644696 0.8145374153
0.5322142908 0.4847905515 0.08246945235
0.5346126705 0.4855301257 0.08268914654
0.5370516656 0.4862816246 0.0829174964
0.5394622458 0.4870226433 0.08314551512
0.5417508643 0.4877243334 0.08335851025
0.5442815178 0.488496965 0.08359300826
0.5480982016 0.4896569746 0.08394300661
0.5539556453 0.4914317045 0.0845164975
0.5625339827 0.4940169614 0.08533897757
0.5746822123 0.497647929 0.08649932075
0.5928084982 0.5029856872 0.0882921684
0.6160990126 0.5096979209 0.09062031159
0.6495777125 0.5191544162 0.09410491939
0.700976819 0.5332899175 0.09976323145
0.7616577356 0.5494402633 0.1068821426
0.8102048557 0.5622736025 0.1130297059
0.8282629754 0.567900863 0.115819709
0.8321223645 0.5715005121 0.1177820067
0.8348850377 0.5784217824 0.1222028973
0.8426051709 0.5996811437 0.1400736991
0.8539586989 0.6329129276 0.1864927186
0.860730343 0.6798563881 0.3091220228
0.8405245786 0.7348543849 0.5315690979
0.8078713399 0.7737990047 0.7232294731
0.789904147 0.7894585843 0.8073546464
0.6483645474 0.5188831958 0.09396701056
0.649547147 0.5192238562 0.09409109089
0.6507391559 0.519567248 0.09422080062
0.6519358982 0.5199113989 0.09435401781
0.6530790066 0.5202399784 0.09448415214
0.6542475093 0.5205758747 0.09461064857
0.6559568639 0.5210657179 0.09479844611
0.6585188969 0.5217994412 0.09508815442
0.6623763756 0.5229016087 0.09550763092
0.6684514581 0.5246247821 0.09617372406
0.6780781821 0.5273185163 0.09723010195
0.6913392711 0.5309974173 0.09871027344
0.710860863 0.5363531899 0.1009338692
0.7367981238 0.5434691575 0.1040106463
0.771107874 0.5527003832 0.1082148236
0.8041473311 0.5617238422 0.1125238223
0.8255604301 0.5682852352 0.1158084972
0.8323506198 0.5729177709 0.1183744049
0.8355913629 0.580052082 0.1230361285
0.8421009823 0.5979104176 0.1378169401
0.8538490102 0.6319280821 0.1833214836
0.8615190436 0.6774639944 0.2970285198
0.8449979539 0.7306098081 0.5039977944
0.8127208385 0.7720107563 0.7022091008
0.7920005379 0.7903525914 0.8005986331
0.7370710059 0.5433905537 0.1039704127
0.7376312992 0.5435537548 0.1040371372
0.7381936053 0.5437174064 0.1041046644
0.7387569454 0.543880997 0.1041728248
0.7393203527 0.5440440255 0.1042414501
0.7399361331 0.5442214706 0.1043169635
0.7407885419 0.5444659722 0.1044226807
0.7419397542 0.544794748 0.1045683947
0.7436632484 0.5452839271 0.1047784973
0.7462736056 0.5460206743 0.1051027082
0.7503813235 0.547169895 0.1056107624
0.7569852522 0.5489922044 0.1064316526
0.7657316236 0.5514397831 0.1075549038
0.7781955592 0.5548845232 0.1091513216
0.7924281504 0.5589370322 0.1110662418
0.8093869225 0.5639865118 0.113561306
0.8241322366 0.5691736629 0.1162403733
0.832162114 0.574654139 0.1194101323
0.8364539037 0.5825978386 0.1247828756
0.8432403337 0.6010076859 0.1408094398
0.8527965697 0.6285184025 0.177273703
0.8616287141 0.6754668388 0.2901692146
0.8477885279 0.7259668674 0.4826251109
0.8167200039 0.7683252243 0.6817799054
0.7937601002 0.7893934905 0.7932506805
0.7927706558 0.5587350121 0.1109729881
0.7929712334 0.5588007037 0.1110040101
0.7931720535 0.5588663572 0.1110350823
0.7933729147 0.5589318327 0.1110661448
0.7935736178 0.558996993 0.1110971385
0.7937926575 0.5590677205 0.1111308806
0.7941113984 0.5591700483 0.1111798769
0.7945856461 0.5593214067 0.1112527119
0.7951807176 0.5595177925 0.1113470881
0.7960315505 0.5597984229 0.1114828602
0.797290388 0.5602082101 0.1116745855
0.7993993572 0.5608752448 0.1119939147
0.8025945386 0.5618986614 0.1125093039
0.8067550538 0.5632596022 0.1131734603
0.8127222257 0.5652888351 0.1141917046
0.8195551743 0.5679766882 0.115601552
0.8265791338 0.5719810774 0.1178473534
0.8327083367 0.5776372634 0.121368998
0.8379707169 0.5873696275 0.128429568
0.8450299448 0.6060323305 0.1461831657
0.8541428952 0.632781013 0.1846155467
0.8616072927 0.6723904333 0.2805393627
0.8489244098 0.7238264271 0.4732667431
0.8192314181 0.7656720525 0.6682813962
0.7951486151 0.7883096076 0.7870902522
0.8197674291 0.5674520278 0.1152877223
0.8198316604 0.5674897027 0.1153077195
0.8198958697 0.567527239 0.115327647
0.8199600257 0.5675645792 0.1153474712
0.8200240872 0.5676016591 0.1153671567
0.820093977 0.5676418298 0.1153884815
0.8201957286 0.5676996969 0.1154191946
0.8203467893 0.5677846381 0.1154642738
0.820571 0.5679091159 0.1155303406
0.8208652277 0.5680817995 0.1156227814
0.8212564575 0.5683230297 0.1157529663
0.8218430766 0.5686948909 0.115956792
0.8227315539 0.5692877338 0.1162888247
0.8240884055 0.5702179361 0.1168164862
0.8258804147 0.5716607955 0.1176567293
0.8283391634 0.5738491682 0.1189808577
