src-tauri/resources/film_luts/K-Gold 200.cube
# ============================================================================
# spektrafilm LUT
# Bundle:  spektrafilm_v034_gold200_supraendura_1lut_vlog_srgb  (1lut, 25^3)
# Film:    kodak_gold_200
# Print:   kodak_supra_endura
# Input:   Panasonic V-Log  (cctf on)
# Output:  sRGB  (cctf on)
# Created: 2026-08-17T16:43:54Z
# spektrafilm: 0.3.4
# Project: https://github.com/andreavolpato/spektrafilm
#
# Copyright (c) 2026 Andrea Volpato. Generated by spektrafilm. Licensed under CC BY-SA 4.0.
#
# License: spektrafilm LUT by Andrea Volpato, licensed under CC BY-SA 4.0.
#          Full text and attribution requirements in SPEKTRAFILM_LICENSE.txt
#          (shipped in this bundle); also at
#          https://github.com/andreavolpato/spektrafilm/blob/main/SPEKTRAFILM_LICENSE.txt.
#
# Citation: If you use this LUT in your work, please cite the spektrafilm
#           project: https://github.com/andreavolpato/spektrafilm, see
#           CITATION.cff for details.
#
# Notes: Generated by the spektrafilm LUT bundle builder. Apply with trilinear
#        or tetrahedral interpolation in your host (DaVinci Resolve, Nuke,
#        OCIO-aware DCC). The input and output color spaces are declared in
#        bundle.json; do NOT apply this LUT to a signal in a different color
#        space.
#
# File: lut_v034_gold200_supraendura.cube  (see sibling bundle.json for full metadata)
# ============================================================================
TITLE "v034_gold200_supraendura"
DOMAIN_MIN 0 0 0
DOMAIN_MAX 1 1 1
LUT_3D_SIZE 5
0.03775934533 0.04595813319 0.05371192447
0.03775934533 0.04595813319 0.05371192447
0.6771125211 0.1413316249 0.2454470185
0.7474522638 0.1725762037 0.3985798832
0.9041837432 0.7376800038 0.8701641961
0.03775934533 0.04595813319 0.05371192447
0.3099961789 0.07560927507 0.05424442691
0.6756774117 0.1328082235 0.07901076281
0.7480936793 0.1677590462 0.3241232508
0.9041701994 0.7380288906 0.8695803865
0.0712529693 0.4193129815 0.1599031612
0.09386761401 0.4420788202 0.1486506685
0.6872645669 0.5434603547 0.1238457162
0.8346950312 0.2945671968 0.157688586
0.9031857031 0.7461895447 0.8642959308
0.8098566215 0.7244732559 0.1616844226
0.8125239078 0.7258776006 0.1620430477
0.8360580592 0.7357624419 0.1646720178
0.9302819514 0.7963850348 0.2057180518
0.8690838316 0.8538178685 0.8129013203
0.9201180989 0.831593835 0.336238808
0.9199283369 0.8318716908 0.3382850718
0.9187140565 0.8335647356 0.3512141494
0.9073021849 0.8448392338 0.4623260226
0.8635126316 0.8604763132 0.8265931862
0.03775934533 0.04595813319 0.05371192447
0.1852027791 0.06652781485 0.07200703241
0.6852497625 0.1447033432 0.2748734402
0.748743749 0.1669977686 0.3058706764
0.9041711255 0.7380927792 0.8694235311
0.03186262972 0.06711471471 0.06148502566
0.05445711816 0.0772478118 0.06841501858
0.6593603095 0.1303882073 0.0791762225
0.754943379 0.1681941861 0.2515999539
0.90411944 0.7387003336 0.868801615
0.08521345181 0.4367560743 0.1549775512
0.1069607899 0.4570551748 0.1430774977
0.6781120759 0.5639097984 0.1273093757
0.8479575159 0.3400663071 0.1586779249
0.9028313917 0.7485624725 0.8632501456
0.8123893864 0.7252350156 0.1618889221
0.8148721228 0.7265838064 0.1622374225
0.8378276579 0.7362547446 0.1648024315
0.9302120087 0.7965589011 0.205825337
0.8689682202 0.8540762736 0.8126206663
0.9201038174 0.8316161406 0.3364005397
0.9199132146 0.8318949039 0.338455189
0.9186967675 0.833588953 0.3514030778
0.9072939995 0.8448458916 0.4624065303
0.8635109856 0.8604764724 0.8266057607
0.06689562818 0.1694863177 0.5016111844
0.06975319525 0.1514197962 0.495993755
0.6702325922 0.1695347011 0.5594211669
0.818724597 0.2790479721 0.7074556511
0.9026359596 0.7498712142 0.8625828507
0.06714002239 0.1790132246 0.5079909628
0.06605810031 0.1948203737 0.5056786702
0.6469143492 0.1677219979 0.5455043215
0.8149909879 0.2717410539 0.6897189613
0.9022605017 0.7521973466 0.8616163018
0.09090276264 0.5647489034 0.6205627109
0.1002067444 0.5784190251 0.6258666321
0.667915818 0.6656222399 0.6522552776
0.8582305711 0.3360047867 0.5601618589
0.8989436413 0.7691782326 0.8557045649
0.8066419089 0.7630179142 0.1814390924
0.8090966061 0.7657050691 0.1838553491
0.8304514548 0.7848301258 0.2072526161
0.9169140475 0.8325549416 0.3643842027
0.8682501656 0.8556709767 0.8108812018
0.9200011646 0.8317756715 0.3375611642
0.9198084315 0.8320552915 0.3396341417
0.9185742758 0.83375976 0.3527402194
0.9072352421 0.8448935944 0.4629841118
0.8634988978 0.8604776317 0.8266982121
0.1855288259 0.6291369454 0.7724160379
0.19981457 0.6349157383 0.7818816656
0.5255594099 0.7087955846 0.8739118867
0.9041642838 0.6012373522 0.8649705331
0.8636910628 0.8538083776 0.8584673031
0.1891870146 0.6324743652 0.7753462154
0.2044817772 0.6387387885 0.7852793419
0.5324359402 0.7110860405 0.8746478354
0.9043649625 0.6035458435 0.8653323848
0.8637411655 0.853719348 0.8584922991
0.2244350921 0.6908566332 0.8064388983
0.2388673599 0.6991209232 0.814425128
0.4904197142 0.7797692734 0.8827062568
0.9069651668 0.6411769397 0.8710497683
0.8641229879 0.8530391856 0.8586825674
0.6861754464 0.8592498456 0.8791646891
0.6902547616 0.8594566527 0.8787829734
0.7218487675 0.8607756257 0.8755051199
0.8591562306 0.859952356 0.8541446564
0.8624236928 0.8563574145 0.856229761
0.8701937372 0.8596836495 0.7699620392
0.8701028333 0.8596977681 0.7706947294
0.8695060718 0.8597885841 0.7755067998
0.8651294899 0.8603296585 0.8110759621
0.8603227771 0.8606671956 0.8516521226
0.8342893186 0.861314407 0.8611128025
0.8346507315 0.8613041727 0.861049621
0.8377738528 0.8612145786 0.8605000603
0.8580630892 0.8604967636 0.856798734
0.8598809947 0.8604269798 0.8564846824
0.8344014343 0.8613118269 0.8610931057
0.834763966 0.8613015436 0.8610297015
0.8378783316 0.8612120297 0.8604814132
0.8580698371 0.8604968373 0.8567973896
0.8598808179 0.8604272663 0.8564845514
0.8352034915 0.8612931614 0.8609517551
0.8355845236 0.8612822411 0.8608848724
0.8386187524 0.8611938169 0.8603490525
0.8581179348 0.8604973612 0.856787805
0.8598796476 0.8604291437 0.8564836487
0.843748636 0.8611494544 0.8593897696
0.8439656146 0.8611425968 0.8593504068
0.8457398755 0.861085424 0.8590275713
0.857899674 0.86065385 0.8567729358
0.8598444342 0.8604874871 0.8564636752
0.8593729274 0.8607267848 0.8564665741
0.8593741723 0.8607267332 0.8564663481
0.8593823685 0.8607263931 0.8564648685
0.8594587702 0.8607231594 0.8564515053
0.8597119087 0.8607104911 0.8564142604
