src-tauri/resources/film_luts/K-Gold 200.cube
# ============================================================================
# spektrafilm LUT
# Bundle:  spektrafilm_v034_gold200_supraendura_1lut_vlog_srgb  (1lut, 25^3)
# Film:    kodak_gold_200
# Print:   kodak_supra_endura
# Input:   Panasonic V-Log  (cctf on)
# Output:  sRGB  (cctf on)
# Created: 2026-08-17T16:43:54Z
# spektrafilm: 0.3.4
# Project: https://github.com/andreavolpato/spektrafilm
#
# Copyright (c) 2026 Andrea Volpato. Generated by spektrafilm. Licensed under CC BY-SA 4.0.
#
# License: spektrafilm LUT by Andrea Volpato, licensed under CC BY-SA 4.0.
#          Full text and attribution requirements in SPEKTRAFILM_LICENSE.txt
#          (shipped in this bundle); also at
#          https://github.com/andreavolpato/spektrafilm/blob/main/SPEKTRAFILM_LICENSE.txt.
#
# Citation: If you use this LUT in your work, please cite the spektrafilm
#           project: https://github.com/andreavolpato/spektrafilm, see
#           CITATION.cff for details.
#
# Notes: Generated by the spektrafilm LUT bundle builder. Apply with trilinear
#        or tetrahedral interpolation in your host (DaVinci Resolve, Nuke,
#        OCIO-aware DCC). The input and output color spaces are declared in
#        bundle.json; do NOT apply this LUT to a signal in a different color
#        space.
#
# File: lut_v034_gold200_supraendura.cube  (see sibling bundle.json for full metadata)
# ============================================================================
TITLE "v034_gold200_supraendura"
DOMAIN_MIN 0 0 0
DOMAIN_MAX 1 1 1
LUT_3D_SIZE 25
0.03775934533 0.04595813319 0.05371192447
0.03775934533 0.04595813319 0.05371192447
0.03775934533 0.04595813319 0.05371192447
0.03775934533 0.04595813319 0.05371192447
0.03775934533 0.04595813319 0.05371192447
0.03775934533 0.04595813319 0.05371192447
0.03775934533 0.04595813319 0.05371192447
0.03775934533 0.04595813319 0.05371192447
0.02333165713 0.09748640388 0.06381608052
0.45449727 0.09460473319 0.0669328634
0.5424216994 0.1170893472 0.1955962158
0.6322185685 0.1333629616 0.2343412872
0.6771125211 0.1413316249 0.2454470185
0.7014231297 0.1459295805 0.2534215785
0.7138488869 0.1481106852 0.2526200921
0.7217320742 0.1508651849 0.2678179524
0.7287142893 0.1545633004 0.289551274
0.7364053389 0.1610387041 0.3343543374
0.7474522638 0.1725762037 0.3985798832
0.7684591008 0.1965195766 0.4793468419
0.8054852198 0.246255957 0.5736428619
0.8566984351 0.3448391945 0.6863136888
0.8894541823 0.4853654306 0.7813731461
0.9077515933 0.6265178968 0.845660704
0.9041837432 0.7376800038 0.8701641961
0.03775934533 0.04595813319 0.05371192447
0.03775934533 0.04595813319 0.05371192447
0.03775934533 0.04595813319 0.05371192447
0.03775934533 0.04595813319 0.05371192447
0.03775934533 0.04595813319 0.05371192447
0.03775934533 0.04595813319 0.05371192447
0.03775934533 0.04595813319 0.05371192447
0.03737469542 0.04811336014 0.05417745059
0.06120979542 0.05142946178 0.0549413514
0.4520693404 0.0974172348 0.1015496201
0.5618585775 0.1188895826 0.1816315842
0.6388727985 0.1329933936 0.2141045934
0.6798537185 0.1400063194 0.219880992
0.701288804 0.1435551565 0.2190357489
0.7133599364 0.1461995824 0.2261791247
0.7206792695 0.1486071768 0.2380975642
0.7278200573 0.1525656392 0.264582614
0.7360602476 0.1596110104 0.3162184255
0.7473089533 0.1717149452 0.3882838696
0.7684115995 0.1959627923 0.4732324118
0.8055165324 0.2458839813 0.5693194983
0.8567839751 0.3447801415 0.6841277314
0.8894878922 0.4854294838 0.7803348993
0.9077674046 0.6265856016 0.8453805322
0.904183942 0.7377178944 0.8700767745
0.03775934533 0.04595813319 0.05371192447
0.03775934533 0.04595813319 0.05371192447
0.03775934533 0.04595813319 0.05371192447
0.03775934533 0.04595813319 0.05371192447
0.03775934533 0.04595813319 0.05371192447
0.03775934533 0.04595813319 0.05371192447
0.03775934533 0.04595813319 0.05371192447
0.03498020573 0.05846231827 0.0562700595
0.3784223237 0.08356239297 0.05595887153
0.4659116595 0.1008456917 0.120841331
0.5757355267 0.1194852762 0.1615317874
0.6425210187 0.1311104413 0.1792134472
0.6813268673 0.1380218499 0.1877296895
0.7009639855 0.1411388071 0.1841701615
0.7124180704 0.1439481809 0.195040147
0.7196518821 0.1464536813 0.2090533934
0.727005399 0.1506492398 0.2395259077
0.7357964331 0.1583042358 0.298435478
0.7472429569 0.1709059732 0.3777872571
0.7684477362 0.1954502159 0.4666824103
0.8056163685 0.2456161734 0.5651370341
0.8569003981 0.3447755983 0.6818192129
0.8895269974 0.4855251222 0.7793088489
0.9077837017 0.6266673294 0.8451164336
0.9041833444 0.7377608946 0.8699894434
0.03775934533 0.04595813319 0.05371192447
0.03775934533 0.04595813319 0.05371192447
0.03775934533 0.04595813319 0.05371192447
0.03775934533 0.04595813319 0.05371192447
0.03775934533 0.04595813319 0.05371192447
0.03775934533 0.04595813319 0.05371192447
0.03765751615 0.04658619658 0.05384906063
0.04478293249 0.04797363922 0.05419675623
0.3692251039 0.08417748101 0.06883017687
0.496656705 0.1042348093 0.1112434889
0.5908893751 0.1199461804 0.1359906713
0.6490996128 0.1297306142 0.144101115
0.6818812208 0.1351036472 0.1433690289
0.7002675554 0.1386622185 0.1494341822
0.7109452696 0.1411958064 0.1569562321
0.7186237581 0.1442056548 0.1777452062
0.7262601277 0.1488823227 0.2158767426
0.7356371987 0.157103279 0.2809373955
0.7472643159 0.1701305375 0.3667690951
0.7685584689 0.1950327173 0.4603357154
0.8057695899 0.2454310765 0.5610761249
0.8570428958 0.3448281063 0.6794894199
0.8895714885 0.4856522761 0.7782951105
0.9078009091 0.6267611936 0.8448585807
0.9041819459 0.737809025 0.869902202
0.03775934533 0.04595813319 0.05371192447
0.03775934533 0.04595813319 0.05371192447
0.03775934533 0.04595813319 0.05371192447
0.03775934533 0.04595813319 0.05371192447
0.03775934533 0.04595813319 0.05371192447
0.03775934533 0.04595813319 0.05371192447
0.03654629954 0.05208211025 0.05500652782
0.2696614266 0.07203695335 0.05535961039
0.402683373 0.08874921238 0.07475789554
0.5206388488 0.1062347494 0.0936558705
0.6027178542 0.1194054035 0.103040156
0.6531725866 0.1278910532 0.1079144984
0.6830121374 0.1331242249 0.1114051192
0.6984476585 0.1361426868 0.1163002
0.7092205815 0.1388053294 0.125598393
0.7174945221 0.1420367337 0.1473517561
0.7256848942 0.1472817952 0.1930896745
0.7355508825 0.1559746067 0.2636473777
0.7473723595 0.1693979953 0.3553245056
0.7687527388 0.1946676216 0.4537176417
0.8059751579 0.2453315983 0.5571903661
0.8572108252 0.3449428207 0.6772014336
0.8896244444 0.4858070104 0.7771619737
0.9078189952 0.626866663 0.8446034681
0.9041797543 0.7378622256 0.8698150449
0.03775934533 0.04595813319 0.05371192447
0.03775934533 0.04595813319 0.05371192447
0.03775934533 0.04595813319 0.05371192447
0.03775934533 0.04595813319 0.05371192447
0.03775934533 0.04595813319 0.05371192447
0.03756430702 0.04719103224 0.05397977749
0.1795578974 0.06343418474 0.05559682978
0.3268225659 0.07826671493 0.05835535567
0.4519113953 0.09407498807 0.06517956167
0.5494499517 0.1087407973 0.07237461657
0.6160883068 0.1200084549 0.07779458137
0.657880115 0.1274222302 0.08257894896
0.6812647323 0.1315471911 0.08610959855
0.6961916031 0.1340524673 0.09102431511
0.7073760271 0.1368567317 0.1012742706
0.716434477 0.140330798 0.1232868837
0.7251970863 0.1456789997 0.1686784033
0.7355331605 0.1548567644 0.2455709808
0.747596621 0.1686439677 0.3422385663
0.7690493237 0.1943749243 0.4467042967
0.8062594297 0.2452896727 0.5528040243
0.8574232568 0.3451395619 0.6747477729
0.8896890848 0.4860113822 0.7759251766
0.9078396781 0.6269953136 0.8443276005
0.9041764896 0.7379259362 0.8697198294
0.03775934533 0.04595813319 0.05371192447
0.03775934533 0.04595813319 0.05371192447
0.03775934533 0.04595813319 0.05371192447
0.04086899109 0.0463683683 0.05382747714
0.09933985639 0.05426225518 0.0552110223
0.1981966743 0.06493010809 0.05475443111
0.3099961789 0.07560927507 0.05424442691
0.4083383353 0.087148014 0.05646610156
0.493336458 0.09981128965 0.06117538582
0.5645006744 0.1117898172 0.06675589992
0.6159640633 0.121423789 0.07197501495
0.6513119096 0.1281619686 0.07593852539
0.6756774117 0.1328082235 0.07901076281
0.6914717802 0.1353673633 0.08160192068
0.7047894331 0.1368074504 0.08623481517
0.7152000941 0.138768151 0.1008232667
0.7247519737 0.1439619837 0.1405174739
0.7356825499 0.1534763394 0.2211803452
0.7480936793 0.1677590462 0.3241232508
0.7696432086 0.1941606908 0.4370676564
0.806807969 0.2454367338 0.5466969712
0.8577873114 0.3455608929 0.6712678569
0.8897945824 0.4863761382 0.7741522947
0.9078719552 0.6272073306 0.8439188432
0.9041701994 0.7380288906 0.8695803865
0.03775934533 0.04595813319 0.05371192447
0.03743783559 0.04779500486 0.05410918583
0.03510702583 0.05796939977 0.05617503375
0.03158624404 0.07038634213 0.05847998328
0.03444592343 0.06346523403 0.05722204719
0.04048608954 0.05835020577 0.05628051704
0.07919122372 0.05891966642 0.05629875702
0.1983024443 0.06957847727 0.05533875708
0.3417659591 0.08161315452 0.05446055137
0.4575228212 0.09611028765 0.05874042145
0.5547540526 0.1118458113 0.06603375926
0.6225769219 0.1241498078 0.07276696129
0.6635091423 0.1318640377 0.07736276321
0.6878332113 0.1365079736 0.08043977444
0.7025308896 0.1389718773 0.0829403358
0.7141152037 0.1394544933 0.08798868158
0.7251363348 0.1428374378 0.1143413198
0.7363663683 0.1519180875 0.1878046415
0.7492302224 0.1668923411 0.2989753583
0.770935328 0.194278014 0.4231476218
0.8078541916 0.2460695879 0.5386657703
0.8584524664 0.3464794224 0.6661411957
0.8899800447 0.4870778905 0.7715913601
0.9079278745 0.6275742329 0.8432060589
0.9041587488 0.7382010294 0.8693590992
0.02544534533 0.08987341659 0.06216090435
0.01976712696 0.1145033868 0.06816738857
0.01655365059 0.148615723 0.07920089044
0.01642704855 0.1620385002 0.08401897837
0.01679606532 0.1561956329 0.08172234665
0.01820593315 0.1436788039 0.07683499228
0.02593166939 0.1282197863 0.07021897166
0.09049217284 0.1156589529 0.06398565271
0.2520940446 0.1145723092 0.05918639943
0.4168332709 0.1182202363 0.05954806311
0.5316239462 0.1243380076 0.06578395059
0.6139992776 0.132392257 0.07286519467
0.6637846906 0.138210249 0.07798065007
0.6908302888 0.1414197853 0.08104299471
0.7055058168 0.143149121 0.08306123961
0.7168032015 0.1442252718 0.08588994056
0.7280651887 0.143593647 0.09784859524
0.7387391314 0.1514762353 0.1538291249
0.7522348769 0.1671128466 0.2676840298
0.7736334561 0.195405157 0.4042625711
0.810060858 0.2480378352 0.5279939229
0.8596978517 0.3484856323 0.658782002
0.8903187465 0.4884692625 0.7678756696
0.9080187867 0.6282398438 0.8421768097
0.904133785 0.7385070274 0.8690308589
0.01786570501 0.2057794478 0.1005190317
0.01970733951 0.2298259586 0.1098283327
0.02128510688 0.2463793255 0.1161910468
0.02211016883 0.2527895502 0.1185302253
0.02233329647 0.251998637 0.1179036005
0.02236465677 0.2468109047 0.1152876402
0.02330046424 0.2348057122 0.1087247346
0.03457785688 0.2220185068 0.09522211487
0.1393386669 0.2166042705 0.07099997416
0.343622336 0.2145400154 0.0677280394
0.5171184932 0.202590976 0.07294233975
0.626537143 0.1889937757 0.07958873808
0.6861666248 0.1746920358 0.08362048325
0.7088711829 0.1634691832 0.08489886873
0.7188328071 0.1570625222 0.08559380153
0.7257109519 0.1546437362 0.08693482686
0.7336840971 0.1523300308 0.09155280017
0.7445974409 0.1540632193 0.1280695328
0.758777975 0.1704719623 0.2379665518
0.7795062365 0.1994112114 0.3799501687
0.8145961619 0.2529878898 0.5138581041
0.8620484767 0.3527987578 0.6485221044
0.8909699235 0.4912993187 0.7621701094
0.9081685334 0.6294238141 0.8406584777
0.9040792449 0.7390693202 0.8685446837
0.02906388042 0.3026881695 0.1372013419
0.03055426083 0.3114653464 0.1404045047
0.03186621383 0.3183499623 0.1428177701
0.03282271273 0.321810129 0.1437834632
0.03355531999 0.3228603436 0.1435942617
0.03445566047 0.3220513764 0.1422102467
0.03628488661 0.3190759493 0.1387433256
0.04450457694 0.3176425975 0.1305885879
0.08326881619 0.3231449699 0.1026810216
0.2584693661 0.3347755682 0.0831172684
0.4683551828 0.3388143252 0.08432132932
0.6257309574 0.3143652149 0.09117769728
0.7223181514 0.279673378 0.09676347965
0.7499572266 0.2377521681 0.09591520547
0.7513460295 0.205455573 0.09340693047
0.7484618227 0.1869533603 0.09208225359
0.7489624026 0.1766951362 0.09388359356
0.7598427488 0.1663487257 0.1092501518
0.7717491081 0.1797589203 0.2032171577
0.7909185288 0.2095919158 0.3519756515
0.8232012596 0.2639112348 0.4960678623
0.866516836 0.3621564545 0.6353674144
0.8922469543 0.4972339451 0.7542544771
0.9084349684 0.6316957448 0.8382011842
0.9039621771 0.7401184136 0.8678268839
0.04423162921 0.3656777491 0.157204384
0.04549130773 0.3693723027 0.158010947
0.04684509312 0.3725218507 0.1584680983
0.04836223068 0.3751300884 0.1584491527
0.0500428042 0.3772932709 0.1579587784
0.05237777853 0.3796322361 0.156926491
0.05696960671 0.3832884693 0.1542700569
0.06716218244 0.38972715 0.1474679592
0.09548595047 0.4032073004 0.1269816349
0.220833375 0.4278348312 0.09964507051
0.3933108652 0.4429324053 0.1004040697
0.5766454208 0.4469387889 0.1035924497
0.7254729653 0.4269651804 0.110756236
0.7971969299 0.3783796281 0.1130982332
0.8027064787 0.3187729391 0.1087889601
0.7917028572 0.2701116033 0.1040600688
0.7820674613 0.2378879192 0.1023305755
0.783325353 0.2192486205 0.111121932
0.7995334312 0.2068942796 0.1697032146
0.8144728466 0.236350577 0.3198873863
0.839593137 0.2891127727 0.4776462171
0.8722692829 0.3850198313 0.6188148371
0.8946757639 0.5092116629 0.7442122686
0.9089200313 0.6362063324 0.8341388328
0.9037228242 0.7421630093 0.8664753134
0.0712529693 0.4193129815 0.1599031612
0.07363393073 0.4224716533 0.159150132
0.07626336822 0.4256630626 0.1581471778
0.07919267626 0.4288571896 0.1568379342
0.08274424983 0.4323931097 0.1550852519
0.08686403956 0.4361812891 0.1528702775
0.09386761401 0.4420788202 0.1486506685
0.106884321 0.451361738 0.1399185892
0.1376097468 0.469189971 0.1166051068
0.2439892618 0.4918769407 0.1118272752
0.3750992924 0.5170643589 0.1153575758
0.5337807793 0.538131505 0.1190769232
0.6872645669 0.5434603547 0.1238457162
0.8118296356 0.5243647935 0.1293859923
0.8491585379 0.4709135303 0.1272823764
0.8447990645 0.4099564057 0.1217655895
0.8306390503 0.3544318403 0.1172394051
0.8236003784 0.3191026725 0.1210462464
0.8346950312 0.2945671968 0.157688586
0.8528494537 0.2966865993 0.2907098829
0.8659453797 0.3449090714 0.4595255372
0.8819797763 0.4263384559 0.6023195522
0.8993427297 0.5342899849 0.7342266827
0.9097670336 0.6455487998 0.827801438
0.9031857031 0.7461895447 0.8642959308
0.1397791978 0.491506404 0.1251956354
0.1441903154 0.4945941471 0.1218732667
0.1489916044 0.4978031396 0.1180331489
0.1563269022 0.5007902295 0.1155106599
0.166526865 0.5035299627 0.1151045074
0.1789499744 0.506498603 0.1155825936
0.1964528693 0.5107799702 0.1162620649
0.2225188164 0.5173066497 0.1173056526
0.2609200332 0.5269814849 0.118850914
0.3183785749 0.5415268963 0.1212106821
0.4005864078 0.561404937 0.124508952
0.5230059489 0.5885083579 0.1295738498
0.6460061331 0.6097370562 0.1349580148
0.7817567267 0.6208911322 0.1416028201
0.8689058071 0.6015499293 0.1444073973
0.8858941215 0.5571970167 0.1407249729
0.8782169065 0.5044549438 0.1357821771
0.8700305391 0.4612744991 0.1369647728
0.8717316932 0.4267205945 0.1633486819
0.8899304038 0.4124948325 0.2719217768
0.8898368384 0.4381371931 0.4437334632
0.8957755854 0.4899306582 0.5875208123
0.9061988806 0.574724138 0.7215217888
0.9109475501 0.664248725 0.8198025681
0.9018284095 0.7546360992 0.860891345
0.3265443619 0.5586244554 0.1247466618
0.3310836951 0.5601115759 0.1250081122
0.3356398941 0.5615804572 0.1252772496
0.3404145188 0.5630983151 0.1255460489
0.3449864932 0.5645407056 0.1258114165
0.3500026418 0.5661189646 0.1260862866
0.3576218834 0.5684915741 0.1265068294
0.3695974696 0.5721784956 0.1271777453
0.3885625499 0.5779143534 0.1282215517
0.4197723275 0.5870899753 0.1299104572
0.4729765755 0.6021121251 0.1327655249
0.5441297901 0.620470309 0.1365030268
0.6339665217 0.6423423494 0.1416492832
0.7480633291 0.6652704214 0.1486028548
0.857665983 0.680319923 0.1558544491
0.9047822491 0.6671680063 0.1570231377
0.9105334543 0.6334504215 0.1541217396
0.9064051938 0.6000485363 0.1546192149
0.9050501602 0.5691333941 0.1739658574
0.9164198086 0.5521543042 0.2592147784
0.9146596532 0.5578194025 0.4276644726
0.9127859688 0.5821453663 0.5761595964
0.913743886 0.6296911943 0.7046404857
0.9116802044 0.6934811391 0.8082798526
0.8991903983 0.7680148302 0.8562203413
0.4871450077 0.6157789701 0.1356378719
0.4899463867 0.6167253672 0.1358361642
0.4927152425 0.6176594938 0.1360241491
0.4955472735 0.6186080328 0.1362147284
0.4983715145 0.6195495994 0.1364099918
0.5013368985 0.6205336154 0.1366063527
0.5058172198 0.6219939036 0.1369106792
0.5127440793 0.6242238211 0.1373773989
0.5224236886 0.6272668391 0.1380136109
0.537361543 0.6317980578 0.1389755876
0.5588915144 0.6381692731 0.1403645734
0.5944522246 0.6485288763 0.1426950237
0.6554857686 0.6658772713 0.1469305022
0.7369772101 0.6874077998 0.1528593024
0.8302507511 0.7094244248 0.1599212764
0.8992880008 0.7195274092 0.1646986283
0.9229892476 0.7170085155 0.1669328361
0.9263288156 0.7044570973 0.170019947
0.9269924176 0.6924976555 0.1875022186
0.9318353048 0.6812419146 0.2544521231
0.9312698712 0.6765776974 0.4086537701
0.9242375087 0.6789491418 0.5583102834
0.9183561925 0.7005557186 0.6839169313
0.9089409606 0.7423039233 0.7911454873
0.8940968363 0.7883618322 0.8489923823
0.6101897991 0.6580559019 0.1447621359
0.611405646 0.6584855364 0.1448598659
0.6126286589 0.6589277494 0.1449627804
0.6138800467 0.6593793502 0.1450699569
0.6151743625 0.6598344441 0.1451799918
0.6166263928 0.6603365649 0.1452996227
0.6188489507 0.6611082825 0.145475297
0.6225208877 0.662354424 0.1457770185
0.6282246342 0.6642663425 0.146232938
0.6367092146 0.6671087501 0.1469207182
0.6504300013 0.671719925 0.1480551654
0.671752658 0.6788956481 0.1498655642
0.7039084269 0.6894117401 0.1526020384
0.7573725839 0.7055560097 0.1570462718
0.8220400697 0.7241684381 0.1624883507
0.8861314231 0.7403801334 0.1676738571
0.9206341972 0.7497247809 0.1716656837
0.930536359 0.7549478028 0.1778245197
0.9322188128 0.7616150696 0.1963249683
0.9326036928 0.7706908979 0.2536746492
0.9304369178 0.7746287297 0.3833944969
0.9217261492 0.774614378 0.5343899449
0.9123163285 0.7780164728 0.6573199703
0.8995353357 0.7932313448 0.7692481879
0.8841297178 0.8183830073 0.8369078953
0.719567957 0.6948449702 0.1538231316
0.7203089229 0.6951345794 0.1539009294
0.7210554494 0.6954355628 0.1539822141
0.721787699 0.6957297479 0.1540622958
0.7225434734 0.6960394622 0.1541412991
0.7233908861 0.696380185 0.1542271695
0.7246591555 0.6968788823 0.1543541114
0.726600124 0.6976291858 0.1545482844
0.7296057587 0.6987702207 0.1548490652
0.7343007849 0.7005482686 0.1553208119
0.741769114 0.7032923749 0.1560568055
0.7532946017 0.7074907916 0.1571752826
0.7716157877 0.713995168 0.1589556166
0.7973587379 0.7230279016 0.161422652
0.8382547048 0.7365342381 0.165242919
0.8825948186 0.7509149023 0.1694948301
0.9148498804 0.7634339161 0.1740606478
0.92918078 0.7732939168 0.1808385696
0.9315745074 0.7875761036 0.2024743353
0.929323771 0.8032980805 0.2578620213
0.9217248168 0.8188597046 0.3769752226
0.9097954232 0.8274369057 0.5166639055
0.8980654329 0.8312551378 0.6371804965
0.8855968198 0.8354136398 0.7478933903
0.8742998349 0.8421735784 0.8231766348
0.8098566215 0.7244732559 0.1616844226
0.8102582551 0.7246854695 0.1617378758
0.8106614858 0.7249038833 0.161792853
0.8110735312 0.7251230478 0.1618481583
0.8114700889 0.7253321936 0.1619010186
0.8118946613 0.7255552302 0.1619588285
0.8125239078 0.7258776006 0.1620430477
0.8134841369 0.7263537565 0.1621681013
0.8149643526 0.7270844479 0.1623609182
0.8172574689 0.7281458498 0.1626434357
0.8208060073 0.7296491772 0.1630414924
0.8266156781 0.7319601374 0.1636627791
0.8360580592 0.7357624419 0.1646720178
0.8501001677 0.7417490317 0.1662939106
0.8685274326 0.7493623475 0.1684015939
0.8916812756 0.7590708413 0.1713117201
0.9134243102 0.7703565551 0.1757037135
0.9266567684 0.7817572739 0.1836661618
0.9302819514 0.7963850348 0.2057180518
0.9270917823 0.8148506052 0.2669118291
0.9178411022 0.8316559701 0.3809068357
0.9045081559 0.8425791619 0.511730367
0.8914379752 0.8484431743 0.6282102478
0.8789166041 0.8517148006 0.7350182426
0.8690838316 0.8538178685 0.8129013203
0.8767808693 0.7466710177 0.1675179977
0.876935749 0.7467947063 0.1675473728
0.8770914889 0.7469197155 0.1675770422
0.8772486931 0.7470436066 0.1676064835
0.8774097951 0.7471753653 0.1676376584
0.8775888371 0.7473244724 0.1676747684
0.8778499789 0.7475365871 0.1677280241
0.8782419405 0.7478452335 0.1678056248
0.878798007 0.7482861093 0.1679163072
0.8795803014 0.7489280633 0.1680768869
0.8807893602 0.7498886061 0.1683177416
0.8826841113 0.7512863491 0.1686756172
0.8857334267 0.7532036981 0.1691719954
0.8907160881 0.7562666733 0.1700204592
0.8976701033 0.7610583993 0.1714082501
0.907085548 0.7674434326 0.1736151569
0.9174962858 0.7764322936 0.1779639421
0.9259122122 0.7874403444 0.1874083689
0.9285893848 0.8026906271 0.2145427924
0.9255399199 0.8197758133 0.2763274345
0.9152390602 0.8367328967 0.3952088504
0.9021298291 0.8470707877 0.5178004929
0.8891835214 0.8531707217 0.6281108103
0.8766562565 0.8567924542 0.7307679571
0.867036597 0.8583542955 0.8078128121
0.9108092163 0.761724206 0.171305875
0.9108627228 0.7618195612 0.1713312579
0.9109165127 0.7619149739 0.171356667
0.9109705336 0.762009342 0.1713818065
0.9110247087 0.7621015696 0.1714063817
0.91108411 0.7621996233 0.1714325136
0.9111710162 0.7623396328 0.1714698382
0.9113011004 0.7625430669 0.1715240918
0.9114992328 0.762867516 0.1716106832
0.9117980755 0.7633396163 0.1717368004
0.9122494632 0.7640058805 0.1719262242
0.9129326647 0.7648854619 0.1722108867
0.9139822512 0.7662811351 0.1726677419
0.9154292637 0.7682803379 0.1733378416
0.9174945755 0.7714962401 0.1745582553
0.9205268029 0.7765402804 0.1770890017
0.9239631976 0.7834213316 0.182054017
0.9269327372 0.793898528 0.1947649151
0.9272590152 0.8085803779 0.2278482884
0.9226948608 0.8257651574 0.3030338127
0.913401464 0.8391976145 0.4083307843
0.8998548558 0.8492400814 0.5327893503
0.8877348521 0.8547379396 0.6348048292
0.8757277258 0.8581993875 0.7321739646
0.8663983464 0.8596691053 0.8066099548
0.9259720209 0.7742094559 0.1752445588
0.9259860086 0.7742840239 0.1752809277
0.926000022 0.7743582676 0.1753171775
0.926014066 0.7744317803 0.1753531038
0.926028146 0.7745041618 0.1753885051
0.9260435889 0.7745815476 0.1754263777
0.9260661716 0.7746917493 0.1754803589
0.9261001787 0.7748525695 0.175559243
0.926151119 0.7750870704 0.1756745484
0.9262284029 0.7754820057 0.1758700522
0.9263442388 0.7760490028 0.1761525734
0.9265190551 0.7768861987 0.1765740399
0.9267497083 0.7781247784 0.1772596105
0.9270171549 0.7798334521 0.1783609952
0.9274105575 0.7822649223 0.1801659331
0.927970989 0.7859199426 0.1834082827
0.9283317595 0.7923685231 0.1912656263
0.9279360379 0.8024471501 0.2100420961
0.925899687 0.8155604239 0.2504521409
0.9195014856 0.8313090756 0.3367620193
0.9098218484 0.8425853037 0.4395384037
0.8981871668 0.8504300027 0.5450512523
0.8858141515 0.855751295 0.6486984077
0.8744645484 0.8587918233 0.7405956872
0.8658360383 0.8600843474 0.8092714591
0.9308588225 0.787777603 0.1846652316
0.9308553313 0.7878439296 0.184740257
0.9308518608 0.7879099437 0.1848150617
0.9308484288 0.7879754789 0.1848894531
0.9308450532 0.7880403705 0.184963239
0.9308414479 0.7881103954 0.1850429992
0.9308363965 0.7882103179 0.1851570557
0.9308278053 0.7883691458 0.1853390575
0.9308133054 0.7886209392 0.1856293131
0.9307923947 0.7889857073 0.1860532957
0.9307623897 0.7895118442 0.1866692107
0.9307198264 0.7902687007 0.1875640812
0.9306406877 0.7914081452 0.1890678885
0.9304971115 0.7931181532 0.191558613
0.930189607 0.7958528979 0.1959177905
0.9296899656 0.7996384504 0.2029567693
0.9287888057 0.8052277075 0.2158245391
0.9268887214 0.8138833656 0.2428897966
0.9228438366 0.8252472433 0.296027951
0.9156316958 0.8367334009 0.379040907
0.9057132858 0.8458204462 0.4761943286
