src-tauri/resources/film_luts/K-Portra 400.cube
# ============================================================================
# spektrafilm LUT
# Bundle:  spektrafilm_v034_portra400_portraendura_1lut_vlog_srgb  (1lut, 25^3)
# Film:    kodak_portra_400
# Print:   kodak_portra_endura
# Input:   Panasonic V-Log  (cctf on)
# Output:  sRGB  (cctf on)
# Created: 2026-08-17T16:43:45Z
# spektrafilm: 0.3.4
# Project: https://github.com/andreavolpato/spektrafilm
#
# Copyright (c) 2026 Andrea Volpato. Generated by spektrafilm. Licensed under CC BY-SA 4.0.
#
# License: spektrafilm LUT by Andrea Volpato, licensed under CC BY-SA 4.0.
#          Full text and attribution requirements in SPEKTRAFILM_LICENSE.txt
#          (shipped in this bundle); also at
#          https://github.com/andreavolpato/spektrafilm/blob/main/SPEKTRAFILM_LICENSE.txt.
#
# Citation: If you use this LUT in your work, please cite the spektrafilm
#           project: https://github.com/andreavolpato/spektrafilm, see
#           CITATION.cff for details.
#
# Notes: Generated by the spektrafilm LUT bundle builder. Apply with trilinear
#        or tetrahedral interpolation in your host (DaVinci Resolve, Nuke,
#        OCIO-aware DCC). The input and output color spaces are declared in
#        bundle.json; do NOT apply this LUT to a signal in a different color
#        space.
#
# File: lut_v034_portra400_portraendura.cube  (see sibling bundle.json for full metadata)
# ============================================================================
TITLE "v034_portra400_portraendura"
DOMAIN_MIN 0 0 0
DOMAIN_MAX 1 1 1
LUT_3D_SIZE 25
0.04965899563 0.05328929679 0.06567385761
0.04965899563 0.05328929679 0.06567385761
0.04965899563 0.05328929679 0.06567385761
0.04965899563 0.05328929679 0.06567385761
0.04965899563 0.05328929679 0.06567385761
0.04965899563 0.05328929679 0.06567385761
0.04965899563 0.05328929679 0.06567385761
0.04965899563 0.05328929679 0.06567385761
0.03273622934 0.114411949 0.07743006268
0.2936191353 0.08896345986 0.154905302
0.3886448053 0.1103415789 0.3380740378
0.5038657913 0.1291262178 0.4049244957
0.5899423627 0.1437539574 0.4424127191
0.6434894763 0.1534674643 0.4667593421
0.6811423403 0.1594789501 0.468331371
0.7029356484 0.1636837299 0.4749990282
0.7170204376 0.1667201718 0.4776561384
0.7264193801 0.1700706247 0.4872865644
0.735288963 0.1762090316 0.5147129424
0.7446466607 0.185963184 0.5614246093
0.7607137481 0.2041041385 0.6173406989
0.7876884219 0.2381177756 0.6780745334
0.8279443776 0.3024979022 0.7461030694
0.8680581383 0.3976002558 0.8042655214
0.8900332385 0.5173275745 0.8404875025
0.04965899563 0.05328929679 0.06567385761
0.04965899563 0.05328929679 0.06567385761
0.04965899563 0.05328929679 0.06567385761
0.04965899563 0.05328929679 0.06567385761
0.04965899563 0.05328929679 0.06567385761
0.04965899563 0.05328929679 0.06567385761
0.04965899563 0.05328929679 0.06567385761
0.04919899321 0.05743000685 0.06659108083
0.09950503442 0.06322166321 0.06781287216
0.2939824428 0.09368459281 0.224862448
0.4083202046 0.1123103616 0.3332824075
0.5157213596 0.1298459868 0.3929607936
0.598026269 0.1436302518 0.4254467037
0.6488471734 0.152021969 0.4364904566
0.6834584854 0.15814464 0.4462946855
0.7042831316 0.1618615377 0.4469369563
0.7178186735 0.165032508 0.4524702317
0.726931903 0.1689269107 0.4697044198
0.7357478515 0.1755799363 0.5037041458
0.745123873 0.1855579511 0.5526990119
0.7612306616 0.2042451815 0.6137778482
0.7882327059 0.2386300041 0.6767514886
0.8283122667 0.3030857592 0.7456840393
0.8682685485 0.398228256 0.8042529788
0.8901141297 0.5178338015 0.8405265793
0.04965899563 0.05328929679 0.06567385761
0.04965899563 0.05328929679 0.06567385761
0.04965899563 0.05328929679 0.06567385761
0.04965899563 0.05328929679 0.06567385761
0.04965899563 0.05328929679 0.06567385761
0.04965899563 0.05328929679 0.06567385761
0.04965899563 0.05328929679 0.06567385761
0.04550573561 0.07524269616 0.07014523187
0.2357534489 0.07588836972 0.07617176487
0.3101192317 0.09660109793 0.2485610222
0.4256236539 0.1135490775 0.3206799654
0.527734581 0.1295260769 0.3649407339
0.6049698575 0.1426270322 0.3974451298
0.6545554057 0.1503332269 0.4005356555
0.6857042058 0.1560920492 0.4123506853
0.7059455625 0.1598552923 0.4143248784
0.7187419992 0.1632282869 0.4241072755
0.7275865713 0.1676929682 0.4494163485
0.7363029018 0.1749460941 0.4916839382
0.7456498884 0.1852171011 0.5442466233
0.7617859917 0.2044017626 0.6100170528
0.7888037972 0.2391808687 0.6754621133
0.8286884918 0.3036883791 0.7452464975
0.8684816856 0.3988673294 0.8042434505
0.8901922889 0.5183232144 0.8405618954
0.04965899563 0.05328929679 0.06567385761
0.04965899563 0.05328929679 0.06567385761
0.04965899563 0.05328929679 0.06567385761
0.04965899563 0.05328929679 0.06567385761
0.04965899563 0.05328929679 0.06567385761
0.04965899563 0.05328929679 0.06567385761
0.04962564623 0.05445455185 0.06593681828
0.06980490803 0.05751202916 0.06673012476
0.225099077 0.082898653 0.1532155737
0.3383741038 0.09925201483 0.245982777
0.4459986739 0.1149016974 0.3038767225
0.5448735544 0.1301919037 0.3406050764
0.6156406737 0.1412679341 0.3544260251
0.6599477871 0.1488796412 0.3676751825
0.6879955939 0.1537332222 0.3719937562
0.7075236321 0.1577584326 0.3795593994
0.7196690328 0.1616479707 0.3976745632
0.7282835467 0.1665466614 0.4292123386
0.736932 0.174350462 0.4793209273
0.7462244682 0.1848995328 0.5355661046
0.7623726787 0.2045970063 0.6062967413
0.7893952272 0.2397582131 0.67418996
0.8290730389 0.3043087509 0.7448164995
0.8686975011 0.3995174367 0.8042369087
0.8902700679 0.5188108237 0.8405967433
0.04965899563 0.05328929679 0.06567385761
0.04965899563 0.05328929679 0.06567385761
0.04965899563 0.05328929679 0.06567385761
0.04965899563 0.05328929679 0.06567385761
0.04965899563 0.05328929679 0.06567385761
0.04965899563 0.05328929679 0.06567385761
0.04862043494 0.06122725815 0.06739864449
0.154547749 0.06946505996 0.08459382895
0.250294271 0.08642981233 0.1715951506
0.3618721008 0.1006160691 0.2293028307
0.4690548352 0.115030283 0.2627221506
0.5619432221 0.129208068 0.2902049663
0.6260484693 0.1395074915 0.3043607583
0.6645197113 0.146005537 0.3126351269
0.6908930672 0.1509525384 0.3221254506
0.7090382121 0.1553033704 0.3378008805
0.7205663109 0.160076912 0.3699675495
0.7290411896 0.1655583284 0.4101957048
0.7376673903 0.1737350059 0.4656092822
0.7468465507 0.1846385037 0.5270333022
0.7629903304 0.2048176608 0.6024561588
0.7900263534 0.2403665808 0.6727180649
0.8294657686 0.3049468132 0.7443940432
0.8689160229 0.400178897 0.8042029326
0.8903486941 0.5193047759 0.8406350075
0.04965899563 0.05328929679 0.06567385761
0.04965899563 0.05328929679 0.06567385761
0.04965899563 0.05328929679 0.06567385761
0.04965899563 0.05328929679 0.06567385761
0.04965899563 0.05328929679 0.06567385761
0.0495731143 0.05491946289 0.06604057203
0.1050752771 0.06240534751 0.07482460372
0.1909308646 0.07612569739 0.1112694308
0.2914754167 0.08804009328 0.1459420524
0.3977256952 0.1007016602 0.1751158415
0.5023648468 0.1146055349 0.1939804934
0.5846696698 0.1275219426 0.2166103763
0.6350397766 0.1357895026 0.2268431461
0.6703964684 0.1422995679 0.2403677455
0.6938081817 0.1476971104 0.2631745264
0.7102923649 0.152800896 0.2937050354
0.721517138 0.1582720271 0.3370304081
0.7300370525 0.1645989452 0.3893261849
0.7385626214 0.1731222761 0.4502442465
0.7475472335 0.1844611776 0.5186844324
0.7637089316 0.2050588427 0.5978348295
0.7907561732 0.2410870219 0.6711284086
0.8299099323 0.3056572999 0.7437933683
0.8691556351 0.4009080756 0.8041341552
0.8904447627 0.5199105512 0.8406923354
0.04965899563 0.05328929679 0.06567385761
0.04965899563 0.05328929679 0.06567385761
0.04965899563 0.05328929679 0.06567385761
0.05174752877 0.05358477107 0.0658013079
0.08261383188 0.0577357263 0.06683815581
0.1482516409 0.06567587697 0.06771685645
0.2342676343 0.07398203669 0.06738082306
0.319767973 0.08207288016 0.06773427939
0.4018043602 0.0912505975 0.07000576525
0.484440832 0.1023076295 0.07450421502
0.5551380962 0.1130603629 0.08072259465
0.6062561464 0.1216034187 0.08847752123
0.6441220789 0.128809217 0.1021646641
0.6736461825 0.1356558106 0.1286123957
0.6949632798 0.1424293912 0.1740669323
0.7116338538 0.1494691117 0.2320489639
0.7227625061 0.1559193419 0.2917298446
0.731741591 0.1632978226 0.3573426418
0.7399525615 0.1724233649 0.4292456319
0.7487831817 0.1843927942 0.5066768836
0.7648383089 0.2055083273 0.591170978
0.7918466516 0.2421820148 0.6688528209
0.8305703353 0.3067197333 0.7428964698
0.8694294098 0.4020798957 0.8040096255
0.8905872764 0.5208113441 0.8407796508
0.04965899563 0.05328929679 0.06567385761
0.04928508737 0.05674861731 0.06644289575
0.04585962379 0.07382339943 0.06988007067
0.0438680201 0.0817839769 0.07133874022
0.05052297675 0.07447296291 0.07003740111
0.07081558101 0.07069693195 0.06936647942
0.1319845164 0.07373832717 0.06935630426
0.2299836941 0.08036679883 0.06807009394
0.3309700671 0.08720883357 0.06755248178
0.4290102776 0.09727574552 0.06999637529
0.521355667 0.109365266 0.07486524938
0.5932692602 0.1201645078 0.08043890521
0.6387882154 0.1276735804 0.08555359087
0.6707548231 0.1334799249 0.09233669492
0.6943935972 0.1389595999 0.1094206779
0.7126303294 0.1455691307 0.1563803055
0.7248629394 0.1532964562 0.2325012945
0.734452156 0.1619233202 0.3137309005
0.7422653964 0.1718429799 0.4005480603
0.7508944079 0.1844744422 0.4876238286
0.7667306158 0.2062167275 0.5792367611
0.7936305762 0.2440250643 0.6653526404
0.8316333072 0.308473168 0.7416956617
0.8698105951 0.4039295642 0.8038705978
0.8908025495 0.5221767313 0.8409146456
0.03157552875 0.1185300209 0.0783313027
0.02592631703 0.1456191619 0.08541220038
0.02385790706 0.166929977 0.09217993924
0.02398166447 0.1711175845 0.0934811458
0.02582542632 0.1654185178 0.09102269043
0.03393421723 0.156260261 0.08641734683
0.07362573473 0.1453509351 0.07987111497
0.1779562203 0.1384318405 0.076509949
0.3044262481 0.1312125916 0.07217457656
0.4170999779 0.1276255095 0.07134752542
0.5156290636 0.1282370814 0.07457227915
0.5945621615 0.1325752397 0.079794153
0.6440743811 0.1360848172 0.08422017599
0.6756710054 0.1388968356 0.08847219168
0.6985065901 0.1415191177 0.09444727581
0.7165283065 0.1455844061 0.1132391697
0.7295406904 0.1524462332 0.1729351006
0.7388095854 0.1615352742 0.2660979793
0.7461112025 0.1715230897 0.3583490529
0.7546601219 0.1850870711 0.4573775258
0.7700157566 0.2077328999 0.560714858
0.7965065784 0.2470335388 0.6593831008
0.8333538687 0.3113723116 0.7399142739
0.870414967 0.4068842037 0.8037145938
0.8911302304 0.5242626797 0.8411006907
0.02513573649 0.2271311124 0.1135736142
0.0262879623 0.2429989295 0.119534391
0.02724437498 0.2521213052 0.1229338604
0.02780270193 0.2540537874 0.1233645785
0.02848338991 0.2514642993 0.1217003174
0.03060525129 0.2456191185 0.1176488897
0.04145902278 0.2370273925 0.1082005588
0.1074182861 0.2330506576 0.08545367791
0.2620992274 0.2306529485 0.08166768855
0.4051798649 0.2249285134 0.08076423588
0.5260131084 0.2129747317 0.0839049847
0.6198739212 0.20024506 0.08854263071
0.674708712 0.1818090448 0.09124726379
0.6983868149 0.1667412048 0.09231259286
0.7143194181 0.1581980743 0.09421548929
0.7283407083 0.1537480188 0.09949052659
0.7387943984 0.155861594 0.1290059005
0.7467125456 0.1634252602 0.2101038276
0.7532058291 0.1739151512 0.3157167597
0.7619447766 0.188797467 0.4248677792
0.7758223135 0.2115218125 0.5369348514
0.8013032778 0.2522611799 0.649596048
0.8361266412 0.3161573722 0.7370033398
0.8713562102 0.4115184099 0.8034552353
0.8916364752 0.5275039114 0.8413405724
0.03703575505 0.3175703321 0.1466677018
0.03825401062 0.324147721 0.149086222
0.03914464241 0.3276736398 0.1501689129
0.03996570565 0.3286563771 0.1499949544
0.0410609211 0.3281785515 0.1488492684
0.04264961662 0.3259764064 0.1463912561
0.04841494672 0.3217776022 0.1397171711
0.07438974445 0.325682464 0.1226479943
0.1936083165 0.3289107811 0.09367265169
0.3581516894 0.3297191531 0.09133334621
0.508025324 0.3234527956 0.09339210966
0.6351418934 0.3077022796 0.09963218675
0.7126260086 0.2836273806 0.1040032249
0.7427194886 0.2488181129 0.104061575
0.7512094803 0.2165965938 0.1028784065
0.7542728823 0.1947232185 0.1036020858
0.7599976975 0.1766246242 0.1117982347
0.7648503139 0.1755009037 0.1683449787
0.7684771061 0.1841664707 0.2721297398
0.7747951138 0.1981723467 0.3873102867
0.7869059409 0.2211155478 0.5081806877
0.81038199 0.2632994813 0.6351433535
0.840701207 0.3243655754 0.7318374401
0.8728617891 0.4190061623 0.8028663085
0.8924219256 0.5326030676 0.8417564306
0.05138933401 0.3756063964 0.1651335535
0.05205561715 0.3772479956 0.1654267095
0.05282483043 0.3785066898 0.1653921403
0.0539274706 0.379553703 0.1649281821
0.05564836568 0.380757644 0.163991994
0.05836865913 0.3825852249 0.1624171144
0.06406950946 0.3856823776 0.1587903021
0.08175576006 0.3938536922 0.1471410497
0.142003821 0.4135833603 0.1074438308
0.3160955805 0.4289728138 0.1072082265
0.4774866221 0.4372185716 0.1078159529
0.6182172007 0.4253122636 0.110537638
0.729084927 0.4027275635 0.1161798311
0.7809900471 0.3635977554 0.1177718588
0.795615671 0.3216579555 0.1163859985
0.796421866 0.2838859726 0.1152291848
0.7934941447 0.2511999492 0.1182376823
0.7990828156 0.2202272185 0.1410868427
0.7975812971 0.2123259676 0.2278324131
0.7981491332 0.2210165105 0.3430789835
0.8057999817 0.2415678264 0.4735098594
0.8242335335 0.2819823458 0.6111089516
0.8488680211 0.3404153476 0.7248314481
0.8752542772 0.4311752922 0.8011052094
0.8936512661 0.5407986112 0.8422601096
0.06986669324 0.4189826979 0.1714330443
0.07093132451 0.4203564256 0.1711300513
0.07228358573 0.4218170835 0.1705996934
0.07425202712 0.4235511395 0.1696190364
0.07662327077 0.4254751478 0.1682985334
0.08043650626 0.4284084048 0.166191174
0.08774804615 0.4336409128 0.1619202011
0.1041511831 0.4439492245 0.1515365468
0.1455629924 0.4641935673 0.1226832859
0.2859441062 0.4906115961 0.1190369411
0.4309978123 0.5127673402 0.121687984
0.5819025357 0.5244246583 0.1244335545
0.7210733782 0.5201076642 0.1291739291
0.8052246495 0.4919397175 0.1322559811
0.8323801039 0.4456749014 0.1308092747
0.8370120142 0.3991817495 0.1288128972
0.8328528656 0.3571100189 0.1293929542
0.832119927 0.3229772464 0.142937714
0.8401511757 0.2827063305 0.1937208719
0.8354360976 0.2728321101 0.3083569862
0.8347472727 0.2825884548 0.4335448267
0.8437677448 0.3139614187 0.5807092011
0.8611615491 0.3683029453 0.7139380297
0.8790803783 0.4509278041 0.7972946278
0.8955218203 0.5537478687 0.8426676783
0.1070894388 0.4710385493 0.1627396971
0.1092273967 0.4728471035 0.1615330314
0.111929919 0.4749744493 0.1599621021
0.1151763435 0.4773864879 0.1579382818
0.118925268 0.4800120475 0.1555532095
0.1238232572 0.4833037876 0.1523197166
0.1319473315 0.4883847856 0.1467995921
0.1471486907 0.4969945704 0.1358196568
0.1931345425 0.5105809521 0.1241467035
0.2912343866 0.5305017647 0.126924753
0.4055508806 0.553683703 0.1302604331
0.5480113299 0.578890193 0.1347169456
0.688268915 0.5988710108 0.1407093795
0.8062413764 0.6000238615 0.1463554022
0.8575060795 0.5705888588 0.1464963937
0.8732875007 0.5325652595 0.144870206
0.8714000499 0.4875342898 0.1437117187
0.8676351463 0.4454153464 0.1520602679
0.8697135292 0.4014896867 0.189419624
0.8752790377 0.3673102015 0.2768475965
0.8686021304 0.3581561619 0.3984082205
0.867493536 0.3707621921 0.536051218
0.8735824164 0.41377858 0.6895251719
0.8848260186 0.4813541018 0.791021952
0.898375739 0.5751915445 0.8435278698
0.1875179165 0.5329857823 0.1287080937
0.1933057978 0.5343834487 0.128927174
0.1994879523 0.5358688361 0.1291636419
0.2063836701 0.5375267568 0.1294333991
0.2136662367 0.5392725935 0.1297134952
0.2221934601 0.5413307173 0.1300433758
0.2354715641 0.5445423497 0.1305486745
0.2567946597 0.549739326 0.1313575879
0.2894829688 0.5578064666 0.1326350566
0.33965852 0.5701375296 0.1345892773
0.4134452621 0.5872598124 0.1373699176
0.5278342313 0.6135101282 0.1421106502
0.6538892285 0.6388190165 0.1479920682
0.7784385754 0.6563126215 0.1546377145
0.8638999154 0.6603842588 0.1597065254
0.8954586224 0.6449856769 0.1607157022
0.9019689821 0.614949931 0.1601230671
0.900637535 0.5824555146 0.1657331624
0.8992423219 0.5400852073 0.191782805
0.9020746843 0.4948419753 0.2581555476
0.8946370663 0.4637421352 0.373874736
0.8881068813 0.4566721085 0.5054179261
0.8878095255 0.4785453642 0.6506528686
0.8935410439 0.5301304071 0.7791622263
0.9019086508 0.6069134735 0.8443992004
0.3392783107 0.5857163484 0.1379805747
0.3422358179 0.5866069741 0.1381334089
0.3453669717 0.587543325 0.1383002149
0.3487429847 0.5885552209 0.138479966
0.3521755164 0.5895697876 0.1386549982
0.3561355378 0.5907290693 0.1388617238
0.3621737418 0.5924775337 0.139162902
0.3719995395 0.5953212029 0.1396758117
0.3877976197 0.5998530927 0.1404763551
0.4132108808 0.6070448513 0.1417622983
0.4576172131 0.6195135679 0.1440580225
0.5357492928 0.6406212178 0.148161337
0.6318775495 0.6653250032 0.1536419929
0.7525907661 0.6904662813 0.1606434042
0.8506115641 0.7061926595 0.1668301465
0.8984376557 0.7058790088 0.1697255499
0.9162441384 0.7015549649 0.1726964986
0.9205903767 0.6906304828 0.179414889
0.9211632801 0.6697218826 0.1998378192
0.9231881685 0.6367656146 0.2532685947
0.9200928386 0.5954706108 0.3567770684
0.9109579929 0.5705266766 0.4785248627
0.9054795262 0.5716924146 0.620839099
0.904215814 0.6001417621 0.7590248063
0.9052642558 0.6517540951 0.8396782334
0.4597259707 0.6309444245 0.1466727571
0.4616076796 0.6315491552 0.1467907408
0.4636255006 0.6322148916 0.1469265179
0.4657501289 0.6329220485 0.1470700171
0.4680929602 0.6336798695 0.1472195196
0.4708360488 0.6345579876 0.147401268
0.4749884593 0.6358921737 0.1476742589
0.4816376559 0.6379931232 0.1481017483
0.4920215761 0.6412226832 0.1487550643
0.5087842082 0.6463133158 0.1497738213
0.5358138126 0.6544678413 0.1514658378
0.5753715295 0.6663249341 0.1540214137
0.6394193851 0.6846602436 0.1582480108
0.7334148813 0.7095249087 0.1645817021
0.8311991817 0.7329195504 0.1714332776
0.8917233705 0.7420726914 0.1754220901
0.9177098818 0.7444321446 0.1787897212
0.9255220216 0.7459098966 0.1866965613
0.927676488 0.747359159 0.2059839914
0.9291660594 0.7404618233 0.251737155
0.9308491574 0.7190432861 0.3372193276
0.9259540578 0.6944482662 0.4535702799
0.9183061977 0.6755908624 0.5889249471
0.9114425776 0.679651754 0.7285716566
0.9052350409 0.7112822635 0.82732039
0.5766794004 0.6734456215 0.1557563122
0.5778116788 0.6738355905 0.1558447295
0.5790062659 0.6742618807 0.1559449743
0.5802348037 0.6747004238 0.1560512858
0.5814792624 0.6751404788 0.1561600137
0.5828667142 0.6756267845 0.1562767059
0.5848527831 0.6763196615 0.1564409301
0.5878766479 0.6773662429 0.1566957631
0.592710515 0.6790010453 0.1570835089
0.6004570416 0.6815531705 0.1576867338
0.6145538856 0.6860161768 0.1587308662
0.6381186822 0.6933459908 0.1604948654
0.6786625447 0.7058145368 0.1636213417
0.7397984624 0.7237150014 0.1682842661
0.8150517601 0.7440018116 0.1738868795
0.8810544369 0.7597324419 0.1787602314
0.913749927 0.7686288212 0.1832122363
0.9253842582 0.7744756342 0.1906186209
0.9275080618 0.7818091983 0.2102741969
0.9269650791 0.7872816418 0.2521362758
0.9253159293 0.7895991778 0.3264131709
0.9228723178 0.7812387548 0.4258268675
0.9157664563 0.7722774264 0.5591826915
0.9072761265 0.7659441988 0.6938355195
0.8970089139 0.7740536629 0.8056934792
0.6794049223 0.7105843733 0.1649239754
0.6802008269 0.710887512 0.1650074677
0.6810217212 0.71120743 0.1650971137
0.6818554614 0.7115308838 0.1651882305
0.6826935588 0.7118489507 0.1652776949
0.6836192332 0.7121954434 0.1653754123
0.6849912554 0.7127019553 0.1655173009
0.6870832731 0.7134602304 0.1657196087
0.6903438153 0.7146217744 0.1660373693
0.6955470269 0.71641599 0.1665190591
0.7035426913 0.7191220891 0.1672685788
0.716080506 0.7231631124 0.1683823692
0.7375930563 0.7297830568 0.1701996476
0.7729223378 0.7402676008 0.1730984256
0.8186956595 0.7534520139 0.1768880115
0.8725023275 0.7676419986 0.1813213222
0.9076348663 0.7783802 0.1863512533
0.9229733058 0.7872247979 0.1948568788
0.926483365 0.795501539 0.2114396608
0.9247266787 0.8064570372 0.2531173226
0.9210101495 0.8145403257 0.3190836084
0.9154328477 0.8184883209 0.4094869583
0.9062218513 0.8207847534 0.5311419104
0.8949861211 0.8210886206 0.6618907176
0.8836577744 0.8222552925 0.7778002796
0.7730564279 0.7435011629 0.1741975582
0.7734941736 0.7436714758 0.1742559207
0.7739387667 0.7438457803 0.1743160956
0.7743898721 0.7440216083 0.1743767998
0.7748421292 0.7441944701 0.1744360767
0.7753386323 0.7443814872 0.1744999585
0.7760683874 0.7446527986 0.1745924637
0.7771715935 0.7450563084 0.1747299195
0.7788707068 0.7456641288 0.1749258408
0.7815233536 0.7465942776 0.1752253132
0.7857265894 0.7480089842 0.1756757834
0.7921553272 0.7501599807 0.1763795583
0.8013692566 0.7532478022 0.1773993579
0.8172281031 0.7581699677 0.1790296141
0.8434188705 0.7658977943 0.1817042286
0.8742301185 0.7749002744 0.1852682805
0.9025155736 0.7843093501 0.1907017929
0.919444087 0.7929783876 0.1998204637
0.9246952816 0.8022809041 0.2188478771
0.9237256431 0.8124255856 0.2541813743
0.918982497 0.8235190384 0.3188969307
0.9118555701 0.8319178589 0.4032043986
0.9014603235 0.8384849344 0.5120870355
0.8888890824 0.8422696055 0.6354781833
0.8761208524 0.8441230725 0.7541077506
0.8439739558 0.7690124543 0.1835199313
0.8441921899 0.7691106973 0.1835739331
0.8444121347 0.7692097808 0.1836284947
0.8446331832 0.7693084819 0.1836826627
0.8448547375 0.7694055997 0.1837354995
0.8450973296 0.7695096208 0.183791477
0.8454526725 0.7696598131 0.1838717936
0.8459863025 0.7698811831 0.1839892277
0.846793606 0.7702082053 0.1841610132
0.8480248439 0.7706909599 0.1844112831
0.8499448728 0.771422233 0.1847876013
0.8529873387 0.7725597931 0.1853627414
0.8574377297 0.7742521114 0.1862566001
0.8637640674 0.7764943052 0.1875407467
0.8733486373 0.779957444 0.189658562
0.8871577027 0.7852250018 0.1935591383
0.9028719722 0.7914168426 0.1993505594
0.9162692307 0.7986689063 0.2097111613
0.9224573417 0.8075489907 0.2314011316
0.9222070789 0.8167440964 0.267265558
0.9183964222 0.8256627166 0.3196120177
0.9106961938 0.8354509929 0.4035088995
0.9003239627 0.8433145346 0.5029094766
0.8875284957 0.8492817968 0.6164127737
0.8738152165 0.8528498984 0.733728741
0.8875524727 0.7885044569 0.1978047422
0.8876219303 0.7885595788 0.1978766477
0.8876916975 0.7886147454 0.1979486378
0.8877617277 0.7886695595 0.1980200784
0.8878319751 0.7887236285 0.19809034
0.8879089799 0.7887814382 0.1981650792
0.8880215939 0.7888640024 0.1982713272
0.8881902582 0.7889851712 0.1984267588
0.8884439945 0.7891628286 0.1986537996
0.8888285572 0.7894242364 0.1989866998
0.889416806 0.7898052874 0.199468507
0.8903360583 0.7903763383 0.2001888699
0.891802775 0.791208179 0.2012228721
0.8940661421 0.7924306477 0.2027696221
0.8971861633 0.7941182626 0.2050794747
0.9018575009 0.7970327284 0.2096768427
0.9081292693 0.8015759929 0.218305548
0.9149344368 0.807238988 0.2319346703
0.9197242672 0.8136760059 0.2531507784
0.9200571281 0.8210392155 0.2877016098
0.9163109256 0.8290977999 0.3406789845
0.9100894113 0.8365231472 0.4070567386
0.8997428034 0.8444621925 0.504322145
0.8875284988 0.8505608552 0.6102036655
0.8741550581 0.8547101881 0.721378835
0.9075618771 0.8062107885 0.2311860281
0.9075805395 0.8062488764 0.2312961127
0.9075992897 0.8062868708 0.2314060151
0.9076181517 0.80632463 0.231515288
0.9076371493 0.8063620133 0.2316234854
0.9076581052 0.8064022941 0.2317400342
0.9076890387 0.8064595542 0.2319055435
0.9077354884 0.8065444426 0.2321516213
0.9078050503 0.8066727132 0.2325261301
0.9079108992 0.8068596828 0.2330731897
0.9080735829 0.8071318124 0.2338722214
0.9082703489 0.8075195099 0.2350367694
0.9085701336 0.8080967944 0.2367962966
0.9090573896 0.8089166928 0.239330495
0.909875262 0.8100275991 0.2428592566
0.9111640318 0.8115440772 0.24790735
0.9129322685 0.8139240878 0.2565154338
0.9150250972 0.8174900213 0.2712919874
0.9167810117 0.821701528 0.2919730546
0.9163947491 0.8271466872 0.3256007582
0.9129963069 0.8332926751 0.374238442
0.9073465733 0.8391114179 0.4329362353
