src-tauri/resources/film_luts/K-Portra 400.cube
# ============================================================================
# spektrafilm LUT
# Bundle:  spektrafilm_v034_portra400_portraendura_1lut_vlog_srgb  (1lut, 25^3)
# Film:    kodak_portra_400
# Print:   kodak_portra_endura
# Input:   Panasonic V-Log  (cctf on)
# Output:  sRGB  (cctf on)
# Created: 2026-08-17T16:43:45Z
# spektrafilm: 0.3.4
# Project: https://github.com/andreavolpato/spektrafilm
#
# Copyright (c) 2026 Andrea Volpato. Generated by spektrafilm. Licensed under CC BY-SA 4.0.
#
# License: spektrafilm LUT by Andrea Volpato, licensed under CC BY-SA 4.0.
#          Full text and attribution requirements in SPEKTRAFILM_LICENSE.txt
#          (shipped in this bundle); also at
#          https://github.com/andreavolpato/spektrafilm/blob/main/SPEKTRAFILM_LICENSE.txt.
#
# Citation: If you use this LUT in your work, please cite the spektrafilm
#           project: https://github.com/andreavolpato/spektrafilm, see
#           CITATION.cff for details.
#
# Notes: Generated by the spektrafilm LUT bundle builder. Apply with trilinear
#        or tetrahedral interpolation in your host (DaVinci Resolve, Nuke,
#        OCIO-aware DCC). The input and output color spaces are declared in
#        bundle.json; do NOT apply this LUT to a signal in a different color
#        space.
#
# File: lut_v034_portra400_portraendura.cube  (see sibling bundle.json for full metadata)
# ============================================================================
TITLE "v034_portra400_portraendura"
DOMAIN_MIN 0 0 0
DOMAIN_MAX 1 1 1
LUT_3D_SIZE 5
0.04965899563 0.05328929679 0.06567385761
0.04965899563 0.05328929679 0.06567385761
0.5899423627 0.1437539574 0.4424127191
0.735288963 0.1762090316 0.5147129424
0.8900332385 0.5173275745 0.8404875025
0.04965899563 0.05328929679 0.06567385761
0.2342676343 0.07398203669 0.06738082306
0.6441220789 0.128809217 0.1021646641
0.7399525615 0.1724233649 0.4292456319
0.8905872764 0.5208113441 0.8407796508
0.06986669324 0.4189826979 0.1714330443
0.08774804615 0.4336409128 0.1619202011
0.7210733782 0.5201076642 0.1291739291
0.8401511757 0.2827063305 0.1937208719
0.8955218203 0.5537478687 0.8426676783
0.6794049223 0.7105843733 0.1649239754
0.6849912554 0.7127019553 0.1655173009
0.7375930563 0.7297830568 0.1701996476
0.926483365 0.795501539 0.2114396608
0.8836577744 0.8222552925 0.7778002796
0.9087871911 0.8355639202 0.3956788664
0.9087355957 0.8356299374 0.3963175794
0.9084095651 0.8360547757 0.4004630179
0.9052953704 0.8398826314 0.4411635846
0.8726228314 0.8554060064 0.732134814
0.04965899563 0.05328929679 0.06567385761
0.117984395 0.07123984208 0.1354797736
0.6170043701 0.1487877824 0.4555505379
0.7415202965 0.1719523407 0.4089731423
0.8907265707 0.5216929319 0.8408569027
0.03669871205 0.09886845431 0.07935683258
0.0868172418 0.09721429772 0.09621320771
0.6311112383 0.1299611369 0.1140838956
0.7490942978 0.1721217092 0.3356731762
0.8913527954 0.5256817698 0.8411906421
0.07861504271 0.4338585482 0.1714646516
0.09883026577 0.45041605 0.1607734966
0.7146108073 0.5458217608 0.1333658248
0.8514430078 0.3266283474 0.1910099003
0.8964385613 0.5603673722 0.8429214243
0.6821697991 0.7116200495 0.1651953433
0.6875711217 0.713659143 0.1657608682
0.7384823916 0.7301902347 0.1703179261
0.9264223434 0.7957948553 0.2115039128
0.8831820319 0.8236349906 0.7767907041
0.9087715922 0.835586834 0.3958992556
0.9087196705 0.8356530779 0.3965407606
0.9083916781 0.8360791821 0.4007025709
0.9052761605 0.8398998841 0.4413627879
0.8726186661 0.8554069141 0.7321686664
0.06561407353 0.2767060586 0.5363855665
0.07689224273 0.1863059875 0.5348307161
0.5961685421 0.1625702247 0.6109986319
0.761605502 0.2129823337 0.6856757516
0.8969612174 0.5642000904 0.8429029707
0.06689139831 0.2856016839 0.5447009836
0.07070815306 0.2483475509 0.5428979493
0.5877933399 0.1644397694 0.5961854804
0.7629305619 0.2138989307 0.6823147981
0.8977134789 0.5698979295 0.8430877676
0.09371739447 0.5778503172 0.6253660307
0.103125559 0.5878197895 0.6341720222
0.6540520798 0.6642666104 0.6683836233
0.8354797162 0.3017147034 0.597032469
0.9021929438 0.6098514674 0.8442462779
0.6868411914 0.7665121293 0.2294001326
0.6917688612 0.7690655055 0.2329043736
0.7431772526 0.7874927224 0.2546768943
0.9174055304 0.8243179013 0.3251949724
0.8806111552 0.8310589835 0.7703277735
0.9086560523 0.8357543006 0.3975162828
0.9086036776 0.8358201942 0.3981586079
0.9082629935 0.8362536724 0.4024218678
0.9051408686 0.8400213327 0.4427686091
0.8725891941 0.8554133301 0.7324081307
0.1017118298 0.5863556063 0.6922772048
0.1011745374 0.5831851247 0.6908163356
0.1611227268 0.5910063504 0.7439873384
0.8661604582 0.3984935411 0.8151694201
0.9028318463 0.7075747358 0.8725698403
0.1018716249 0.5866562742 0.6925322607
0.1013769377 0.5835678736 0.6911400617
0.1656211578 0.5941353948 0.7478403186
0.8682181035 0.4072455927 0.817665399
0.9028140611 0.7077981773 0.8725760102
0.1112796707 0.6106735037 0.7087963143
0.1122329905 0.6113262399 0.7098953808
0.1829199279 0.6737074282 0.7774401283
0.8852595315 0.4979850884 0.8396619321
0.9026554265 0.7097306589 0.8726254798
0.5382606423 0.8410515327 0.878810251
0.5466044248 0.8421984022 0.8788866196
0.6124705893 0.8496925377 0.87766284
0.8566116724 0.8562767509 0.8494826237
0.8770946064 0.8180898811 0.8609895721
0.8670419123 0.8561402377 0.7610433056
0.8670058389 0.8561480103 0.7614219414
0.8667487313 0.8562026998 0.7641360882
0.8654212438 0.856530162 0.7827931531
0.8611529605 0.8570628247 0.8250512603
0.4839554951 0.832353491 0.8771699282
0.4836737858 0.8323017468 0.877152902
0.4839173794 0.8323429225 0.8771676763
0.7729863377 0.8578931755 0.8638517848
0.8641144262 0.8459779422 0.8539972567
0.4841858694 0.8323954409 0.8771837993
0.4839060502 0.8323440961 0.8771669498
0.4841980605 0.8323940445 0.8771845806
0.7733831397 0.8578979608 0.863798524
0.8640724806 0.8460590347 0.8539711306
0.4858384205 0.8326950411 0.8772818031
0.4856046303 0.832652407 0.8772681036
0.4861890834 0.8327547694 0.8773023155
0.7761973176 0.8579296056 0.8634181906
0.863774804 0.8466330225 0.8537856131
0.5837449168 0.8467881758 0.878888076
0.5844209805 0.8468630182 0.878873395
0.5909243012 0.8475690195 0.8787159494
0.7863335535 0.8582895673 0.86191045
0.8606703262 0.8524694812 0.8518396153
0.8556802328 0.8573318262 0.8505970504
0.8556962171 0.8573312773 0.8505941019
0.8558105962 0.857327345 0.8505729987
0.8568918315 0.8572897727 0.8503731119
0.8580232059 0.857249275 0.8501635035
