src-tauri/resources/film_luts/K-Vision 500T Cinematic.cube
# ============================================================================
# spektrafilm LUT
# Bundle:  spektrafilm_v034_vision3500t_2383_1lut_vlog_srgb  (1lut, 25^3)
# Film:    kodak_vision3_500t
# Print:   kodak_2383
# Input:   Panasonic V-Log  (cctf on)
# Output:  sRGB  (cctf on)
# Created: 2026-08-17T16:44:03Z
# spektrafilm: 0.3.4
# Project: https://github.com/andreavolpato/spektrafilm
#
# Copyright (c) 2026 Andrea Volpato. Generated by spektrafilm. Licensed under CC BY-SA 4.0.
#
# License: spektrafilm LUT by Andrea Volpato, licensed under CC BY-SA 4.0.
#          Full text and attribution requirements in SPEKTRAFILM_LICENSE.txt
#          (shipped in this bundle); also at
#          https://github.com/andreavolpato/spektrafilm/blob/main/SPEKTRAFILM_LICENSE.txt.
#
# Citation: If you use this LUT in your work, please cite the spektrafilm
#           project: https://github.com/andreavolpato/spektrafilm, see
#           CITATION.cff for details.
#
# Notes: Generated by the spektrafilm LUT bundle builder. Apply with trilinear
#        or tetrahedral interpolation in your host (DaVinci Resolve, Nuke,
#        OCIO-aware DCC). The input and output color spaces are declared in
#        bundle.json; do NOT apply this LUT to a signal in a different color
#        space.
#
# File: lut_v034_vision3500t_2383.cube  (see sibling bundle.json for full metadata)
# ============================================================================
TITLE "v034_vision3500t_2383"
DOMAIN_MIN 0 0 0
DOMAIN_MAX 1 1 1
LUT_3D_SIZE 5
0.002710593001 0.003690137413 0.003323888175
0.002710593001 0.003690137413 0.003323888175
0.4681015829 0.07353354812 0.3943541067
0.6614141678 0.1389727064 0.5248429879
0.9126111228 0.6229217353 0.8386205301
0.002710593001 0.003690137413 0.003323888175
0.06900441539 0.01846293146 0.004031909018
0.5008273192 0.06549714889 0.03237342912
0.6708248595 0.1438384765 0.5004318652
0.9130342578 0.6256299586 0.8388081186
0.06059191805 0.3755707614 0.08934362716
0.1599289479 0.4136157072 0.06234657265
0.6768647693 0.5113143876 0.09106386127
0.8454498153 0.3573075488 0.337718416
0.9160611006 0.6467944375 0.8395227141
0.6755462372 0.7454429457 0.1913756155
0.6885714707 0.7505147822 0.1950335976
0.7650139388 0.773852018 0.2095889466
0.9254465177 0.8300999448 0.3490146561
0.9067495398 0.8295033786 0.7856480671
0.8872721168 0.8652042605 0.6655526957
0.8873608719 0.8652116791 0.6658423226
0.8879199096 0.8653016912 0.6688423346
0.8929440555 0.8655901726 0.6836938094
0.8895988412 0.8677860527 0.7823346117
0.002710593001 0.003690137413 0.003323888175
0.01048877533 0.008623685058 0.07117946325
0.4752783654 0.07620057928 0.4130345941
0.6657247038 0.1410780082 0.5122697468
0.9128397442 0.6243789205 0.8387149018
0.0008543795144 0.02383183639 0.03426803363
0.03640958988 0.06249007884 0.05167553474
0.5058751425 0.07022686359 0.04333830788
0.6783903956 0.1479620404 0.478835614
0.9132653687 0.6271292584 0.8389012759
0.06026811773 0.3804825404 0.09471335755
0.1391430014 0.4150018993 0.0631930804
0.6731158968 0.5249810878 0.09327704276
0.8534785232 0.3811496701 0.3361662557
0.9162799965 0.6484679711 0.839473538
0.6742109535 0.7453796492 0.1916464981
0.6870204167 0.750082604 0.1948005487
0.76348534 0.773740831 0.2098341453
0.9253393074 0.8302292941 0.3490430533
0.9065792483 0.8300317546 0.7853664042
0.887255513 0.8652065574 0.6655911455
0.8873448221 0.8652136367 0.6658725729
0.8879059414 0.8653024215 0.6688423883
0.8929286323 0.8655925559 0.6837387737
0.8895981699 0.8677862284 0.7823377444
0.02979111379 0.0371812031 0.3296116566
0.05053568539 0.03361268812 0.3393599585
0.4495720855 0.08035250416 0.4961431881
0.6746805972 0.1528048107 0.6015878868
0.9145110454 0.6354994995 0.8392667343
0.02782866689 0.09163919077 0.364642301
0.03391007689 0.08789460865 0.3836811193
0.457806143 0.08747685131 0.5005737993
0.6887976687 0.1635120805 0.6084448443
0.9149404088 0.6385279141 0.8393395169
0.07147226675 0.5258272615 0.5575329869
0.1027369264 0.5583285248 0.5833415446
0.6539502631 0.6352331876 0.6183406834
0.8470439886 0.3703000526 0.5238613306
0.9177560644 0.6604283196 0.8384581112
0.6577534585 0.7740057366 0.2520277861
0.670583271 0.7765652771 0.2522539645
0.75013945 0.7929885963 0.2579765524
0.924628863 0.8309817328 0.3493608798
0.905428213 0.8335241457 0.7834656736
0.887131871 0.8652246627 0.6659049892
0.8872267088 0.8652297196 0.6661398497
0.8878087578 0.8653066816 0.6688203288
0.8928188694 0.8656094902 0.6840581755
0.8895933875 0.8677874809 0.7823600105
0.04364766651 0.3894597767 0.5225055211
0.04246488602 0.3823291253 0.5178636497
0.2393197129 0.1508133803 0.5897255353
0.7083524263 0.1842879404 0.6515410214
0.9174026175 0.6601286709 0.8482864247
0.04353653859 0.3888989429 0.5221437513
0.04245771939 0.3821784303 0.5178122766
0.2702766992 0.1484172316 0.5909859063
0.7219499432 0.1974038732 0.6650567601
0.9177302637 0.6632045816 0.8486363101
0.06026638202 0.4796606431 0.5786549679
0.06180847356 0.4815421449 0.5816579269
0.2729241864 0.5680711492 0.7652479941
0.8322850104 0.3577302749 0.7735602698
0.9195335135 0.6839173726 0.8505937028
0.5920101477 0.8632983724 0.8494220714
0.6050963109 0.8643783026 0.8490906269
0.687334332 0.8688717043 0.8446588942
0.8760874862 0.8631046114 0.8177262625
0.9036294355 0.8286895669 0.825128723
0.8801877139 0.867398769 0.7243137247
0.880306442 0.8673927184 0.7243084299
0.8811288406 0.8673499304 0.7242478665
0.8875011752 0.8670732514 0.7268166267
0.8895412489 0.8678008753 0.7826060251
0.2587122709 0.7677597559 0.8020579289
0.2575370496 0.7670143976 0.8015146636
0.2493299128 0.7616833466 0.7976041443
0.8455759552 0.7059915195 0.8559578709
0.9202593338 0.7353940753 0.8536917191
0.2587023548 0.7677541815 0.8020537853
0.2575256735 0.7670110452 0.8015104914
0.2494319592 0.7617254651 0.7976487787
0.8470224221 0.7056335496 0.8559386682
0.9201925551 0.7368390983 0.8536667454
0.258585295 0.7677238585 0.8020111676
0.2574055925 0.7669854252 0.80146767
0.2503326147 0.762116089 0.7980453442
0.8523972217 0.7126034172 0.8563923567
0.9195853985 0.7467035734 0.8533606648
0.4111040125 0.8338289007 0.844802295
0.4141836781 0.834562773 0.8452373661
0.4412605609 0.8405444776 0.8485935965
0.8278939341 0.8646177842 0.8384886191
0.9022093291 0.8285530659 0.8403301254
0.8729232462 0.8692398184 0.8282893066
0.8729946267 0.8692349377 0.8282766991
0.8735080075 0.8691998076 0.8281861022
0.8784983111 0.8688510067 0.8272962467
0.8845832701 0.8683942297 0.8261340723
