src-tauri/resources/film_luts/K-Vision 500T Cinematic.cube
# ============================================================================
# spektrafilm LUT
# Bundle:  spektrafilm_v034_vision3500t_2383_1lut_vlog_srgb  (1lut, 25^3)
# Film:    kodak_vision3_500t
# Print:   kodak_2383
# Input:   Panasonic V-Log  (cctf on)
# Output:  sRGB  (cctf on)
# Created: 2026-08-17T16:44:03Z
# spektrafilm: 0.3.4
# Project: https://github.com/andreavolpato/spektrafilm
#
# Copyright (c) 2026 Andrea Volpato. Generated by spektrafilm. Licensed under CC BY-SA 4.0.
#
# License: spektrafilm LUT by Andrea Volpato, licensed under CC BY-SA 4.0.
#          Full text and attribution requirements in SPEKTRAFILM_LICENSE.txt
#          (shipped in this bundle); also at
#          https://github.com/andreavolpato/spektrafilm/blob/main/SPEKTRAFILM_LICENSE.txt.
#
# Citation: If you use this LUT in your work, please cite the spektrafilm
#           project: https://github.com/andreavolpato/spektrafilm, see
#           CITATION.cff for details.
#
# Notes: Generated by the spektrafilm LUT bundle builder. Apply with trilinear
#        or tetrahedral interpolation in your host (DaVinci Resolve, Nuke,
#        OCIO-aware DCC). The input and output color spaces are declared in
#        bundle.json; do NOT apply this LUT to a signal in a different color
#        space.
#
# File: lut_v034_vision3500t_2383.cube  (see sibling bundle.json for full metadata)
# ============================================================================
TITLE "v034_vision3500t_2383"
DOMAIN_MIN 0 0 0
DOMAIN_MAX 1 1 1
LUT_3D_SIZE 25
0.002710593001 0.003690137413 0.003323888175
0.002710593001 0.003690137413 0.003323888175
0.002710593001 0.003690137413 0.003323888175
0.002710593001 0.003690137413 0.003323888175
0.002710593001 0.003690137413 0.003323888175
0.002710593001 0.003690137413 0.003323888175
0.002710593001 0.003690137413 0.003323888175
0.004526263185 0.01085405507 0.1367311298
0.09746379047 0.01536453971 0.1587676333
0.1963169406 0.02875204968 0.2942263474
0.3043409428 0.04512403418 0.3376032741
0.3991115827 0.06127474247 0.3716837082
0.4681015829 0.07353354812 0.3943541067
0.5203887545 0.08358671202 0.4101349751
0.5566740636 0.09126853302 0.4160705226
0.585559936 0.09921303714 0.4253660948
0.6083123198 0.1080512637 0.4473760606
0.631222041 0.1197524376 0.4806004697
0.6614141678 0.1389727064 0.5248429879
0.6987201585 0.1676248825 0.5793694471
0.7510388556 0.2182744434 0.6459847068
0.8091845412 0.2960011048 0.7162039689
0.8610415203 0.4007058878 0.7760350292
0.8923750665 0.520998306 0.8138810699
0.9126111228 0.6229217353 0.8386205301
0.002710593001 0.003690137413 0.003323888175
0.002710593001 0.003690137413 0.003323888175
0.002710593001 0.003690137413 0.003323888175
0.002710593001 0.003690137413 0.003323888175
0.002710593001 0.003690137413 0.003323888175
0.002710593001 0.003690137413 0.003323888175
0.001572421536 0.005087251521 0.01151206908
0.03055261153 0.006938658432 0.003357910703
0.1187279411 0.01869523641 0.2317404428
0.2184359742 0.0308468951 0.2886479521
0.3206413249 0.04691054154 0.3286923182
0.4064025421 0.06129341762 0.3539319735
0.4752561303 0.07360596908 0.3754859075
0.5235837506 0.08293598581 0.3857869274
0.5587119784 0.09053919098 0.3911363744
0.5867665092 0.09866128137 0.4079460073
0.6093701123 0.1079880997 0.4383051524
0.6319709082 0.1198397431 0.4751723787
0.662420092 0.1394387299 0.5216657215
0.6997615928 0.1683510907 0.5776787382
0.752114401 0.219416047 0.6458732682
0.8099252747 0.2971625221 0.71622711
0.8614244213 0.4017663345 0.7761220728
0.892519929 0.5216311049 0.8139202772
0.9126741376 0.623322108 0.8386487344
0.002710593001 0.003690137413 0.003323888175
0.002710593001 0.003690137413 0.003323888175
0.002710593001 0.003690137413 0.003323888175
0.002710593001 0.003690137413 0.003323888175
0.002710593001 0.003690137413 0.003323888175
0.002706188329 0.003696172451 0.003345125073
0.004266347133 0.006595315303 0.003908514894
0.05557813949 0.01246254419 0.1540383837
0.1419683099 0.02063237924 0.23034591
0.2449891622 0.0333958898 0.2758578033
0.3350738545 0.04760434215 0.3035110535
0.4167557491 0.06153941461 0.3293657993
0.4812163178 0.07302020461 0.3442749752
0.526420432 0.08179502238 0.3508363868
0.56105074 0.08989034896 0.3651679209
0.5881006726 0.09829390472 0.3931133937
0.6104615359 0.1078754564 0.427855279
0.6330213663 0.1200970762 0.4694632286
0.6635604048 0.1400087396 0.5186678348
0.7008928646 0.1691564171 0.5760173819
0.7532447604 0.220622117 0.6457069361
0.8106759298 0.2983460727 0.716247422
0.8618098003 0.4028394108 0.7762084904
0.89266553 0.5222677555 0.813939637
0.9127372483 0.6237241048 0.8386768875
0.002710593001 0.003690137413 0.003323888175
0.002710593001 0.003690137413 0.003323888175
0.002710593001 0.003690137413 0.003323888175
0.002710593001 0.003690137413 0.003323888175
0.002710593001 0.003690137413 0.003323888175
0.003615837317 0.004946037364 0.00361235997
0.02122669445 0.009805231428 0.09905227914
0.08225461269 0.01436371613 0.1654027217
0.1709005483 0.02248676661 0.205877178
0.2673818438 0.03441871984 0.233669525
0.3535461665 0.04823900069 0.2600053354
0.4274121983 0.06072032543 0.2759071625
0.4872811793 0.07138388428 0.2852527042
0.5300953208 0.08038692048 0.3057334355
0.5634286942 0.08912090576 0.3373675814
0.5894912113 0.0979528268 0.3771239878
0.6116879634 0.1078405439 0.4167896219
0.634260834 0.1204541348 0.4633937748
0.6648469376 0.1406658731 0.5153398031
0.7021320672 0.1700587012 0.5744378754
0.7544133521 0.2218788994 0.6455456215
0.8114365842 0.2995522159 0.7162649725
0.8621984862 0.4039275354 0.7762953043
0.8928119174 0.5229084876 0.8139589533
0.9128004534 0.6241277318 0.8387049883
0.002710593001 0.003690137413 0.003323888175
0.002710593001 0.003690137413 0.003323888175
0.002710593001 0.003690137413 0.003323888175
0.002710593001 0.003690137413 0.003323888175
0.005242184845 0.005515344961 0.01026089352
0.01438297113 0.008410128329 0.04168559352
0.05595734832 0.01164939801 0.06811528193
0.1255568967 0.01634710897 0.0836686805
0.2075127406 0.0235139865 0.1024239192
0.2953632704 0.03383992029 0.1159868144
0.3729962767 0.04566856811 0.128730916
0.4390144253 0.05762153157 0.159856076
0.4942377692 0.06923322274 0.2072831466
0.534124816 0.07891891523 0.2562033931
0.5658619964 0.08837985022 0.3077629191
0.5909574527 0.09752367786 0.3571927064
0.6131724735 0.1079655491 0.4057359111
0.6357287599 0.1209084686 0.4566441207
0.6662893436 0.141417592 0.5117901924
0.7034492559 0.171016314 0.5726317018
0.7556343653 0.2232008933 0.6453745198
0.8123209513 0.3009678576 0.7163642525
0.862589898 0.405029278 0.7763818204
0.8929590963 0.5235533257 0.8139782494
0.9128637511 0.624532995 0.8387330359
0.002710593001 0.003690137413 0.003323888175
0.002710593001 0.003690137413 0.003323888175
0.002718514844 0.003778050457 0.003348023571
0.004174289754 0.004562516382 0.003508565121
0.01164661361 0.005430809298 0.0034978642
0.03488493055 0.007283461056 0.003341327717
0.0869132261 0.0110853881 0.003270435737
0.1603317656 0.01926665218 0.004318844699
0.2450267426 0.03132437919 0.007082229305
0.3188883933 0.04187065101 0.01133715228
0.3903532571 0.04671153541 0.01853006362
0.4498442139 0.0541831111 0.04783636013
0.4993556108 0.06582711658 0.1091294656
0.5375717068 0.07677138261 0.1859333585
0.5685054521 0.08719251479 0.2622960324
0.5929809855 0.09718082003 0.3317098118
0.6149788522 0.1081030226 0.3909701936
0.637837818 0.1216249505 0.4475047161
0.6679941983 0.1423107216 0.5074471155
0.7049377809 0.1721079541 0.5705488941
0.756970704 0.2246460921 0.6449336587
0.8132912792 0.3025234338 0.7162839581
0.8630169634 0.4062394514 0.7764571667
0.8931210934 0.5242629841 0.8139994597
0.9129330661 0.6249779968 0.8387636414
0.002710593001 0.003690137413 0.003323888175
0.002744534958 0.0069455302 0.004031146194
0.002010893052 0.02476171555 0.006900210162
0.003217542548 0.02151600268 0.005872467397
0.009872909257 0.01723630604 0.004875197472
0.02527419585 0.01636290431 0.004480116959
0.06900441539 0.01846293146 0.004031909018
0.1358993474 0.02445540664 0.004367871619
0.214658122 0.03537254445 0.006251683143
0.3020840421 0.04880093154 0.01008575759
0.3810370882 0.05934148255 0.01539721426
0.4472842337 0.06603689854 0.02197279089
0.5008273192 0.06549714889 0.03237342912
0.5395825713 0.07333978054 0.07972953321
0.5717262415 0.08476097437 0.1746529022
0.5967976995 0.09657427731 0.2794839259
0.617966983 0.1082455087 0.3630468821
0.6415247601 0.1230139281 0.433064241
0.6708248595 0.1438384765 0.5004318652
0.7077348917 0.1742424075 0.5675208951
0.7591570167 0.2270419055 0.6442725361
0.8147290368 0.3048530715 0.7161559347
0.8636341006 0.4080043182 0.7765248986
0.8933588487 0.5253059756 0.8140303492
0.9130342578 0.6256299586 0.8388081186
0.002027214823 0.035984084 0.008991382458
0.002492637584 0.07237180174 0.0163472646
0.003068596657 0.09114858829 0.02094177682
0.003705963407 0.086451891 0.01783588858
0.006441567693 0.07792209663 0.01154024427
0.02411186912 0.0745697625 0.00742616619
0.0711271209 0.07035416709 0.006658087552
0.1372742716 0.07002595574 0.006461083318
0.21960135 0.07366967673 0.008017418026
0.3080289468 0.07868868592 0.0115744315
0.3835646385 0.08270604244 0.01643614618
0.4492472515 0.08507981851 0.02252006312
0.5036677854 0.08489339711 0.02973277823
0.5460864615 0.07907258103 0.04061729315
0.5780278846 0.08529629174 0.09455709222
0.6030552059 0.09633266477 0.196269067
0.6236708505 0.1089658263 0.3124306938
0.6476955237 0.1255250563 0.4093337999
0.6756008654 0.1464882866 0.4884018422
0.7122651991 0.1777795945 0.5625689018
0.7625928505 0.2308460477 0.6426940503
0.8169139978 0.308444988 0.7159318067
0.8645636467 0.4106916175 0.7766214444
0.8937109287 0.5268534738 0.8140513939
0.9131852054 0.626607692 0.8388740171
0.004866836967 0.1352295504 0.03616635926
0.005827834599 0.1521465274 0.04224364901
0.006391838642 0.1553656341 0.04230873344
0.00713412618 0.1524920377 0.03781179779
0.00934172379 0.1486162599 0.02973128394
0.01639828721 0.1478782963 0.01799671274
0.07093171857 0.1492555797 0.01268496823
0.1461704951 0.1525433133 0.01230091313
0.2383995495 0.1543949117 0.01320635342
0.3365449251 0.1558887786 0.01720469255
0.4139155055 0.1468229934 0.02198415536
0.4802619011 0.1370305047 0.02795583455
0.5271881421 0.1241888127 0.03386816541
0.56478981 0.1145388732 0.04207113662
0.5978956159 0.09803746915 0.05846332898
0.6183393109 0.1028523715 0.1268099248
0.638254018 0.1146589026 0.2447599172
0.6581498926 0.1299956244 0.3646870385
0.6834810829 0.1508468251 0.4637570358
0.7199906599 0.1840903308 0.5541948721
0.7678995366 0.2368417862 0.6390951591
0.8202407528 0.3140205419 0.7152881949
0.8658687878 0.4149527721 0.7765403397
0.8942553525 0.529254332 0.8140780359
0.9134106131 0.6280796809 0.8389714229
0.01016293399 0.2068108954 0.06332347313
0.01100244515 0.2113614278 0.0638456613
0.01182294877 0.2121533361 0.06194798202
0.01316589695 0.2105751784 0.05717832511
0.01645998692 0.2119069848 0.04999246926
0.02315522496 0.2151213237 0.03827924
0.06341615234 0.2217562142 0.0218545923
0.1509992419 0.2308509455 0.02205397183
0.2502655988 0.2420805711 0.02318669793
0.3482197236 0.2464359229 0.02596462702
0.4491071142 0.2450978202 0.032400553
0.5265938127 0.2316095435 0.0396688447
0.5778935316 0.2094977088 0.04559996772
0.608689362 0.1834239095 0.05101326745
0.6326966074 0.1571534562 0.06173271481
0.6550428475 0.127173103 0.09328522086
0.6639828823 0.129673532 0.1803707157
0.6781139063 0.1414063249 0.3077804956
0.6991689811 0.1612089539 0.4286392858
0.7329027362 0.1952271808 0.5374860919
0.7768529722 0.2474916458 0.6328105549
0.8255003216 0.3231512616 0.7143910756
0.867782044 0.4223753714 0.7761659517
0.8950845033 0.5329346461 0.8141058616
0.9137477485 0.6303047319 0.8391031749
0.01825008875 0.264699408 0.08190388161
0.01952503301 0.2669000285 0.08040000789
0.02144839673 0.2686833867 0.07743798416
0.02474198972 0.2709242459 0.07237956979
0.02893466261 0.2729030972 0.06585630239
0.03849844726 0.2779168014 0.05330748706
0.07040842367 0.2883773901 0.03384933398
0.1535270835 0.3006988035 0.03502317585
0.2523735987 0.315234917 0.03668182268
0.3603845638 0.3314859647 0.04043535574
0.4715391155 0.3416466257 0.04692702912
0.5594128983 0.3345801548 0.0535485301
0.6249690916 0.3193018254 0.0603274216
0.6671455065 0.2925333829 0.06591142089
0.6882261396 0.2578289538 0.07324454726
0.7055314354 0.2166016069 0.09239333752
0.7222156097 0.1793509127 0.150318752
0.7222938072 0.1771547304 0.2617774077
0.7311515352 0.1879995294 0.3892252759
0.7541648283 0.2157045918 0.5067987219
0.7904677888 0.2648334961 0.6193373259
0.8341066646 0.3389743606 0.7125031046
0.8708201067 0.4342353077 0.7753121957
0.8963802629 0.5387347423 0.8140465006
0.9142501944 0.6336960181 0.8392805553
0.03293976737 0.3201927561 0.09278978382
0.03584283129 0.3233181666 0.09004791539
0.03954810173 0.3262410623 0.08622565219
0.04589152331 0.331223052 0.07982214348
0.05392723042 0.3372861467 0.07108450523
0.06363481398 0.3428516783 0.05894852552
0.1034495583 0.3520683448 0.04800594706
0.1722051929 0.3654466004 0.04995137859
0.257964566 0.3836022152 0.05274177536
0.3663196946 0.4021254359 0.05622334991
0.4863589325 0.4245063198 0.06306230335
0.5770760807 0.4256761346 0.06817331356
0.6577867724 0.4227125948 0.07548213547
0.7126465289 0.4055716626 0.08167921223
0.7424210706 0.376948741 0.08864314096
0.7611985292 0.3415633998 0.1028531763
0.7784625047 0.2935269753 0.1448447269
0.7898969046 0.2583145861 0.2374621232
0.7836373821 0.2480955287 0.3526352861
0.7895933644 0.2587848564 0.4779903402
0.8126864498 0.297360252 0.5970771456
0.845285174 0.3610290713 0.7005978695
0.875517787 0.4527644064 0.7726466878
0.898332673 0.5476489485 0.8139120685
0.9149917127 0.6389007746 0.8394270363
0.06059191805 0.3755707614 0.08934362716
0.06590935094 0.380341604 0.0840802258
0.07185734965 0.38523385 0.07769765594
0.0797250738 0.391394084 0.06864661999
0.09497872419 0.398113552 0.06013702975
0.1229328269 0.4045466516 0.06075737454
0.1599289479 0.4136157072 0.06234657265
0.2119229137 0.4276382369 0.06484584017
0.2828944441 0.4472346531 0.06845290337
0.3776839287 0.4698721514 0.07278091519
0.4883502471 0.4919129383 0.07820103218
0.5908781963 0.5077102477 0.08472195831
0.6768647693 0.5113143876 0.09106386127
0.7426505989 0.5049626291 0.09753431952
0.7833528208 0.4893166549 0.1051131729
0.8076798001 0.463807204 0.1171975174
0.8254343455 0.4278371454 0.1501207879
0.8424145339 0.386383222 0.2251660927
0.8454498153 0.3573075488 0.337718416
0.8399875128 0.3448525267 0.4539979046
0.8436557067 0.3541300603 0.5678837939
0.8611418919 0.4020059161 0.6798084204
0.8821464228 0.4792766719 0.7651968826
0.9013333339 0.5616621652 0.8131059414
0.9160611006 0.6467944375 0.8395227141
0.1248797481 0.440385384 0.0702826547
0.1413210457 0.4447156458 0.07108178579
0.1575938323 0.4491863921 0.07196153957
0.1742842895 0.4541344588 0.07294946228
0.1910922897 0.4592456754 0.0739561248
0.2090254265 0.4646956618 0.07500361207
0.2330926986 0.4720728586 0.07639579762
0.2681839882 0.482612604 0.07843208326
0.3267313103 0.500081182 0.0818666597
0.4008198458 0.5216935433 0.08640821459
0.4927553059 0.5465284303 0.0922534355
0.5947517721 0.569987608 0.09922345258
0.6890456411 0.5865240941 0.1069609578
0.7601203236 0.5917179158 0.1142617039
0.8112924875 0.5849481544 0.1222898269
0.8434055521 0.5735090254 0.1345280245
0.8646468702 0.552653086 0.1631588047
0.8798039168 0.520995381 0.2206846362
0.8860255148 0.4864567254 0.3310135992
0.8802315139 0.4681673376 0.4510574504
0.8767403687 0.457584201 0.5520071014
0.8800713537 0.4713171042 0.6580630757
0.8916220098 0.517873481 0.750348525
0.9057743899 0.5832799289 0.8094500695
0.917527563 0.6585217903 0.8388689404
0.2447855458 0.5031240417 0.08540035018
0.2546976913 0.5066384384 0.08616354406
0.2650130936 0.5101906592 0.08693164158
0.2758527666 0.5141323446 0.08784063673
0.2875760301 0.5184316288 0.08882954634
0.300634965 0.5229280249 0.08978378435
0.3204886394 0.5295932574 0.09115098077
0.3492051283 0.5391230246 0.09311716533
0.3878450565 0.5518747941 0.09588788172
0.440148666 0.5685565541 0.09970317232
0.5125522137 0.5904574273 0.1050429913
0.6001811567 0.613765089 0.1113687562
0.690541087 0.6358927988 0.1193798458
0.7693313078 0.6545933507 0.1292759975
0.8294748743 0.6662328371 0.1402252721
0.8677453036 0.6642827229 0.1530681227
0.8926569985 0.6567299921 0.1795688419
0.9080990051 0.6397776182 0.2277807037
0.9167647932 0.6114524447 0.3207780126
0.9120801039 0.5897202881 0.4448611111
0.9063187028 0.5705247219 0.5482442618
0.9032437761 0.5627480239 0.6418846764
0.9048741975 0.5748914319 0.7301808408
0.9126873302 0.6202243675 0.8005150767
0.9193829113 0.6758174066 0.8361982818
0.3667947541 0.5676931089 0.1024836452
0.374302227 0.570400677 0.1031215233
0.3819266488 0.573152444 0.103777754
0.3896412616 0.5760779568 0.1045275257
0.3971123182 0.5790961797 0.1053741877
0.4052967017 0.5822276972 0.1062104069
0.4172184384 0.5864252045 0.1072507131
0.4342852738 0.5922749277 0.1086412553
0.4588109639 0.6005212754 0.1106308051
0.4939096914 0.6122276135 0.1136338431
0.5519242824 0.6304594278 0.118349258
0.6166965836 0.6509347289 0.1244858043
0.6936618203 0.6734995535 0.1320512044
0.7704808048 0.6955507644 0.1418772477
0.8352014664 0.7134099074 0.1536600907
0.8771811226 0.7254973099 0.1700620353
0.9061012089 0.7323085345 0.1951929861
0.9222200297 0.7280857723 0.2382213978
0.9326034605 0.7168815836 0.3168963564
0.932226826 0.6979361051 0.4279317011
0.9266727613 0.6738258619 0.5392261149
0.9227669546 0.6616394034 0.6340996261
0.9202990396 0.6578556348 0.7162372224
0.9199242413 0.6692080869 0.7884989133
0.9213724296 0.702309676 0.8301991609
0.4773534169 0.628733117 0.1230054708
0.4818943184 0.6304165594 0.1235007404
0.4865771915 0.6321472572 0.1240155706
0.4911954084 0.6339856372 0.1246423445
0.4959303819 0.636034059 0.1253916038
0.5010916685 0.6382147993 0.1261877368
0.5092442928 0.6413581654 0.127216721
0.5217330345 0.645626131 0.1284000084
0.5408313958 0.6519312992 0.1301045011
0.5692928531 0.6612087624 0.132632625
0.604265527 0.6732713781 0.136525207
0.6469434773 0.6877984097 0.1416015158
0.7067184875 0.7065938351 0.1483320923
0.7721085585 0.7256012996 0.1561702457
0.8336577969 0.7448566225 0.1680888123
0.8787809148 0.7622420802 0.1868789258
0.9074189457 0.7734058438 0.2111632864
0.9247021966 0.7798984541 0.2512998926
0.933683372 0.7826518785 0.3177775843
0.9367537494 0.7763917078 0.4064165871
0.9337582311 0.7627930859 0.515318891
0.9301416738 0.7450394824 0.6160979786
0.9268729238 0.737316513 0.7025911492
0.9242375561 0.7312408111 0.7690790373
0.9219549541 0.7397840436 0.8179545679
0.5897806553 0.6890034654 0.1492325122
0.5927343666 0.6900832793 0.1496482574
0.5957096831 0.691245238 0.1501394621
0.5987345235 0.6925132715 0.1507221449
0.6018054912 0.6939088355 0.1514366447
0.6051991009 0.6955099068 0.1522878127
0.6096155819 0.6975987031 0.153417844
0.6156675036 0.7002770537 0.1548027109
0.6246823718 0.7035924843 0.1562143063
0.6384354163 0.7083825501 0.1581473827
0.6591855687 0.7151510483 0.1607406682
0.6909783092 0.7259948303 0.1655453074
0.7306495253 0.7395483788 0.1723981409
0.7802457452 0.7551609545 0.1809825004
0.8309519591 0.769743177 0.1904736391
0.874670201 0.7836474926 0.2050746247
0.9050907042 0.7966763393 0.2312627303
0.9220656279 0.8074858453 0.2724068201
0.9300991469 0.8145753611 0.3278682494
0.9316237157 0.8176826664 0.4035328326
0.9293404479 0.8162926834 0.4952250087
0.9255322051 0.8104384423 0.5898196754
0.9223944019 0.79917921 0.6809847456
0.9197803989 0.7911009228 0.7502879788
0.9173938191 0.7872586726 0.8009825305
0.6755462372 0.7454429457 0.1913756155
0.6774295368 0.7460789727 0.1917483208
0.6793370866 0.7467504499 0.1921618397
0.6812718226 0.7474678906 0.1926434971
0.6832324903 0.7482469789 0.1932190621
0.6853962337 0.7491576353 0.1939424181
0.6885714707 0.7505147822 0.1950335976
0.6929107402 0.7523140337 0.1964740228
0.6992894653 0.75470532 0.19823204
0.708301452 0.7575153941 0.1998589892
0.7208523643 0.7613012503 0.2020341243
0.7387817213 0.7662889738 0.2046822266
0.7650139388 0.773852018 0.2095889466
0.7958149299 0.7829524601 0.2169749199
0.834256837 0.7930097734 0.2260205758
0.8706701706 0.8021719264 0.2375529702
0.8999633549 0.8123388204 0.2612106087
0.9180878457 0.8224121779 0.3009151666
0.9254465177 0.8300999448 0.3490146561
0.9266944183 0.8359177682 0.4133776669
0.9236528199 0.8399916291 0.4904811599
0.918633252 0.8409476556 0.574531667
0.9137250579 0.8379008692 0.6585359587
0.9097527616 0.8334850258 0.730364594
0.9067495398 0.8295033786 0.7856480671
0.7508405741 0.79145152 0.2491768024
0.7519656995 0.791780514 0.2495249581
0.7530946797 0.7921235084 0.2499109672
0.7542283009 0.7924851147 0.2503437796
0.7552723321 0.7928542488 0.2508378367
0.756397 0.7932851837 0.2514616165
0.7580417674 0.7939513881 0.2524792884
0.7605066812 0.7949679381 0.2540803454
0.764077522 0.7963471146 0.2562047634
0.769161485 0.7980930009 0.2587470313
0.7765162437 0.8000155076 0.2608875828
0.7855767323 0.80246172 0.2639456246
0.7984750564 0.8055315126 0.267503723
0.8182554441 0.8102004871 0.2738224372
0.8438401704 0.8159357456 0.2830715841
0.8696703386 0.8218241263 0.2963081059
0.8940380325 0.8267878709 0.3107550505
0.91255154 0.8324305618 0.3366941518
0.9208671822 0.8388751231 0.3809659118
0.922198217 0.8448510225 0.4380095881
0.9195791554 0.8496481158 0.5008122095
0.9142489829 0.8532529456 0.5733335385
0.9081204737 0.8547917172 0.6479112618
0.9029242972 0.8540110368 0.7141621833
0.8987367751 0.85176429 0.7721433572
0.8045108549 0.8249990188 0.3325650892
0.8050111944 0.8251024153 0.3327831446
0.8055117124 0.8252101997 0.3330221956
0.8060124019 0.8253231937 0.3332860813
0.8065132522 0.8254422008 0.3335786012
0.8070601271 0.8255803059 0.3339386671
0.8079155842 0.8258040631 0.3345394098
0.8092609706 0.8261666356 0.3355421815
0.811266012 0.8267128281 0.3370928248
0.8142604365 0.8274412433 0.3390621563
0.8186708314 0.8283608947 0.3413397106
0.8245452742 0.8292962417 0.3431339359
0.832959667 0.830581979 0.3457004984
0.8433157436 0.8320879685 0.3489468961
0.8568318972 0.834333559 0.3556440815
0.8731625938 0.8370302087 0.3655301074
0.8905106635 0.8398584762 0.378728292
0.906053988 0.8424711317 0.3946702357
0.9151296664 0.8461971502 0.4261835058
0.9176511577 0.8505947042 0.4731370276
0.9155635745 0.8546619495 0.5265441293
0.9113080548 0.8579563324 0.5842244694
0.9053882186 0.8606560651 0.6490309056
0.8996537104 0.8621015513 0.7087400267
0.8947740816 0.8620302713 0.7615726824
0.8453718107 0.8446627517 0.4220772259
0.8456104132 0.8447021993 0.4222771978
0.8458485607 0.8447432183 0.4224895713
0.8460861755 0.8447859803 0.422715759
0.8463231973 0.8448306623 0.4229571562
0.8465816101 0.8448819229 0.423240157
0.8469586993 0.8449592805 0.4236734958
0.8475191891 0.8450811334 0.424372532
0.8483499256 0.8452773608 0.4255359414
0.8495107107 0.8455713618 0.4273349133
0.851136776 0.8459463845 0.4296231892
0.853630818 0.8463988635 0.4322768354
0.8574694199 0.8468161258 0.4343119571
0.8625451052 0.8473818757 0.4373280172
0.8695271581 0.8480578472 0.4410566507
0.8783339171 0.849106062 0.4482070501
0.8891697005 0.8503198347 0.4578246431
0.8999853277 0.8516402727 0.4706099164
0.9084867316 0.8529108525 0.485603687
0.9124326254 0.8551656407 0.5152843387
0.9112547737 0.8582411018 0.5611264023
0.9080289403 0.8607755333 0.6072553387
0.9031195525 0.8631024973 0.6609861366
0.8979823794 0.8647359827 0.7125447873
0.893161302 0.8655853759 0.7594584374
0.8690270879 0.8555543245 0.5105554341
0.8691345138 0.8555657567 0.5106717849
0.8692372916 0.8555776319 0.5107937925
0.869329117 0.8555900089 0.5109227357
0.8694206068 0.8556028755 0.5110574249
0.8695202324 0.8556175395 0.5112116951
0.869664565 0.8556401092 0.5114506257
0.8698778155 0.8556768658 0.5118432582
0.8702062264 0.8557373966 0.5124951062
0.870688737 0.8558355129 0.5135646933
0.8714048786 0.855983025 0.5151922163
0.8724989893 0.8561679438 0.5172509456
0.8741767945 0.8563760531 0.5195957738
0.8766757877 0.856527499 0.5213078581
0.8800278683 0.8567340549 0.5237832612
0.8845247364 0.8569681429 0.5268513583
