src-tauri/resources/film_luts/K-Vision 250D Cinematic.cube
# ============================================================================
# spektrafilm LUT
# Bundle:  spektrafilm_v034_vision3250d_2383_1lut_vlog_srgb  (1lut, 25^3)
# Film:    kodak_vision3_250d
# Print:   kodak_2383
# Input:   Panasonic V-Log  (cctf on)
# Output:  sRGB  (cctf on)
# Created: 2026-08-17T16:43:59Z
# spektrafilm: 0.3.4
# Project: https://github.com/andreavolpato/spektrafilm
#
# Copyright (c) 2026 Andrea Volpato. Generated by spektrafilm. Licensed under CC BY-SA 4.0.
#
# License: spektrafilm LUT by Andrea Volpato, licensed under CC BY-SA 4.0.
#          Full text and attribution requirements in SPEKTRAFILM_LICENSE.txt
#          (shipped in this bundle); also at
#          https://github.com/andreavolpato/spektrafilm/blob/main/SPEKTRAFILM_LICENSE.txt.
#
# Citation: If you use this LUT in your work, please cite the spektrafilm
#           project: https://github.com/andreavolpato/spektrafilm, see
#           CITATION.cff for details.
#
# Notes: Generated by the spektrafilm LUT bundle builder. Apply with trilinear
#        or tetrahedral interpolation in your host (DaVinci Resolve, Nuke,
#        OCIO-aware DCC). The input and output color spaces are declared in
#        bundle.json; do NOT apply this LUT to a signal in a different color
#        space.
#
# File: lut_v034_vision3250d_2383.cube  (see sibling bundle.json for full metadata)
# ============================================================================
TITLE "v034_vision3250d_2383"
DOMAIN_MIN 0 0 0
DOMAIN_MAX 1 1 1
LUT_3D_SIZE 25
0.003249116851 0.004078737711 0.003227610351
0.003249116851 0.004078737711 0.003227610351
0.003249116851 0.004078737711 0.003227610351
0.003249116851 0.004078737711 0.003227610351
0.003249116851 0.004078737711 0.003227610351
0.003249116851 0.004078737711 0.003227610351
0.003249116851 0.004078737711 0.003227610351
0.003249116851 0.004078737711 0.003227610351
0.002805168752 0.06916428858 0.01391460253
0.2547868281 0.02864334332 0.1264894807
0.3408586253 0.04637199514 0.2886687382
0.4348779937 0.06331221203 0.3401700939
0.4993121577 0.07525363855 0.3708001557
0.5400180591 0.08325724362 0.3924834595
0.5671596521 0.08900515448 0.4018127503
0.5842998266 0.09375744312 0.4137205486
0.5989197647 0.09927342531 0.4240168991
0.6151251347 0.1071457136 0.442552328
0.6409151583 0.1224288281 0.4772175745
0.6763689637 0.1471041483 0.5260580991
0.7323295274 0.1959021588 0.5966368692
0.7967279612 0.274564243 0.6780410154
0.8551893527 0.3828365057 0.7504984825
0.8885179158 0.5031134572 0.7982992129
0.9117590111 0.6155479978 0.8309263193
0.003249116851 0.004078737711 0.003227610351
0.003249116851 0.004078737711 0.003227610351
0.003249116851 0.004078737711 0.003227610351
0.003249116851 0.004078737711 0.003227610351
0.003249116851 0.004078737711 0.003227610351
0.003249116851 0.004078737711 0.003227610351
0.003249116851 0.004078737711 0.003227610351
0.003351773171 0.00804061916 0.003904125534
0.04378317742 0.01317689177 0.003622447199
0.2536065541 0.03055421395 0.1960257891
0.3582598978 0.04894699137 0.2880107687
0.4453848324 0.06464841063 0.334798848
0.5045487176 0.07558670843 0.362736723
0.5428098867 0.08302250536 0.3780972582
0.5682878476 0.08860555367 0.3912923317
0.5852017785 0.09337020776 0.3999624665
0.5999212426 0.09907088453 0.4116370759
0.6165689345 0.1073844366 0.4332399999
0.6430082481 0.1234044201 0.4725422414
0.679185783 0.1489723345 0.5240174651
0.7349488269 0.1983807283 0.5960615925
0.7985965546 0.2772491218 0.6780101922
0.8562389215 0.3852692393 0.7507111024
0.8888583955 0.5045484459 0.7983185967
0.9118979711 0.6163877541 0.8309592737
0.003249116851 0.004078737711 0.003227610351
0.003249116851 0.004078737711 0.003227610351
0.003249116851 0.004078737711 0.003227610351
0.003249116851 0.004078737711 0.003227610351
0.003249116851 0.004078737711 0.003227610351
0.003249116851 0.004078737711 0.003227610351
0.003249116851 0.004078737711 0.003227610351
0.002597909581 0.02373336542 0.005992374916
0.1807066336 0.01791493939 0.01927419609
0.2660871826 0.03277660095 0.217141104
0.372150484 0.05069474363 0.2807912604
0.4532721007 0.06511418231 0.3194014461
0.5085941006 0.07544323283 0.3477932116
0.5457650018 0.0826174815 0.3597209951
0.5694955572 0.08806238359 0.3747967474
0.5863253809 0.09299108349 0.3844130083
0.6012088492 0.09901125849 0.3990737059
0.6185586183 0.1079530472 0.4243611937
0.6453138382 0.1244820142 0.4671331552
0.6821678052 0.1509881081 0.5219554473
0.7375999998 0.2009292936 0.5954814458
0.8005184258 0.2800418133 0.6778725262
0.8571081069 0.387700444 0.75077277
0.889200406 0.5059924448 0.7983145086
0.9120328018 0.6172060134 0.8309879122
0.003249116851 0.004078737711 0.003227610351
0.003249116851 0.004078737711 0.003227610351
0.003249116851 0.004078737711 0.003227610351
0.003249116851 0.004078737711 0.003227610351
0.003249116851 0.004078737711 0.003227610351
0.003249116851 0.004078737711 0.003227610351
0.003360254344 0.005486968502 0.003509948929
0.01784315359 0.008315405852 0.003588158052
0.1745859895 0.0205542289 0.1183059889
0.2897855211 0.03589539455 0.2162554027
0.3903226178 0.05299300137 0.2707047346
0.4641871983 0.06607747883 0.304965541
0.5139614427 0.07517127368 0.3224213582
0.5486860884 0.08214307169 0.3403734272
0.5708136836 0.08724156628 0.3496141431
0.5875565663 0.09241565858 0.3629528066
0.6028499546 0.09901242652 0.3836986879
0.6209579486 0.108786342 0.4159466759
0.6478773073 0.1257071484 0.4612686055
0.6852682424 0.1531204872 0.5197757911
0.740255273 0.2035182949 0.5948280599
0.8024568774 0.2829015453 0.677723511
0.8579089132 0.3900662857 0.750774441
0.8895442311 0.5074466904 0.7983125912
0.9121672602 0.6180257705 0.8310161687
0.003249116851 0.004078737711 0.003227610351
0.003249116851 0.004078737711 0.003227610351
0.003249116851 0.004078737711 0.003227610351
0.003249116851 0.004078737711 0.003227610351
0.003249116851 0.004078737711 0.003227610351
0.003249116851 0.004078737711 0.003227610351
0.003188167216 0.01229261537 0.004436549761
0.1075103305 0.01371506174 0.02959196127
0.2020145145 0.02348175776 0.1393322065
0.3149587328 0.03894699016 0.2033155643
0.4052328158 0.05400234175 0.2406314313
0.4727463425 0.06588477183 0.2696187331
0.5198783387 0.0746688906 0.2901662268
0.5511423741 0.08105527998 0.3057121781
0.572498125 0.08636630228 0.3184880356
0.5890149757 0.09185381217 0.3382812491
0.6048524784 0.09914191299 0.3664736468
0.6237301685 0.1098019109 0.4064808817
0.6505946419 0.1270217454 0.4547340271
0.6885289873 0.1554102867 0.517534143
0.7429658406 0.2061998368 0.5940932961
0.8044099876 0.2858289153 0.6775703487
0.8587091137 0.3924574761 0.7507742271
0.889888937 0.5089073476 0.7983114062
0.912301397 0.6188473931 0.8310441021
0.003249116851 0.004078737711 0.003227610351
0.003249116851 0.004078737711 0.003227610351
0.003249116851 0.004078737711 0.003227610351
0.003249116851 0.004078737711 0.003227610351
0.003249116851 0.004078737711 0.003227610351
0.003525937182 0.006308463406 0.003644168577
0.05517381065 0.01000334309 0.01491921956
0.1423279631 0.01703702376 0.06862435828
0.2521218774 0.02805770368 0.1167871921
0.3459062585 0.04152575278 0.1537489304
0.4235564179 0.05434964703 0.1802481174
0.4853001127 0.06539193132 0.2095281332
0.5248567153 0.07286788607 0.2256007512
0.5539475026 0.07911376317 0.2444922013
0.5746429903 0.08497729345 0.2692915522
0.5912442407 0.09133733093 0.3045191717
0.6072260159 0.09940363458 0.3471345212
0.6271278209 0.1110302907 0.3937891347
0.653736533 0.1286252628 0.4481864811
0.6922175717 0.1580512559 0.5150437283
0.74597517 0.2092345084 0.5933593147
0.8065622848 0.2891043772 0.6773987363
0.8595641431 0.3950368535 0.7506537407
0.8902652124 0.5105131222 0.7983097595
0.9124454167 0.6197326438 0.8310622115
0.003249116851 0.004078737711 0.003227610351
0.003249116851 0.004078737711 0.003227610351
0.003249116851 0.004078737711 0.003227610351
0.005560500059 0.004553526445 0.003461928982
0.02813631595 0.006845133791 0.003497422764
0.08068456999 0.01053837804 0.003398045351
0.1543375663 0.0181988563 0.004351422911
0.2371128403 0.02950134015 0.006924316744
0.3130160092 0.0405449816 0.01088316295
0.3841801123 0.0490224373 0.01631894398
0.4441840196 0.05279461446 0.02358912926
0.4912295436 0.05950852125 0.0419648533
0.5267625941 0.06721112416 0.07294786379
0.5562261739 0.07530075094 0.1219315145
0.5774888445 0.08278595056 0.1803228992
0.5957549363 0.09116185039 0.2481838203
0.6115339399 0.1000057953 0.3113567525
0.6325108177 0.1131169055 0.374475141
0.6587112152 0.1313077274 0.4391892665
0.6978479437 0.1621825913 0.5110547271
0.7503805526 0.2137746295 0.5921600153
0.8093099999 0.2933397123 0.6766425729
0.8607666298 0.3987214861 0.7504278183
0.8908036773 0.5128178419 0.798297951
0.9126447159 0.6209621124 0.8310593392
0.003249116851 0.004078737711 0.003227610351
0.00336791166 0.007412441027 0.003816261059
0.002642593501 0.02249022413 0.005817714815
0.002645555267 0.03631901154 0.007772696843
0.005680303638 0.02844254445 0.005469694104
0.02246126346 0.02483367554 0.00469332175
0.07666089984 0.02690114245 0.004157721464
0.1636663728 0.03795527891 0.005002072428
0.2632373308 0.05294279541 0.008096882084
0.3496640324 0.06396449975 0.01268123563
0.4240164602 0.07313781234 0.01841635365
0.4831453632 0.07919214829 0.0244624022
0.5246498261 0.08142988391 0.03044301998
0.5584952231 0.07770048026 0.04053441057
0.5829354238 0.08290734013 0.08365209401
0.6028272427 0.09168262197 0.1614369874
0.6218562699 0.1033133116 0.2575672449
0.6416164624 0.1170139516 0.3441029902
0.6669094649 0.135885765 0.4233016219
0.7059983279 0.168323721 0.5028829142
0.7565531011 0.2203007404 0.5894284912
0.8131603353 0.2994155818 0.6754381431
0.8625163728 0.4042110227 0.7502210109
0.891576649 0.5161381597 0.7982476009
0.9129397338 0.6227986428 0.8310536485
0.002779115139 0.06891016247 0.01392538313
0.003640996887 0.09828126819 0.02139226232
0.004659211295 0.1225874502 0.0288296175
0.005198976576 0.1324113701 0.03166250508
0.005730562282 0.1300680078 0.02884077761
0.007910615185 0.1242061054 0.02120559914
0.03900876356 0.1205802034 0.009894435922
0.136660758 0.1210888154 0.009063447853
0.2524753945 0.1274085627 0.01119511532
0.3621903297 0.1314115082 0.01649801311
0.4447463418 0.1282452398 0.02253309396
0.504116217 0.122407142 0.02821467559
0.5450381178 0.1176242714 0.03344683651
0.5742764742 0.1133144394 0.03890586692
0.5987946967 0.1056654028 0.04737517348
0.6216793224 0.100383329 0.08888206421
0.6393775606 0.1109468798 0.1860279239
0.6578186788 0.1251511618 0.2985836244
0.683052984 0.1460982492 0.3993352193
0.7188880163 0.1787084536 0.4902120762
0.7662391318 0.2310852138 0.5845146742
0.8189628974 0.3089119895 0.6732100007
0.8650890075 0.412560355 0.7499337188
0.8927843727 0.5213511096 0.7982141047
0.9133752548 0.6255467507 0.8310438215
0.007864170196 0.1767356084 0.04947609842
0.008855883518 0.1896149108 0.05421446542
0.009849753609 0.1992116596 0.05770878147
0.01049725646 0.2039161914 0.05875139811
0.01117713134 0.2054242563 0.05763584728
0.0124852191 0.2051840155 0.05376294745
0.01810669371 0.206302698 0.04068757007
0.0853175224 0.2143024616 0.01969605208
0.2233469757 0.2287675057 0.02030481867
0.3659241606 0.2415049807 0.02506610981
0.4802214862 0.2401373539 0.03331231706
0.553800005 0.225312269 0.04036085476
0.5991297915 0.2036921712 0.04524965615
0.6211668704 0.182077369 0.04818860626
0.6356471674 0.1645106152 0.0523692031
0.65227879 0.147271821 0.06380643678
0.6734923905 0.1319282123 0.1183099344
0.6897323697 0.1457246166 0.2406907135
0.7105312393 0.1665311427 0.3670482743
0.7413483981 0.199393481 0.4760117776
0.782307537 0.2506395394 0.5770771531
0.8278491509 0.324345964 0.6692249081
0.868560282 0.424973689 0.7483570457
0.894609298 0.5293017255 0.7979532084
0.9140165053 0.6296790762 0.8310512235
0.01497737607 0.2467817153 0.07533444097
0.01598776816 0.2530091075 0.07727041361
0.01688579976 0.2582247494 0.07868494968
0.01762209814 0.2614215362 0.07900586507
0.01858175709 0.2636753729 0.07822783686
0.01998465044 0.2651166414 0.07606387707
0.02411871036 0.2680711703 0.06936142515
0.04196665751 0.2803674844 0.04637682401
0.16144706 0.298087263 0.03308275921
0.3231983435 0.3265926462 0.0374636595
0.4783339629 0.3450824488 0.04600219626
0.5873766497 0.3415934771 0.054845601
0.6536998605 0.325382256 0.06121657345
0.6855875425 0.298195199 0.06418177507
0.6971992798 0.2649658728 0.06599282214
0.7032398866 0.2376619817 0.07159021734
0.7152539306 0.2079500615 0.09069880779
0.7388782707 0.1878928446 0.1708400349
0.7523345764 0.205409648 0.3157591682
0.7741486362 0.2354264411 0.450485077
0.806183781 0.2841036663 0.5631326091
0.8422749397 0.35209213 0.6638038409
0.8732392703 0.4430579649 0.743953029
0.8972935263 0.5411710423 0.7971335767
0.9149470168 0.6359171133 0.8310481616
0.02466538082 0.3032688311 0.09341640343
0.02563734537 0.3065827787 0.09389885017
0.0265955594 0.3094007674 0.09403477296
0.0276537502 0.3118167821 0.09372853408
0.02899443385 0.3141495067 0.09286927713
0.0309702202 0.3170840181 0.09117688783
0.0353981863 0.3221416837 0.08711927242
0.04663427039 0.3305478341 0.07476161029
0.1086455743 0.3520088696 0.04630749701
0.2591594388 0.3837472381 0.05113012428
0.4321985411 0.4178326284 0.05835068456
0.5815323578 0.4325422267 0.06694184599
0.6766805899 0.4318023994 0.07499423043
0.7325653062 0.4158244224 0.08005827646
0.7547030809 0.3858253459 0.08216783989
0.7632456752 0.3551705614 0.08593337947
0.7682349078 0.3233994939 0.09774676907
0.7865532889 0.2908376867 0.1419896755
0.8069214124 0.2765844188 0.2600702289
0.8165762465 0.2961729685 0.4082586657
0.8350408015 0.3337142436 0.5409886375
0.8594227846 0.3952757312 0.652931742
0.8802340839 0.4703652827 0.7357221825
0.9012835807 0.5593960165 0.7952389926
0.9162457699 0.6451534615 0.830615212
0.03744911648 0.3459969163 0.1013819332
0.03884253467 0.3485013736 0.1009584054
0.04034410854 0.3510169175 0.1002962737
0.04194494515 0.3534572061 0.09946274408
0.043721237 0.3558352385 0.09838667304
0.04581344486 0.3583922374 0.09687609648
0.04995301779 0.3629684031 0.09354328811
0.060496416 0.3738942089 0.08385472853
0.08749099816 0.3931430329 0.05732263408
0.2106270405 0.4250272945 0.06212578685
0.3738800351 0.4680180727 0.07009407232
0.5449434895 0.5019674271 0.07894328415
0.6762850302 0.5143204581 0.0873984363
0.755995085 0.5136878134 0.09438184126
0.7941511317 0.4941147365 0.09755998661
0.8121752418 0.4722355753 0.1014159001
0.817531349 0.4417857261 0.1100364832
0.8289278107 0.414681797 0.1409318356
0.8485327617 0.3893770735 0.2189069791
0.8587029845 0.3879205551 0.360859245
0.8646424483 0.4114982025 0.5047534532
0.8762124893 0.4545471483 0.6315201908
0.8899858004 0.509137118 0.7243943929
0.9067354983 0.5856655908 0.7922860463
0.9179327293 0.6582498355 0.8294013221
0.05674832197 0.386969359 0.1003700901
0.05857525747 0.3894159929 0.09912251124
0.06062150248 0.3920559929 0.09764417808
0.062971684 0.3949625433 0.09590452469
0.06559404516 0.398028226 0.09386590415
0.06851510259 0.4013450211 0.09135240735
0.07305041115 0.4061244537 0.08711562473
0.08109583657 0.4138675416 0.07857168146
0.1143595559 0.4294047944 0.06505628375
0.1973907666 0.453529337 0.06958608714
0.3229851857 0.4929071575 0.07712757059
0.4846721146 0.5392635384 0.08719338251
0.6442876199 0.5758301251 0.09813065883
0.7552402494 0.5872759469 0.1062188407
0.8160461339 0.5839310586 0.1119811105
0.8463793236 0.5717949419 0.1166428294
0.8568137812 0.5501841092 0.1241099227
0.8675184498 0.5333724216 0.1481566473
0.8811748854 0.5108783958 0.2065515225
0.8926877886 0.4971826149 0.3285772276
0.891431235 0.502668093 0.4728493682
0.8950972653 0.5241220799 0.59606056
0.9036351545 0.5662220331 0.7079762116
0.9130845355 0.6194396262 0.7866028504
0.9199418332 0.6766772375 0.8265826026
0.08853890601 0.4326373641 0.07997364326
0.09082402363 0.4348759225 0.07747739845
0.09322361333 0.4372082631 0.07468902632
0.09599253184 0.4398319231 0.07145780735
0.1014432075 0.4423841732 0.06971696614
0.1097480748 0.4451025003 0.06953376231
0.1227299579 0.4491213726 0.06992078778
0.1426727619 0.4552463232 0.07116002848
0.1731296292 0.4651877324 0.07315233933
0.22414199 0.4829069894 0.07673768709
0.3051102984 0.5114555054 0.08253535206
0.4338873386 0.5549019903 0.0918055684
0.5911483831 0.6010365712 0.103267901
0.7280482743 0.6330370612 0.1143532926
0.8202129028 0.6493576129 0.1234947349
0.8657815474 0.6510433818 0.1304618454
0.8871317895 0.644902933 0.1392541829
0.897145609 0.6328020055 0.1579806492
0.9079659872 0.6199828995 0.2045953422
0.9189264844 0.6050050015 0.3067186489
0.9171026374 0.6028560131 0.4446678055
0.9155583314 0.6089047834 0.5697595709
0.916822478 0.6282453805 0.6803958701
0.9197224442 0.6605911043 0.7683104754
0.9219077141 0.7016577367 0.8200491606
0.1881962166 0.4811693641 0.07705243083
0.1925760748 0.4828235113 0.07741597151
0.1970834077 0.484564083 0.07778392487
0.2017687746 0.4864323099 0.07819547768
0.2064781942 0.4883027295 0.07861031274
0.2117149765 0.4903771279 0.07905045664
0.2193410234 0.4933816972 0.07970209438
0.231258371 0.4980714279 0.08074995295
0.2487488301 0.5048901502 0.08221412743
0.2772867417 0.515903352 0.08459768174
0.3337523502 0.5372689427 0.08917635859
0.4201715415 0.5687395018 0.09615123568
0.5441942964 0.6099382435 0.1059640085
0.6814190576 0.6515764758 0.1179837274
0.7960094568 0.6820498032 0.1295122953
0.8659224726 0.6965973627 0.138391189
0.9002076624 0.706512442 0.1499100261
0.9160293531 0.7105406378 0.1678290694
0.9253926706 0.7080931404 0.2062141904
0.9344294848 0.701126425 0.290051274
0.9344393715 0.6945075987 0.4144847152
0.9303236981 0.6916106904 0.5385349447
0.9272325378 0.6949590307 0.6486266557
0.925235117 0.7113030833 0.7409014774
0.9227256321 0.7390164591 0.8066125281
0.2952794925 0.530855362 0.08849332401
0.2984090858 0.5321109131 0.08877845739
0.3015902271 0.5334387183 0.08908779351
0.3048510481 0.5348256883 0.08940774182
0.3083167673 0.536267114 0.08974002914
0.312198954 0.5378605932 0.09009910148
0.3180509107 0.5402363029 0.09065287717
0.3273111465 0.5439432341 0.09150325634
0.3412356752 0.5494476159 0.09274338956
0.3629505017 0.5579279478 0.09467451178
0.3949544325 0.5703228852 0.09755006475
0.4453045239 0.5897370703 0.1022839889
0.524908315 0.6185119371 0.1094941225
0.6385769904 0.6569792244 0.1200484161
0.7595078854 0.6952855053 0.1326322228
0.8485361191 0.7209816461 0.1437757046
0.8988504985 0.7383385071 0.1554950676
0.9206632967 0.7516211505 0.174280805
0.9315275844 0.7617251277 0.2089133287
0.9381407849 0.7695932608 0.276809121
0.9404577043 0.7672876989 0.3791443498
0.9356985251 0.7631786835 0.5053368751
0.9309123442 0.7598973335 0.6136491929
0.9261334501 0.7621102436 0.7101999051
0.9204609962 0.7765760907 0.7848640178
0.4117603587 0.5835354832 0.1014570442
0.4137758395 0.584388146 0.1016851909
0.4158610426 0.5853067798 0.1019447617
0.4179753892 0.5862430348 0.1022050445
0.4200872991 0.5871624803 0.1024505005
0.4224147334 0.5881641209 0.1027196853
0.4258624987 0.589643793 0.1031263409
0.4308907347 0.5918086568 0.103702044
0.4385920328 0.5950588749 0.1045692637
0.4506540072 0.6000140214 0.1059063078
0.4686681825 0.6071962279 0.107799581
0.4969785365 0.6182133981 0.1107418163
0.5510923132 0.638351545 0.11619148
0.6258694589 0.6655607181 0.1241987807
0.7212804287 0.698373898 0.1349539418
0.8186305013 0.7311784807 0.1480203572
0.884905692 0.7541916601 0.1606161661
0.9185808812 0.7710090766 0.1777151641
0.9318208843 0.7881587729 0.2122174623
0.936809425 0.8016493171 0.2722682845
0.937072134 0.8092689112 0.3609038802
0.9327915337 0.8128337705 0.4741205987
0.926512874 0.8127473178 0.5825077301
0.9204760805 0.81137255 0.6789053802
0.9142986568 0.81417972 0.7560242297
0.514688355 0.6312456156 0.1152740211
0.5161024435 0.6318487575 0.1154594586
0.5175406183 0.6324758062 0.1156522378
0.5189867831 0.6331170284 0.1158546843
0.520452847 0.6337579454 0.1160567189
0.5220593464 0.6344528331 0.1162771137
0.5243016488 0.6354321293 0.1165928827
0.5276011488 0.6368611647 0.1170374166
0.5332388506 0.6392044001 0.1177581325
0.5421477208 0.6428023943 0.118858461
0.5561986542 0.6483268792 0.1205301688
0.5773563518 0.6565173426 0.123023915
0.6059480404 0.667847536 0.1267200703
0.6449213956 0.6837268881 0.1324148157
0.710034261 0.7085759638 0.1417085963
0.7893299786 0.737174801 0.1537583536
0.8635649028 0.762629571 0.1672111766
0.9088279044 0.7831617441 0.1865481111
0.9288852147 0.7986752335 0.2143414458
0.9349387519 0.8154801151 0.2724219803
0.9340550134 0.8273184917 0.351799555
0.9285673633 0.8358660165 0.4538581834
0.9212868848 0.8395820253 0.5570494956
0.9141270746 0.8397927303 0.6521513425
0.9075863577 0.8403107268 0.7302781772
0.6205146248 0.6810633844 0.1330747337
0.6212161984 0.6814543678 0.1332504733
0.6219229791 0.6818530344 0.1334316276
0.622621701 0.6822475436 0.1336116241
0.6233186833 0.6826327594 0.1337857346
0.624079609 0.6830470388 0.1339719401
0.6251903086 0.6836440837 0.1342394436
0.6268624263 0.684530253 0.1346356979
0.6293811583 0.6858262956 0.1352235073
0.6332491998 0.6877897376 0.136108876
0.6392372869 0.6907709768 0.137469377
0.6487915501 0.6952701858 0.1394586371
0.6642712069 0.7020374689 0.1423586553
0.6899155154 0.7126974829 0.1469685588
0.7271286 0.7280034488 0.1541000928
0.7810251388 0.7486281988 0.1645665923
0.8425640966 0.7718751639 0.1796865121
0.8936220575 0.7919846768 0.1998841321
0.922659576 0.8070730608 0.2272432853
0.9325092761 0.821321709 0.2758851633
0.932224436 0.8344037379 0.3516789092
0.9263689465 0.8447417008 0.4460471145
0.918378962 0.8511190381 0.5423150924
0.9101698411 0.8544058739 0.6324395219
0.9027861746 0.8557633164 0.7111386807
0.7053501458 0.7275600145 0.1570093607
0.7058191673 0.7278367613 0.1571871961
0.706289074 0.7281130903 0.1573663923
0.7067592655 0.7283875836 0.1575444181
0.7072287861 0.7286574237 0.157718445
0.7077408863 0.7289461964 0.157903276
0.7084866775 0.7293620617 0.1581688145
0.7095981146 0.7299755122 0.1585606529
0.7112642935 0.7308821676 0.1591403207
0.7137529669 0.73219927 0.1599712782
0.717473282 0.7341481293 0.1612153702
0.7227119758 0.73689105 0.1630159352
0.7306298857 0.7411082277 0.1658920666
0.7436254704 0.7473254051 0.1700474816
0.764794031 0.7570707711 0.1769791089
0.793389586 0.7704660739 0.188201347
0.8343941877 0.7859528122 0.2022376461
0.8784233682 0.8019970409 0.2224871859
0.9121615789 0.8159600972 0.2519722973
0.9275395642 0.8282711482 0.299134071
0.9302608947 0.837950336 0.3580510554
0.9249303091 0.8481761829 0.4483837836
0.9172692001 0.8550298941 0.537118026
0.9090176431 0.8594778223 0.6207371142
0.9009775166 0.8621581076 0.6984768721
0.777048349 0.7733663133 0.1966534888
0.7773159634 0.7735341221 0.196849719
0.777583851 0.7737018533 0.1970462693
0.7778518029 0.7738685296 0.1972415748
0.7781196142 0.7740331852 0.1974340758
0.7783765575 0.7742028196 0.1976387685
0.778749234 0.7744449174 0.1979300396
0.7792971237 0.7747955738 0.1983515288
0.7801147158 0.7753038156 0.1989571962
0.7812964486 0.7760367639 0.1998370783
0.7829566872 0.7770806365 0.201116219
0.785508918 0.7786398572 0.2030459573
0.7894428197 0.780871269 0.2058087252
0.7952713226 0.7840207651 0.2097962461
0.8042034022 0.7883012961 0.2152550834
0.8197870738 0.7949565664 0.2241182968
0.8434365374 0.8045087059 0.239047339
0.8709548709 0.8152730279 0.2610244615
0.8996944151 0.8264499735 0.2940198009
0.9198631283 0.8347101254 0.3309243376
0.9259669292 0.8424847548 0.3839247919
0.9233418969 0.8501447725 0.4555455139
0.9160913553 0.8568167848 0.5406404036
0.9084109072 0.8612533845 0.6183363236
0.9004803592 0.864260989 0.6928721715
0.8279619935 0.8083083961 0.2549056942
0.8280835352 0.8083988011 0.255124246
0.8282051498 0.8084889528 0.2553424764
0.8283268448 0.8085785737 0.2555595516
0.8284486283 0.8086673885 0.2557746387
0.8285818997 0.8087632557 0.2560065619
0.8287763193 0.8088999907 0.2563364781
0.829065746 0.809099793 0.2568182979
0.8294968895 0.8093922676 0.2575246752
0.8301409907 0.8098188977 0.2585577424
0.8311135779 0.8104336901 0.2600463389
0.8325949129 0.8113085737 0.2621620998
0.8347838416 0.8125956278 0.2653572234
0.8379972356 0.8144028334 0.2699661036
