src-tauri/resources/film_luts/K-Vision 250D Cinematic.cube
# ============================================================================
# spektrafilm LUT
# Bundle:  spektrafilm_v034_vision3250d_2383_1lut_vlog_srgb  (1lut, 25^3)
# Film:    kodak_vision3_250d
# Print:   kodak_2383
# Input:   Panasonic V-Log  (cctf on)
# Output:  sRGB  (cctf on)
# Created: 2026-08-17T16:43:59Z
# spektrafilm: 0.3.4
# Project: https://github.com/andreavolpato/spektrafilm
#
# Copyright (c) 2026 Andrea Volpato. Generated by spektrafilm. Licensed under CC BY-SA 4.0.
#
# License: spektrafilm LUT by Andrea Volpato, licensed under CC BY-SA 4.0.
#          Full text and attribution requirements in SPEKTRAFILM_LICENSE.txt
#          (shipped in this bundle); also at
#          https://github.com/andreavolpato/spektrafilm/blob/main/SPEKTRAFILM_LICENSE.txt.
#
# Citation: If you use this LUT in your work, please cite the spektrafilm
#           project: https://github.com/andreavolpato/spektrafilm, see
#           CITATION.cff for details.
#
# Notes: Generated by the spektrafilm LUT bundle builder. Apply with trilinear
#        or tetrahedral interpolation in your host (DaVinci Resolve, Nuke,
#        OCIO-aware DCC). The input and output color spaces are declared in
#        bundle.json; do NOT apply this LUT to a signal in a different color
#        space.
#
# File: lut_v034_vision3250d_2383.cube  (see sibling bundle.json for full metadata)
# ============================================================================
TITLE "v034_vision3250d_2383"
DOMAIN_MIN 0 0 0
DOMAIN_MAX 1 1 1
LUT_3D_SIZE 5
0.003249116851 0.004078737711 0.003227610351
0.003249116851 0.004078737711 0.003227610351
0.4993121577 0.07525363855 0.3708001557
0.6409151583 0.1224288281 0.4772175745
0.9117590111 0.6155479978 0.8309263193
0.003249116851 0.004078737711 0.003227610351
0.1543375663 0.0181988563 0.004351422911
0.5267625941 0.06721112416 0.07294786379
0.6587112152 0.1313077274 0.4391892665
0.9126447159 0.6209621124 0.8310593392
0.03744911648 0.3459969163 0.1013819332
0.04995301779 0.3629684031 0.09354328811
0.6762850302 0.5143204581 0.0873984363
0.8485327617 0.3893770735 0.2189069791
0.9179327293 0.6582498355 0.8294013221
0.514688355 0.6312456156 0.1152740211
0.5243016488 0.6354321293 0.1165928827
0.6059480404 0.667847536 0.1267200703
0.9288852147 0.7986752335 0.2143414458
0.9075863577 0.8403107268 0.7302781772
0.8825536591 0.8492936088 0.4398121004
0.8826778916 0.8493858677 0.4406059665
0.8836247656 0.8499659513 0.4456434627
0.8940382443 0.85406623 0.4859112952
0.8982229824 0.8660227425 0.7057325805
0.003249116851 0.004078737711 0.003227610351
0.06194634733 0.01227127447 0.09196816057
0.514566829 0.07855508786 0.38048478
0.6640563945 0.1342335302 0.4282874958
0.9128424192 0.6221896845 0.8310443946
0.001159834369 0.0282456049 0.02854951978
0.03639949491 0.06253925416 0.05155988357
0.5335389861 0.07627015626 0.08635068674
0.6959325552 0.1552442651 0.3848357837
0.9136671534 0.6274128139 0.8310370911
0.04120911522 0.3612954479 0.1101318298
0.05525597716 0.3813574908 0.1040348749
0.6741613379 0.5376810469 0.09398139917
0.8603816498 0.4332722922 0.2117473052
0.9186765462 0.6645971001 0.8286376624
0.5171160594 0.6323879134 0.1156275221
0.5264321604 0.636463884 0.116919781
0.6061898164 0.6682157535 0.1268951818
0.928609452 0.7989287149 0.2145045079
0.9073854487 0.8410157157 0.7294145296
0.882583754 0.8493182591 0.4400221561
0.8827074322 0.8494107857 0.440819385
0.8836462573 0.8499899256 0.4458551262
0.8940287651 0.8540794391 0.4860558408
0.8982198156 0.8660236284 0.7057518613
0.02794230553 0.09980486289 0.3690986282
0.03404747879 0.06368076252 0.372951397
0.496789041 0.08399908487 0.4700564758
0.6738425979 0.1499336723 0.5882521939
0.919062513 0.6680614495 0.828070057
0.028245688 0.1072389904 0.3742290448
0.02815231442 0.1251685949 0.3813162613
0.5051908699 0.09362457496 0.4701216101
0.6887785592 0.1611557745 0.5961885656
0.9195497122 0.6726952493 0.8272189728
0.05513885314 0.504052042 0.53536754
0.06458386989 0.5179572084 0.5446116635
0.6525849178 0.6341137833 0.6179699911
0.8522506862 0.3826906843 0.6020461614
0.9220758286 0.7046405297 0.8190416209
0.464444922 0.7345432036 0.2493298179
0.4784383892 0.7402313801 0.2549367107
0.5831224722 0.7762148199 0.2898644974
0.9240628346 0.8320581689 0.3467712419
0.9060253247 0.8456507031 0.7236766022
0.8827983897 0.8494949754 0.4415350948
0.8829198136 0.849587062 0.4423351229
0.8838004177 0.850162766 0.4473877932
0.8939647812 0.8541732408 0.4870849501
0.898196708 0.8660300912 0.7058940467
0.04892469566 0.434937475 0.5462168588
0.04938556306 0.4329856883 0.5464407522
0.1486955232 0.4308482805 0.6619311936
0.778743538 0.2593396465 0.7154533957
0.9196332324 0.6819539916 0.8502605965
0.04918264471 0.4358086547 0.5469484814
0.04973411524 0.4339567261 0.5473333089
0.1556396208 0.4331916568 0.6682610049
0.7923860063 0.2789001593 0.7286998011
0.9197785634 0.6839789822 0.8504161132
0.05936849612 0.4891023586 0.5799923338
0.06115874598 0.4918787359 0.5835828609
0.1464109495 0.5631736434 0.694082796
0.8659941351 0.4377230877 0.7990934913
0.9205363587 0.6968912845 0.8512222077
0.3571591583 0.8209908143 0.8306722379
0.3732142922 0.8258187831 0.8337696037
0.4920032628 0.8516444618 0.8468082457
0.8755093639 0.8631956359 0.8173868826
0.9006518575 0.8353508628 0.8307196537
0.8521436304 0.8688405473 0.7292629621
0.8523404547 0.8688405739 0.7294846116
0.8537196726 0.8688420737 0.7311401568
0.8688096718 0.8685415542 0.7435567427
0.889701278 0.8678590413 0.7813359638
0.2502465738 0.7723337687 0.800177253
0.2519685634 0.7732461843 0.8009489658
0.2690526702 0.7818353415 0.8081474335
0.7754781246 0.8540587061 0.8481762862
0.9098475593 0.8054797891 0.8458257809
0.2506807146 0.7725790059 0.8003759282
0.2524121639 0.7734944692 0.8011496537
0.2696075239 0.7821156043 0.8083707029
0.7758979335 0.8540584284 0.8481373159
0.9096668721 0.8061345356 0.8456862525
0.2538196798 0.7743353892 0.8017953135
0.2556477891 0.7752862111 0.8025956524
0.2735178705 0.7840697551 0.8099213346
0.7788746804 0.8540544171 0.8478580677
0.9083484414 0.8107359101 0.8446682493
0.3389269761 0.8147132455 0.8310534004
0.3419454244 0.8157434465 0.8317873243
0.3698579968 0.8245512758 0.8378646277
0.7605347192 0.8696203002 0.8450456629
0.8945156282 0.8481936016 0.8338781693
0.8447605449 0.8709590357 0.8327461924
0.8450307357 0.8709451739 0.8327040801
0.8469253421 0.8708467506 0.8324075298
0.8636620378 0.8698831738 0.8296893438
0.884652233 0.8684120977 0.8259764778
